Zehao0525/comp0250_s25_labs/CW2_Task1/CW2_training_data/output_effort.csv
timestamp,joint_1,joint_2,joint_3,joint_4,joint_5,joint_6,joint_7,joint_8,joint_9,joint_10,joint_11,joint_12
1741261517.4059725,1.9048477411270142,0.3463359475135803,5.025994300842285,-1.9295859336853027,0.5195039510726929,6.02170991897583,2.424351692199707,1.0884844064712524,5.64238977432251,-2.0780158042907715,0.2721211016178131,6.02170991897583
1741261517.4074578,1.9048477411270142,0.37107422947883606,5.025994300842285,-1.9048477411270142,0.5195039510726929,6.02170991897583,2.424351692199707,1.0637460947036743,5.64238977432251,-2.0780158042907715,0.2721211016178131,6.02170991897583
1741261517.40946,1.9048477411270142,0.3463359475135803,5.120824337005615,-1.9048477411270142,0.5442422032356262,5.879465103149414,2.424351692199707,1.0390079021453857,5.64238977432251,-2.0780158042907715,0.2721211016178131,6.069125175476074
1741261517.411342,1.9048477411270142,0.37107422947883606,5.120824337005615,-1.9048477411270142,0.5195039510726929,6.02170991897583,2.424351692199707,1.0637460947036743,5.784635066986084,-2.1027538776397705,0.37107422947883606,6.02170991897583
1741261517.4133484,1.8306329250335693,0.42055079340934753,5.120824337005615,-1.9295859336853027,0.5442422032356262,6.02170991897583,2.449090003967285,1.0884844064712524,5.689805030822754,-2.0285391807556152,0.2721211016178131,5.974295139312744
1741261517.415189,1.9048477411270142,0.37107422947883606,5.025994300842285,-1.880109429359436,0.5442422032356262,5.974295139312744,2.449090003967285,1.0390079021453857,5.689805030822754,-2.1027538776397705,0.3215976655483246,6.069125175476074
1741261517.417034,1.9048477411270142,0.37107422947883606,5.025994300842285,-1.880109429359436,0.5442422032356262,6.069125175476074,2.424351692199707,1.0884844064712524,5.784635066986084,-2.0780158042907715,0.37107422947883606,6.069125175476074
1741261517.419426,1.9048477411270142,0.42055079340934753,5.025994300842285,-1.8306329250335693,0.5689804553985596,5.974295139312744,2.424351692199707,1.0637460947036743,5.784635066986084,-2.1522305011749268,0.3215976655483246,6.116540431976318
1741261517.4211996,1.9295859336853027,0.37107422947883606,5.120824337005615,-1.9048477411270142,0.5689804553985596,6.02170991897583,2.449090003967285,1.0390079021453857,5.64238977432251,-2.1274921894073486,0.37107422947883606,6.069125175476074
1741261517.4230573,1.9048477411270142,0.37107422947883606,5.025994300842285,-1.880109429359436,0.5689804553985596,5.974295139312744,2.424351692199707,1.0637460947036743,5.689805030822754,-2.1274921894073486,0.2721211016178131,6.069125175476074
1741261517.4251935,1.9295859336853027,0.37107422947883606,5.120824337005615,-1.880109429359436,0.5442422032356262,6.116540431976318,2.399613380432129,1.0637460947036743,5.689805030822754,-2.1274921894073486,0.37107422947883606,6.069125175476074
1741261517.42712,1.9295859336853027,0.42055079340934753,5.120824337005615,-1.8306329250335693,0.5442422032356262,6.02170991897583,2.399613380432129,1.0637460947036743,5.689805030822754,-2.1274921894073486,0.37107422947883606,6.116540431976318
1741261517.4289923,1.9295859336853027,0.37107422947883606,5.025994300842285,-1.8306329250335693,0.5442422032356262,6.02170991897583,2.424351692199707,1.0637460947036743,5.784635066986084,-2.0780158042907715,0.3215976655483246,6.116540431976318
1741261517.4310532,1.9048477411270142,0.37107422947883606,5.073409557342529,-1.880109429359436,0.5442422032356262,6.02170991897583,2.399613380432129,1.0637460947036743,5.784635066986084,-2.0780158042907715,0.2721211016178131,6.069125175476074
1741261517.4330783,1.9048477411270142,0.37107422947883606,5.025994300842285,-1.880109429359436,0.5442422032356262,6.02170991897583,2.449090003967285,1.0637460947036743,5.689805030822754,-2.0780158042907715,0.3463359475135803,6.069125175476074
1741261517.435363,1.9048477411270142,0.44528907537460327,5.120824337005615,-1.880109429359436,0.5442422032356262,6.02170991897583,2.449090003967285,1.0637460947036743,5.689805030822754,-2.1274921894073486,0.3463359475135803,6.069125175476074
1741261517.4371703,1.9048477411270142,0.44528907537460327,5.073409557342529,-1.880109429359436,0.5442422032356262,5.974295139312744,2.449090003967285,1.0637460947036743,5.689805030822754,-2.1027538776397705,0.3215976655483246,6.116540431976318
1741261517.4391015,1.9048477411270142,0.42055079340934753,5.120824337005615,-1.8306329250335693,0.5442422032356262,5.974295139312744,2.424351692199707,1.0884844064712524,5.784635066986084,-2.1027538776397705,0.3215976655483246,6.116540431976318
1741261517.441373,1.9048477411270142,0.42055079340934753,5.025994300842285,-1.880109429359436,0.5442422032356262,5.974295139312744,2.424351692199707,1.0637460947036743,5.689805030822754,-2.1027538776397705,0.3215976655483246,6.116540431976318
1741261517.4431453,1.9048477411270142,0.37107422947883606,5.120824337005615,-1.8058946132659912,0.5442422032356262,6.116540431976318,2.424351692199707,1.0637460947036743,5.64238977432251,-2.1274921894073486,0.3215976655483246,6.211370468139648
1741261517.4452717,1.9048477411270142,0.42055079340934753,5.025994300842285,-1.880109429359436,0.5442422032356262,5.974295139312744,2.449090003967285,1.0390079021453857,5.689805030822754,-2.1027538776397705,0.3215976655483246,6.069125175476074
1741261517.4468696,1.9048477411270142,0.37107422947883606,5.120824337005615,-1.9048477411270142,0.5442422032356262,5.974295139312744,2.4985663890838623,1.0637460947036743,5.83204984664917,-2.0780158042907715,0.3463359475135803,6.116540431976318
1741261517.4489634,1.880109429359436,0.37107422947883606,5.120824337005615,-1.880109429359436,0.5689804553985596,6.02170991897583,2.4985663890838623,1.0637460947036743,5.784635066986084,-2.0780158042907715,0.2721211016178131,6.116540431976318
1741261517.4509265,1.9048477411270142,0.42055079340934753,5.120824337005615,-1.9295859336853027,0.5689804553985596,5.974295139312744,2.424351692199707,1.0637460947036743,5.83204984664917,-2.1274921894073486,0.3215976655483246,6.069125175476074
1741261517.453015,1.9048477411270142,0.37107422947883606,5.120824337005615,-1.9295859336853027,0.5442422032356262,5.974295139312744,2.424351692199707,1.0884844064712524,5.689805030822754,-2.1274921894073486,0.2721211016178131,6.211370468139648
1741261517.4549813,1.9295859336853027,0.42055079340934753,5.025994300842285,-1.9295859336853027,0.5689804553985596,5.974295139312744,2.449090003967285,1.0884844064712524,5.83204984664917,-2.1522305011749268,0.3215976655483246,6.258785247802734
1741261517.4574816,1.9048477411270142,0.42055079340934753,5.215654373168945,-1.880109429359436,0.5442422032356262,5.974295139312744,2.424351692199707,1.1132227182388306,5.83204984664917,-2.0780158042907715,0.37107422947883606,6.258785247802734
1741261517.459386,1.9048477411270142,0.42055079340934753,5.120824337005615,-1.880109429359436,0.5689804553985596,5.974295139312744,2.424351692199707,1.1132227182388306,5.83204984664917,-2.0780158042907715,0.3215976655483246,6.258785247802734
1741261517.4615247,1.880109429359436,0.42055079340934753,5.025994300842285,-1.9295859336853027,0.5442422032356262,5.879465103149414,2.4985663890838623,1.1132227182388306,5.83204984664917,-2.1522305011749268,0.3215976655483246,6.211370468139648
1741261517.4633596,1.880109429359436,0.37107422947883606,5.120824337005615,-1.880109429359436,0.5442422032356262,5.974295139312744,2.4985663890838623,1.1132227182388306,5.83204984664917,-2.1027538776397705,0.3215976655483246,6.116540431976318
1741261517.4654772,1.880109429359436,0.44528907537460327,5.120824337005615,-1.8306329250335693,0.5442422032356262,5.974295139312744,2.449090003967285,1.1132227182388306,5.784635066986084,-2.1027538776397705,0.3215976655483246,6.258785247802734
1741261517.4672818,1.880109429359436,0.42055079340934753,5.120824337005615,-1.8306329250335693,0.5689804553985596,5.974295139312744,2.449090003967285,1.0884844064712524,5.784635066986084,-2.1027538776397705,0.3215976655483246,6.116540431976318
1741261517.469012,1.9048477411270142,0.42055079340934753,5.025994300842285,-1.8306329250335693,0.5442422032356262,5.879465103149414,2.449090003967285,1.1132227182388306,5.83204984664917,-2.1027538776397705,0.3215976655483246,6.211370468139648
1741261517.4710195,1.880109429359436,0.44528907537460327,5.120824337005615,-1.880109429359436,0.5195039510726929,5.974295139312744,2.424351692199707,1.1132227182388306,5.83204984664917,-2.1274921894073486,0.3215976655483246,6.211370468139648
1741261517.4731548,1.9048477411270142,0.470027357339859,5.120824337005615,-1.9048477411270142,0.5689804553985596,5.974295139312744,2.449090003967285,1.0884844064712524,5.83204984664917,-2.1027538776397705,0.3215976655483246,6.069125175476074
1741261517.4751253,1.880109429359436,0.44528907537460327,5.215654373168945,-1.880109429359436,0.5442422032356262,5.879465103149414,2.4985663890838623,1.1132227182388306,5.83204984664917,-2.1027538776397705,0.3215976655483246,6.258785247802734
1741261517.4771302,1.8306329250335693,0.44528907537460327,5.025994300842285,-1.880109429359436,0.5442422032356262,5.879465103149414,2.4985663890838623,1.1626992225646973,5.784635066986084,-2.0780158042907715,0.2721211016178131,6.116540431976318
1741261517.4791794,1.880109429359436,0.42055079340934753,5.120824337005615,-1.880109429359436,0.5442422032356262,5.974295139312744,2.4985663890838623,1.1626992225646973,5.879465103149414,-2.1027538776397705,0.2721211016178131,6.211370468139648
1741261517.4811935,1.8306329250335693,0.44528907537460327,5.120824337005615,-1.9295859336853027,0.5689804553985596,5.974295139312744,2.4985663890838623,1.1626992225646973,5.689805030822754,-2.1027538776397705,0.37107422947883606,6.069125175476074
1741261517.4831545,1.9048477411270142,0.44528907537460327,5.073409557342529,-1.880109429359436,0.5195039510726929,5.974295139312744,2.424351692199707,1.1626992225646973,5.879465103149414,-2.1027538776397705,0.37107422947883606,6.116540431976318
1741261517.485467,1.9048477411270142,0.44528907537460327,5.073409557342529,-1.880109429359436,0.5689804553985596,5.974295139312744,2.424351692199707,1.1132227182388306,5.83204984664917,-2.1027538776397705,0.42055079340934753,6.258785247802734
1741261517.487024,1.880109429359436,0.44528907537460327,5.120824337005615,-1.8306329250335693,0.5689804553985596,5.974295139312744,2.4985663890838623,1.1132227182388306,5.83204984664917,-2.1522305011749268,0.37107422947883606,6.116540431976318
1741261517.4891944,1.9295859336853027,0.37107422947883606,5.120824337005615,-1.880109429359436,0.5689804553985596,6.02170991897583,2.449090003967285,1.1132227182388306,5.689805030822754,-2.1027538776397705,0.37107422947883606,6.258785247802734
1741261517.4910254,1.880109429359436,0.44528907537460327,5.025994300842285,-1.880109429359436,0.5689804553985596,5.974295139312744,2.424351692199707,1.1132227182388306,5.879465103149414,-2.1027538776397705,0.37107422947883606,6.258785247802734
1741261517.493145,1.880109429359436,0.42055079340934753,5.120824337005615,-1.8306329250335693,0.5689804553985596,5.974295139312744,2.4985663890838623,1.1626992225646973,5.83204984664917,-2.1027538776397705,0.3463359475135803,6.258785247802734
1741261517.4951024,1.880109429359436,0.44528907537460327,5.025994300842285,-1.8306329250335693,0.5937187671661377,5.974295139312744,2.4985663890838623,1.1626992225646973,5.83204984664917,-2.1027538776397705,0.37107422947883606,6.258785247802734
1741261517.4971597,1.880109429359436,0.44528907537460327,5.120824337005615,-1.8306329250335693,0.5689804553985596,5.974295139312744,2.449090003967285,1.1626992225646973,5.879465103149414,-2.1027538776397705,0.37107422947883606,6.258785247802734
1741261517.4993916,1.880109429359436,0.44528907537460327,5.120824337005615,-1.880109429359436,0.5937187671661377,6.069125175476074,2.449090003967285,1.1132227182388306,5.879465103149414,-2.1522305011749268,0.37107422947883606,6.258785247802734
1741261517.5011737,1.9048477411270142,0.42055079340934753,5.120824337005615,-1.880109429359436,0.5689804553985596,6.02170991897583,2.4985663890838623,1.1626992225646973,5.879465103149414,-2.1027538776397705,0.37107422947883606,6.258785247802734
1741261517.5030487,1.9048477411270142,0.44528907537460327,5.120824337005615,-1.880109429359436,0.5937187671661377,6.069125175476074,2.449090003967285,1.1626992225646973,5.879465103149414,-2.1027538776397705,0.37107422947883606,6.116540431976318
1741261517.5053604,1.9048477411270142,0.44528907537460327,5.120824337005615,-1.8306329250335693,0.5689804553985596,5.974295139312744,2.449090003967285,1.1132227182388306,5.784635066986084,-2.1027538776397705,0.37107422947883606,6.258785247802734
1741261517.507228,1.9048477411270142,0.44528907537460327,5.120824337005615,-1.9048477411270142,0.5937187671661377,5.974295139312744,2.449090003967285,1.1626992225646973,5.879465103149414,-2.1027538776397705,0.37107422947883606,6.258785247802734
1741261517.5091603,1.9048477411270142,0.44528907537460327,5.120824337005615,-1.8306329250335693,0.5937187671661377,6.02170991897583,2.424351692199707,1.1626992225646973,5.879465103149414,-2.1274921894073486,0.3463359475135803,6.258785247802734
1741261517.5113215,1.9048477411270142,0.44528907537460327,5.120824337005615,-1.9048477411270142,0.5937187671661377,6.02170991897583,2.4985663890838623,1.1626992225646973,5.879465103149414,-2.1274921894073486,0.37107422947883606,6.258785247802734
1741261517.513183,1.880109429359436,0.44528907537460327,5.025994300842285,-1.8306329250335693,0.5937187671661377,6.069125175476074,2.449090003967285,1.1132227182388306,5.879465103149414,-2.1027538776397705,0.37107422947883606,6.258785247802734
1741261517.5153136,1.880109429359436,0.44528907537460327,5.120824337005615,-1.880109429359436,0.5442422032356262,5.974295139312744,2.449090003967285,1.1626992225646973,5.879465103149414,-2.1274921894073486,0.3215976655483246,6.116540431976318
1741261517.517425,1.880109429359436,0.470027357339859,5.120824337005615,-1.9048477411270142,0.5689804553985596,5.879465103149414,2.4985663890838623,1.1626992225646973,5.83204984664917,-2.1027538776397705,0.3215976655483246,6.116540431976318
1741261517.5191216,1.9048477411270142,0.470027357339859,5.120824337005615,-1.8306329250335693,0.5689804553985596,5.974295139312744,2.5233047008514404,1.1626992225646973,5.879465103149414,-2.1027538776397705,0.3463359475135803,6.258785247802734
1741261517.5212858,1.9048477411270142,0.470027357339859,5.120824337005615,-1.8306329250335693,0.5689804553985596,6.02170991897583,2.4985663890838623,1.1626992225646973,5.83204984664917,-2.1274921894073486,0.37107422947883606,6.211370468139648
1741261517.5236032,1.880109429359436,0.44528907537460327,5.025994300842285,-1.8306329250335693,0.5937187671661377,6.02170991897583,2.449090003967285,1.1626992225646973,5.879465103149414,-2.0780158042907715,0.37107422947883606,6.211370468139648
1741261517.5253983,1.9048477411270142,0.5195039510726929,5.120824337005615,-1.880109429359436,0.5937187671661377,6.02170991897583,2.449090003967285,1.1626992225646973,5.83204984664917,-2.1522305011749268,0.42055079340934753,6.258785247802734
1741261517.5271518,1.9048477411270142,0.470027357339859,5.073409557342529,-1.8058946132659912,0.5937187671661377,6.02170991897583,2.4985663890838623,1.1132227182388306,5.83204984664917,-2.1027538776397705,0.37107422947883606,6.211370468139648
1741261517.5293124,1.9048477411270142,0.470027357339859,5.120824337005615,-1.880109429359436,0.5937187671661377,6.02170991897583,2.4985663890838623,1.1626992225646973,5.83204984664917,-2.1027538776397705,0.42055079340934753,6.3062005043029785
1741261517.5311456,1.880109429359436,0.470027357339859,5.120824337005615,-1.880109429359436,0.5937187671661377,6.02170991897583,2.4985663890838623,1.1626992225646973,5.83204984664917,-2.1027538776397705,0.37107422947883606,6.211370468139648
1741261517.532989,1.880109429359436,0.470027357339859,5.120824337005615,-1.9048477411270142,0.5937187671661377,6.02170991897583,2.449090003967285,1.1626992225646973,5.879465103149414,-2.1027538776397705,0.42055079340934753,6.258785247802734
1741261517.5351126,1.880109429359436,0.470027357339859,5.120824337005615,-1.880109429359436,0.5937187671661377,5.83204984664917,2.4985663890838623,1.1626992225646973,5.83204984664917,-2.1274921894073486,0.37107422947883606,6.258785247802734
1741261517.5371575,1.8306329250335693,0.470027357339859,5.120824337005615,-1.8306329250335693,0.5937187671661377,5.974295139312744,2.5233047008514404,1.1626992225646973,5.879465103149414,-2.1274921894073486,0.37107422947883606,6.3062005043029785
1741261517.539018,1.8306329250335693,0.470027357339859,5.120824337005615,-1.8306329250335693,0.6431953310966492,6.02170991897583,2.5233047008514404,1.1874375343322754,5.974295139312744,-2.1027538776397705,0.37107422947883606,6.116540431976318
1741261517.5411,1.8306329250335693,0.5195039510726929,5.025994300842285,-1.9048477411270142,0.6431953310966492,5.974295139312744,2.5233047008514404,1.1874375343322754,5.879465103149414,-2.1522305011749268,0.44528907537460327,6.258785247802734
1741261517.5431366,1.8306329250335693,0.5195039510726929,5.025994300842285,-1.880109429359436,0.6679335832595825,5.974295139312744,2.5233047008514404,1.2121758460998535,5.974295139312744,-2.1027538776397705,0.42055079340934753,6.258785247802734
1741261517.5452046,1.880109429359436,0.5195039510726929,5.120824337005615,-1.880109429359436,0.6431953310966492,6.02170991897583,2.5233047008514404,1.2121758460998535,5.879465103149414,-2.1027538776397705,0.44528907537460327,6.258785247802734
1741261517.547433,1.880109429359436,0.5195039510726929,5.120824337005615,-1.880109429359436,0.6431953310966492,5.974295139312744,2.5233047008514404,1.1874375343322754,5.83204984664917,-2.1274921894073486,0.37107422947883606,6.258785247802734
1741261517.5492225,1.8306329250335693,0.5442422032356262,5.120824337005615,-1.8306329250335693,0.6431953310966492,5.974295139312744,2.4985663890838623,1.1874375343322754,6.02170991897583,-2.1274921894073486,0.44528907537460327,6.258785247802734
1741261517.5510416,1.8306329250335693,0.5442422032356262,5.120824337005615,-1.8306329250335693,0.6679335832595825,5.879465103149414,2.5233047008514404,1.2121758460998535,5.974295139312744,-2.1274921894073486,0.44528907537460327,6.211370468139648
1741261517.5532546,1.8306329250335693,0.5195039510726929,5.120824337005615,-1.8306329250335693,0.6679335832595825,5.974295139312744,2.5233047008514404,1.2121758460998535,5.879465103149414,-2.0780158042907715,0.37107422947883606,6.258785247802734
1741261517.5550792,1.8058946132659912,0.5195039510726929,5.120824337005615,-1.9048477411270142,0.6679335832595825,5.879465103149414,2.5233047008514404,1.2616523504257202,5.879465103149414,-2.0780158042907715,0.44528907537460327,6.116540431976318
1741261517.5569725,1.8058946132659912,0.5195039510726929,5.120824337005615,-1.8306329250335693,0.6679335832595825,5.974295139312744,2.5233047008514404,1.2121758460998535,5.879465103149414,-2.0780158042907715,0.44528907537460327,6.258785247802734
1741261517.559027,1.8306329250335693,0.5689804553985596,5.120824337005615,-1.8058946132659912,0.5937187671661377,5.879465103149414,2.5233047008514404,1.2121758460998535,5.879465103149414,-2.1027538776397705,0.470027357339859,6.258785247802734
1741261517.561034,1.8306329250335693,0.5689804553985596,5.120824337005615,-1.9048477411270142,0.6431953310966492,5.879465103149414,2.5233047008514404,1.2616523504257202,5.974295139312744,-2.1027538776397705,0.42055079340934753,6.258785247802734
1741261517.563156,1.8058946132659912,0.5442422032356262,5.025994300842285,-1.880109429359436,0.6679335832595825,5.879465103149414,2.5233047008514404,1.2616523504257202,5.879465103149414,-2.1522305011749268,0.44528907537460327,6.258785247802734
1741261517.5650394,1.781156301498413,0.5442422032356262,5.120824337005615,-1.8058946132659912,0.6431953310966492,5.879465103149414,2.5480430126190186,1.2863906621932983,5.974295139312744,-2.1274921894073486,0.44528907537460327,6.258785247802734
1741261517.5673003,1.781156301498413,0.5689804553985596,5.120824337005615,-1.9048477411270142,0.6431953310966492,5.974295139312744,2.4985663890838623,1.2863906621932983,5.974295139312744,-2.1027538776397705,0.44528907537460327,6.258785247802734
1741261517.5691545,1.8306329250335693,0.5689804553985596,5.120824337005615,-1.880109429359436,0.6431953310966492,5.879465103149414,2.5480430126190186,1.2616523504257202,6.02170991897583,-2.1027538776397705,0.44528907537460327,6.3062005043029785
1741261517.5712774,1.8306329250335693,0.5937187671661377,5.025994300842285,-1.9048477411270142,0.6679335832595825,5.689805030822754,2.5480430126190186,1.2616523504257202,5.974295139312744,-2.1027538776397705,0.470027357339859,6.258785247802734
1741261517.573427,1.8058946132659912,0.5937187671661377,5.120824337005615,-1.8306329250335693,0.6679335832595825,5.879465103149414,2.4985663890838623,1.2616523504257202,6.02170991897583,-2.1522305011749268,0.44528907537460327,6.258785247802734
1741261517.5752718,1.8058946132659912,0.5689804553985596,5.120824337005615,-1.880109429359436,0.6679335832595825,5.879465103149414,2.5480430126190186,1.3111289739608765,6.02170991897583,-2.1274921894073486,0.44528907537460327,6.401030540466309
1741261517.5769897,1.8058946132659912,0.5937187671661377,5.120824337005615,-1.880109429359436,0.6679335832595825,5.879465103149414,2.5233047008514404,1.2863906621932983,6.02170991897583,-2.1027538776397705,0.44528907537460327,6.401030540466309
1741261517.5790684,1.8058946132659912,0.5689804553985596,5.120824337005615,-1.880109429359436,0.6679335832595825,5.879465103149414,2.5480430126190186,1.3111289739608765,5.974295139312744,-2.1274921894073486,0.44528907537460327,6.401030540466309
1741261517.5810087,1.8058946132659912,0.5689804553985596,5.073409557342529,-1.8058946132659912,0.6926718950271606,5.879465103149414,2.5233047008514404,1.3111289739608765,6.02170991897583,-2.1522305011749268,0.44528907537460327,6.3062005043029785
1741261517.583053,1.8058946132659912,0.5442422032356262,5.120824337005615,-1.880109429359436,0.6926718950271606,5.879465103149414,2.5233047008514404,1.3111289739608765,6.02170991897583,-2.1522305011749268,0.470027357339859,6.401030540466309
1741261517.585025,1.8306329250335693,0.5937187671661377,5.120824337005615,-1.880109429359436,0.7421484589576721,5.83204984664917,2.5233047008514404,1.2863906621932983,6.02170991897583,-2.1522305011749268,0.44528907537460327,6.401030540466309
1741261517.5876107,1.8306329250335693,0.5937187671661377,5.025994300842285,-1.880109429359436,0.6926718950271606,5.879465103149414,2.5480430126190186,1.2863906621932983,6.02170991897583,-2.1027538776397705,0.44528907537460327,6.4484453201293945
1741261517.5894241,1.8058946132659912,0.5937187671661377,5.025994300842285,-1.8058946132659912,0.6926718950271606,5.83204984664917,2.5233047008514404,1.3111289739608765,6.02170991897583,-2.1522305011749268,0.470027357339859,6.495860576629639
1741261517.5914495,1.8306329250335693,0.6431953310966492,5.025994300842285,-1.880109429359436,0.6926718950271606,5.974295139312744,2.5480430126190186,1.2863906621932983,6.069125175476074,-2.1522305011749268,0.470027357339859,6.3062005043029785
1741261517.5940664,1.8058946132659912,0.5937187671661377,5.120824337005615,-1.9048477411270142,0.7421484589576721,5.784635066986084,2.5233047008514404,1.3111289739608765,6.02170991897583,-2.1027538776397705,0.470027357339859,6.3062005043029785
1741261517.595721,1.8306329250335693,0.5937187671661377,5.120824337005615,-1.880109429359436,0.7421484589576721,5.974295139312744,2.5480430126190186,1.2863906621932983,6.02170991897583,-2.1274921894073486,0.470027357339859,6.3062005043029785
1741261517.59713,1.8058946132659912,0.6431953310966492,5.073409557342529,-1.8058946132659912,0.7421484589576721,5.83204984664917,2.622257947921753,1.3111289739608765,6.02170991897583,-2.1027538776397705,0.44528907537460327,6.401030540466309
1741261517.5990374,1.781156301498413,0.6431953310966492,5.120824337005615,-1.880109429359436,0.7421484589576721,5.784635066986084,2.622257947921753,1.3606054782867432,6.02170991897583,-2.1027538776397705,0.470027357339859,6.4484453201293945
1741261517.6011221,1.781156301498413,0.5937187671661377,5.073409557342529,-1.880109429359436,0.6926718950271606,5.879465103149414,2.597519636154175,1.3111289739608765,6.069125175476074,-2.1027538776397705,0.5195039510726929,6.401030540466309
1741261517.6030278,1.8058946132659912,0.6431953310966492,5.120824337005615,-1.8306329250335693,0.6926718950271606,5.879465103149414,2.597519636154175,1.2863906621932983,6.116540431976318,-2.1274921894073486,0.5195039510726929,6.4484453201293945
1741261517.605181,1.8058946132659912,0.5937187671661377,5.120824337005615,-1.8058946132659912,0.7421484589576721,5.879465103149414,2.5480430126190186,1.3111289739608765,6.02170991897583,-2.201707124710083,0.470027357339859,6.4484453201293945
1741261517.6071131,1.8058946132659912,0.5937187671661377,5.120824337005615,-1.8306329250335693,0.6926718950271606,5.879465103149414,2.5480430126190186,1.2863906621932983,6.02170991897583,-2.1522305011749268,0.5195039510726929,6.401030540466309
1741261517.6091313,1.8058946132659912,0.6431953310966492,5.120824337005615,-1.880109429359436,0.7421484589576721,5.879465103149414,2.622257947921753,1.3111289739608765,6.02170991897583,-2.1522305011749268,0.5442422032356262,6.3062005043029785
1741261517.6111403,1.8058946132659912,0.5937187671661377,5.120824337005615,-1.880109429359436,0.7421484589576721,5.879465103149414,2.5233047008514404,1.3606054782867432,6.02170991897583,-2.1274921894073486,0.5195039510726929,6.3062005043029785
1741261517.6131754,1.8058946132659912,0.6431953310966492,5.120824337005615,-1.8058946132659912,0.7668867111206055,5.879465103149414,2.5233047008514404,1.3606054782867432,6.069125175476074,-2.1522305011749268,0.5195039510726929,6.401030540466309
1741261517.6153686,1.8058946132659912,0.5937187671661377,5.120824337005615,-1.781156301498413,0.7421484589576721,5.879465103149414,2.5233047008514404,1.2863906621932983,6.02170991897583,-2.201707124710083,0.5195039510726929,6.3062005043029785
1741261517.6172118,1.8058946132659912,0.6431953310966492,5.120824337005615,-1.8058946132659912,0.6926718950271606,5.879465103149414,2.5233047008514404,1.3111289739608765,6.02170991897583,-2.1522305011749268,0.5442422032356262,6.4484453201293945
1741261517.619154,1.8058946132659912,0.6431953310966492,5.120824337005615,-1.7316796779632568,0.6926718950271606,5.879465103149414,2.5233047008514404,1.2863906621932983,6.02170991897583,-2.201707124710083,0.5195039510726929,6.401030540466309
1741261517.6212978,1.8306329250335693,0.6431953310966492,5.025994300842285,-1.781156301498413,0.7668867111206055,5.784635066986084,2.4985663890838623,1.2616523504257202,6.02170991897583,-2.226445436477661,0.5442422032356262,6.495860576629639
1741261517.6230826,1.8058946132659912,0.5937187671661377,5.025994300842285,-1.781156301498413,0.7668867111206055,5.879465103149414,2.4985663890838623,1.2616523504257202,6.02170991897583,-2.1522305011749268,0.470027357339859,6.401030540466309
1741261517.6254966,1.8058946132659912,0.5937187671661377,5.120824337005615,-1.8058946132659912,0.6926718950271606,5.879465103149414,2.5480430126190186,1.2863906621932983,6.02170991897583,-2.1522305011749268,0.5442422032356262,6.401030540466309
1741261517.627552,1.8058946132659912,0.5937187671661377,5.120824337005615,-1.8058946132659912,0.7421484589576721,5.879465103149414,2.5480430126190186,1.2863906621932983,6.069125175476074,-2.1522305011749268,0.5442422032356262,6.495860576629639
1741261517.6296937,1.8058946132659912,0.5937187671661377,5.120824337005615,-1.8058946132659912,0.6926718950271606,5.879465103149414,2.5480430126190186,1.3111289739608765,6.069125175476074,-2.201707124710083,0.5442422032356262,6.4484453201293945
1741261517.631363,1.8058946132659912,0.5937187671661377,5.025994300842285,-1.8058946132659912,0.7421484589576721,5.83204984664917,2.5480430126190186,1.3111289739608765,6.02170991897583,-2.1522305011749268,0.5195039510726929,6.495860576629639
1741261517.6335812,1.8306329250335693,0.5937187671661377,5.120824337005615,-1.8306329250335693,0.6926718950271606,5.879465103149414,2.597519636154175,1.3111289739608765,6.069125175476074,-2.1522305011749268,0.5442422032356262,6.401030540466309
1741261517.6349885,1.8058946132659912,0.5937187671661377,5.120824337005615,-1.880109429359436,0.7421484589576721,5.879465103149414,2.5233047008514404,1.3606054782867432,6.02170991897583,-2.1522305011749268,0.5195039510726929,6.401030540466309
1741261517.63723,1.781156301498413,0.5689804553985596,5.025994300842285,-1.8306329250335693,0.7668867111206055,5.974295139312744,2.597519636154175,1.3111289739608765,6.02170991897583,-2.1027538776397705,0.470027357339859,6.401030540466309
1741261517.639238,1.8058946132659912,0.5937187671661377,5.025994300842285,-1.880109429359436,0.7421484589576721,5.974295139312744,2.5480430126190186,1.3111289739608765,5.974295139312744,-2.1027538776397705,0.5442422032356262,6.4484453201293945
1741261517.6412435,1.8306329250335693,0.5937187671661377,5.025994300842285,-1.8306329250335693,0.7421484589576721,5.974295139312744,2.5480430126190186,1.3111289739608765,5.974295139312744,-2.1274921894073486,0.5442422032356262,6.4484453201293945
1741261517.643126,1.8058946132659912,0.5937187671661377,5.120824337005615,-1.8058946132659912,0.7421484589576721,6.02170991897583,2.597519636154175,1.3111289739608765,6.02170991897583,-2.1274921894073486,0.5442422032356262,6.3062005043029785
1741261517.6452508,1.8058946132659912,0.5689804553985596,5.120824337005615,-1.880109429359436,0.6926718950271606,6.02170991897583,2.5480430126190186,1.3111289739608765,6.02170991897583,-2.1522305011749268,0.5442422032356262,6.3062005043029785
1741261517.6475635,1.8058946132659912,0.5937187671661377,5.025994300842285,-1.8306329250335693,0.7421484589576721,5.879465103149414,2.5480430126190186,1.3111289739608765,6.02170991897583,-2.1027538776397705,0.470027357339859,6.4484453201293945
1741261517.6495705,1.8306329250335693,0.5689804553985596,5.025994300842285,-1.8306329250335693,0.7421484589576721,6.02170991897583,2.597519636154175,1.3111289739608765,6.069125175476074,-2.1274921894073486,0.5195039510726929,6.4484453201293945
1741261517.6516662,1.8058946132659912,0.5937187671661377,5.073409557342529,-1.880109429359436,0.6926718950271606,5.879465103149414,2.597519636154175,1.3111289739608765,6.069125175476074,-2.1274921894073486,0.5442422032356262,6.401030540466309
1741261517.6535492,1.880109429359436,0.5937187671661377,5.120824337005615,-1.880109429359436,0.6926718950271606,5.879465103149414,2.5480430126190186,1.3111289739608765,6.02170991897583,-2.1274921894073486,0.470027357339859,6.401030540466309
1741261517.6554077,1.8058946132659912,0.6431953310966492,5.120824337005615,-1.8306329250335693,0.6926718950271606,5.879465103149414,2.5480430126190186,1.3606054782867432,6.02170991897583,-2.1274921894073486,0.5442422032356262,6.495860576629639
1741261517.6576989,1.781156301498413,0.5937187671661377,5.073409557342529,-1.8306329250335693,0.6926718950271606,5.879465103149414,2.5480430126190186,1.3111289739608765,6.02170991897583,-2.201707124710083,0.5195039510726929,6.401030540466309
1741261517.6592464,1.8058946132659912,0.5937187671661377,5.025994300842285,-1.8306329250335693,0.7421484589576721,5.879465103149414,2.597519636154175,1.3606054782867432,6.02170991897583,-2.1274921894073486,0.5195039510726929,6.401030540466309
1741261517.661091,1.781156301498413,0.5937187671661377,5.120824337005615,-1.9048477411270142,0.6926718950271606,5.879465103149414,2.5480430126190186,1.3111289739608765,6.02170991897583,-2.1522305011749268,0.470027357339859,6.4484453201293945
1741261517.6633952,1.8058946132659912,0.5937187671661377,5.120824337005615,-1.880109429359436,0.6926718950271606,5.879465103149414,2.5480430126190186,1.3111289739608765,6.069125175476074,-2.1027538776397705,0.470027357339859,6.4484453201293945
1741261517.6649978,1.8058946132659912,0.5937187671661377,5.025994300842285,-1.8058946132659912,0.7421484589576721,5.974295139312744,2.5480430126190186,1.3606054782867432,6.02170991897583,-2.201707124710083,0.5442422032356262,6.4484453201293945
1741261517.667743,1.8058946132659912,0.5937187671661377,5.025994300842285,-1.8058946132659912,0.7421484589576721,5.974295139312744,2.597519636154175,1.3111289739608765,5.974295139312744,-2.1274921894073486,0.5195039510726929,6.590690612792969
1741261517.6695292,1.8306329250335693,0.5937187671661377,5.120824337005615,-1.8058946132659912,0.7421484589576721,5.974295139312744,2.5480430126190186,1.3606054782867432,6.02170991897583,-2.1274921894073486,0.5442422032356262,6.4484453201293945
1741261517.6710522,1.8306329250335693,0.6431953310966492,5.120824337005615,-1.8306329250335693,0.6926718950271606,5.879465103149414,2.622257947921753,1.3111289739608765,6.02170991897583,-2.1027538776397705,0.470027357339859,6.4484453201293945
1741261517.6737466,1.8058946132659912,0.6679335832595825,5.025994300842285,-1.8058946132659912,0.6926718950271606,5.974295139312744,2.597519636154175,1.3606054782867432,6.02170991897583,-2.1274921894073486,0.470027357339859,6.3062005043029785
1741261517.676161,1.8306329250335693,0.6431953310966492,5.025994300842285,-1.8058946132659912,0.7421484589576721,6.069125175476074,2.597519636154175,1.3606054782867432,6.02170991897583,-2.1274921894073486,0.5195039510726929,6.495860576629639
1741261517.6773186,1.8306329250335693,0.6431953310966492,5.025994300842285,-1.8058946132659912,0.7421484589576721,6.069125175476074,2.5480430126190186,1.3606054782867432,6.02170991897583,-2.1522305011749268,0.470027357339859,6.4484453201293945
1741261517.6792123,1.8058946132659912,0.6431953310966492,5.025994300842285,-1.8058946132659912,0.7421484589576721,5.974295139312744,2.5480430126190186,1.3111289739608765,5.974295139312744,-2.1274921894073486,0.470027357339859,6.590690612792969
1741261517.6810954,1.8058946132659912,0.5689804553985596,5.120824337005615,-1.8058946132659912,0.6926718950271606,5.974295139312744,2.5480430126190186,1.3111289739608765,5.879465103149414,-2.1522305011749268,0.5195039510726929,6.495860576629639
1741261517.6829937,1.8058946132659912,0.6431953310966492,5.025994300842285,-1.8058946132659912,0.6926718950271606,5.974295139312744,2.597519636154175,1.3606054782867432,5.879465103149414,-2.1522305011749268,0.470027357339859,6.4484453201293945
1741261517.6852071,1.8058946132659912,0.6431953310966492,4.978579044342041,-1.8058946132659912,0.6926718950271606,6.02170991897583,2.5480430126190186,1.3111289739608765,6.02170991897583,-2.1274921894073486,0.5195039510726929,6.4484453201293945
1741261517.6878424,1.880109429359436,0.5689804553985596,5.120824337005615,-1.781156301498413,0.6926718950271606,5.974295139312744,2.5480430126190186,1.3111289739608765,5.974295139312744,-2.1027538776397705,0.5442422032356262,6.401030540466309
1741261517.6898222,1.8306329250335693,0.5937187671661377,5.120824337005615,-1.781156301498413,0.6926718950271606,5.974295139312744,2.597519636154175,1.3111289739608765,5.879465103149414,-2.1027538776397705,0.5195039510726929,6.495860576629639
1741261517.6917272,1.8058946132659912,0.5937187671661377,5.025994300842285,-1.880109429359436,0.6926718950271606,5.974295139312744,2.597519636154175,1.3606054782867432,5.879465103149414,-2.1522305011749268,0.470027357339859,6.401030540466309
1741261517.6937702,1.8058946132659912,0.5689804553985596,4.978579044342041,-1.8058946132659912,0.7421484589576721,6.069125175476074,2.597519636154175,1.2863906621932983,5.879465103149414,-2.1274921894073486,0.5442422032356262,6.495860576629639
1741261517.6953015,1.880109429359436,0.5937187671661377,5.025994300842285,-1.8058946132659912,0.6926718950271606,6.116540431976318,2.597519636154175,1.2863906621932983,5.879465103149414,-2.1274921894073486,0.5442422032356262,6.495860576629639
1741261517.6975136,1.880109429359436,0.6679335832595825,4.883749008178711,-1.781156301498413,0.7421484589576721,6.116540431976318,2.597519636154175,1.3111289739608765,5.879465103149414,-2.1027538776397705,0.5195039510726929,6.495860576629639
1741261517.6995494,1.880109429359436,0.6431953310966492,5.025994300842285,-1.781156301498413,0.6926718950271606,6.02170991897583,2.5480430126190186,1.3111289739608765,5.974295139312744,-2.1522305011749268,0.470027357339859,6.495860576629639
1741261517.7011797,1.880109429359436,0.5937187671661377,4.883749008178711,-1.781156301498413,0.6926718950271606,5.974295139312744,2.5480430126190186,1.3111289739608765,5.879465103149414,-2.1027538776397705,0.44528907537460327,6.4484453201293945
1741261517.7033188,1.8306329250335693,0.5689804553985596,5.025994300842285,-1.781156301498413,0.6926718950271606,6.02170991897583,2.5480430126190186,1.2863906621932983,5.879465103149414,-2.1274921894073486,0.470027357339859,6.495860576629639
1741261517.70524,1.8306329250335693,0.5442422032356262,5.025994300842285,-1.7316796779632568,0.6926718950271606,6.02170991897583,2.5480430126190186,1.2863906621932983,5.879465103149414,-2.1274921894073486,0.42055079340934753,6.4484453201293945
1741261517.70768,1.880109429359436,0.5689804553985596,4.978579044342041,-1.8058946132659912,0.6926718950271606,6.116540431976318,2.5480430126190186,1.2863906621932983,5.879465103149414,-2.1027538776397705,0.470027357339859,6.401030540466309
1741261517.7094817,1.8306329250335693,0.5689804553985596,5.120824337005615,-1.781156301498413,0.6679335832595825,6.116540431976318,2.5480430126190186,1.2863906621932983,5.879465103149414,-2.1274921894073486,0.44528907537460327,6.3062005043029785
1741261517.7116027,1.8058946132659912,0.5442422032356262,5.120824337005615,-1.781156301498413,0.6926718950271606,6.116540431976318,2.5480430126190186,1.2863906621932983,5.974295139312744,-2.1027538776397705,0.44528907537460327,6.401030540466309
1741261517.713179,1.8306329250335693,0.5195039510726929,5.073409557342529,-1.8058946132659912,0.6679335832595825,6.02170991897583,2.5480430126190186,1.3111289739608765,5.974295139312744,-2.1274921894073486,0.42055079340934753,6.4484453201293945
1741261517.715115,1.880109429359436,0.5442422032356262,5.025994300842285,-1.8058946132659912,0.5937187671661377,6.116540431976318,2.5480430126190186,1.2863906621932983,5.879465103149414,-2.0780158042907715,0.42055079340934753,6.4484453201293945
1741261517.7176645,1.8306329250335693,0.5195039510726929,5.120824337005615,-1.8058946132659912,0.6679335832595825,6.02170991897583,2.5233047008514404,1.2863906621932983,5.974295139312744,-2.1274921894073486,0.44528907537460327,6.4484453201293945
1741261517.7191606,1.8058946132659912,0.5442422032356262,5.120824337005615,-1.8306329250335693,0.6431953310966492,6.116540431976318,2.597519636154175,1.2863906621932983,6.02170991897583,-2.1274921894073486,0.44528907537460327,6.495860576629639
1741261517.7211192,1.8058946132659912,0.5442422032356262,5.025994300842285,-1.8058946132659912,0.6431953310966492,6.069125175476074,2.597519636154175,1.2863906621932983,5.879465103149414,-2.1274921894073486,0.44528907537460327,6.401030540466309
1741261517.7230716,1.880109429359436,0.5442422032356262,5.025994300842285,-1.8306329250335693,0.6679335832595825,6.02170991897583,2.5480430126190186,1.2863906621932983,5.879465103149414,-2.0780158042907715,0.37107422947883606,6.401030540466309
1741261517.7258782,1.8306329250335693,0.5442422032356262,5.025994300842285,-1.8058946132659912,0.6926718950271606,6.116540431976318,2.5480430126190186,1.2863906621932983,5.879465103149414,-2.1274921894073486,0.44528907537460327,6.401030540466309
1741261517.7273955,1.880109429359436,0.5442422032356262,5.120824337005615,-1.8306329250335693,0.6431953310966492,6.02170991897583,2.622257947921753,1.2863906621932983,5.879465103149414,-2.1274921894073486,0.44528907537460327,6.495860576629639
1741261517.729452,1.8306329250335693,0.5195039510726929,5.120824337005615,-1.880109429359436,0.6679335832595825,6.116540431976318,2.5480430126190186,1.2616523504257202,5.879465103149414,-2.1274921894073486,0.42055079340934753,6.3062005043029785
1741261517.7318673,1.8306329250335693,0.6431953310966492,5.025994300842285,-1.880109429359436,0.6431953310966492,5.974295139312744,2.622257947921753,1.2616523504257202,5.83204984664917,-2.0780158042907715,0.44528907537460327,6.4484453201293945
1741261517.73331,1.8058946132659912,0.5442422032356262,5.025994300842285,-1.8306329250335693,0.6431953310966492,6.02170991897583,2.597519636154175,1.2616523504257202,5.879465103149414,-2.1027538776397705,0.37107422947883606,6.4484453201293945
1741261517.7352579,1.8306329250335693,0.5195039510726929,5.025994300842285,-1.9048477411270142,0.5937187671661377,6.02170991897583,2.622257947921753,1.2616523504257202,5.83204984664917,-2.0780158042907715,0.37107422947883606,6.495860576629639
1741261517.737737,1.8306329250335693,0.5195039510726929,5.025994300842285,-1.880109429359436,0.5689804553985596,6.116540431976318,2.597519636154175,1.2863906621932983,5.879465103149414,-2.0780158042907715,0.42055079340934753,6.3062005043029785
1741261517.7394009,1.8306329250335693,0.5442422032356262,5.120824337005615,-1.9295859336853027,0.5937187671661377,6.02170991897583,2.5480430126190186,1.2616523504257202,5.879465103149414,-2.0780158042907715,0.44528907537460327,6.401030540466309
1741261517.741893,1.8306329250335693,0.5442422032356262,4.978579044342041,-1.880109429359436,0.5937187671661377,6.02170991897583,2.5480430126190186,1.2616523504257202,5.784635066986084,-2.0780158042907715,0.37107422947883606,6.401030540466309
1741261517.743682,1.8306329250335693,0.5195039510726929,5.120824337005615,-1.8306329250335693,0.5937187671661377,6.02170991897583,2.5480430126190186,1.2121758460998535,5.879465103149414,-2.0780158042907715,0.3463359475135803,6.3062005043029785
1741261517.7450535,1.8058946132659912,0.5195039510726929,5.025994300842285,-1.8306329250335693,0.5937187671661377,5.879465103149414,2.597519636154175,1.2863906621932983,5.83204984664917,-2.0285391807556152,0.42055079340934753,6.3062005043029785
1741261517.7474093,1.8306329250335693,0.470027357339859,5.120824337005615,-1.880109429359436,0.5937187671661377,6.02170991897583,2.5480430126190186,1.2616523504257202,5.83204984664917,-2.0780158042907715,0.42055079340934753,6.401030540466309
1741261517.7492568,1.8058946132659912,0.5195039510726929,5.120824337005615,-1.880109429359436,0.5689804553985596,6.02170991897583,2.597519636154175,1.2616523504257202,5.83204984664917,-2.0780158042907715,0.37107422947883606,6.3062005043029785
1741261517.7510564,1.8058946132659912,0.5195039510726929,5.120824337005615,-1.880109429359436,0.5937187671661377,5.974295139312744,2.597519636154175,1.2616523504257202,5.83204984664917,-2.0780158042907715,0.37107422947883606,6.3062005043029785
1741261517.7534964,1.8306329250335693,0.5195039510726929,5.025994300842285,-1.8306329250335693,0.5937187671661377,6.116540431976318,2.5480430126190186,1.1874375343322754,5.879465103149414,-2.0285391807556152,0.3463359475135803,6.258785247802734
1741261517.7550068,1.8058946132659912,0.5195039510726929,5.025994300842285,-1.9048477411270142,0.5689804553985596,6.02170991897583,2.5480430126190186,1.2616523504257202,5.83204984664917,-2.0285391807556152,0.3215976655483246,6.3062005043029785
1741261517.7573152,1.9048477411270142,0.5442422032356262,5.120824337005615,-1.880109429359436,0.5442422032356262,6.02170991897583,2.597519636154175,1.2121758460998535,5.83204984664917,-2.0780158042907715,0.42055079340934753,6.258785247802734
1741261517.7590756,1.9048477411270142,0.44528907537460327,5.025994300842285,-1.8306329250335693,0.5937187671661377,6.02170991897583,2.5233047008514404,1.2121758460998535,5.784635066986084,-2.0780158042907715,0.37107422947883606,6.3062005043029785
1741261517.7611086,1.9048477411270142,0.470027357339859,5.025994300842285,-1.9048477411270142,0.5689804553985596,6.069125175476074,2.5233047008514404,1.2121758460998535,5.784635066986084,-2.1027538776397705,0.3215976655483246,6.258785247802734
1741261517.7633145,1.8306329250335693,0.5195039510726929,5.120824337005615,-1.8306329250335693,0.5937187671661377,6.069125175476074,2.5480430126190186,1.2121758460998535,5.784635066986084,-2.0285391807556152,0.3215976655483246,6.3062005043029785
1741261517.7651622,1.880109429359436,0.5195039510726929,5.120824337005615,-1.9295859336853027,0.5442422032356262,5.974295139312744,2.5233047008514404,1.2121758460998535,5.689805030822754,-2.1027538776397705,0.3215976655483246,6.258785247802734
1741261517.7675014,1.880109429359436,0.5195039510726929,5.120824337005615,-1.880109429359436,0.5689804553985596,6.02170991897583,2.5233047008514404,1.1626992225646973,5.784635066986084,-2.1027538776397705,0.3463359475135803,6.258785247802734
1741261517.7691166,1.9048477411270142,0.470027357339859,5.073409557342529,-1.9048477411270142,0.5689804553985596,6.069125175476074,2.5233047008514404,1.1874375343322754,5.784635066986084,-2.0780158042907715,0.3463359475135803,6.258785247802734
1741261517.7717233,1.8306329250335693,0.470027357339859,5.120824337005615,-1.880109429359436,0.5442422032356262,6.02170991897583,2.5233047008514404,1.1132227182388306,5.784635066986084,-2.0780158042907715,0.3463359475135803,6.258785247802734
1741261517.7733104,1.880109429359436,0.470027357339859,5.120824337005615,-1.880109429359436,0.5689804553985596,6.02170991897583,2.4985663890838623,1.1132227182388306,5.689805030822754,-2.0780158042907715,0.3215976655483246,6.258785247802734
1741261517.7753778,1.9048477411270142,0.5195039510726929,5.120824337005615,-1.9048477411270142,0.5689804553985596,6.02170991897583,2.5480430126190186,1.1874375343322754,5.784635066986084,-2.0285391807556152,0.3463359475135803,6.258785247802734
1741261517.7773337,1.880109429359436,0.5195039510726929,5.120824337005615,-1.9048477411270142,0.5442422032356262,6.02170991897583,2.5480430126190186,1.1626992225646973,5.784635066986084,-2.0285391807556152,0.3463359475135803,6.211370468139648
1741261517.7793715,1.9295859336853027,0.42055079340934753,5.120824337005615,-1.8058946132659912,0.5442422032356262,6.02170991897583,2.5233047008514404,1.0884844064712524,5.689805030822754,-2.0285391807556152,0.3215976655483246,6.211370468139648
1741261517.7819762,1.8306329250335693,0.44528907537460327,5.120824337005615,-1.880109429359436,0.5442422032356262,6.069125175476074,2.5233047008514404,1.0884844064712524,5.784635066986084,-2.003800868988037,0.3215976655483246,6.116540431976318
1741261517.7839592,1.880109429359436,0.44528907537460327,5.025994300842285,-1.880109429359436,0.5195039510726929,6.02170991897583,2.5233047008514404,1.0884844064712524,5.689805030822754,-2.003800868988037,0.2721211016178131,6.211370468139648
1741261517.785184,1.8306329250335693,0.44528907537460327,5.120824337005615,-1.9295859336853027,0.5442422032356262,6.116540431976318,2.5480430126190186,1.1132227182388306,5.689805030822754,-2.0285391807556152,0.3215976655483246,6.211370468139648
1741261517.787687,1.9048477411270142,0.44528907537460327,5.120824337005615,-1.880109429359436,0.5195039510726929,6.116540431976318,2.4985663890838623,1.1626992225646973,5.689805030822754,-2.0285391807556152,0.3463359475135803,6.258785247802734
1741261517.7892272,1.9048477411270142,0.42055079340934753,5.120824337005615,-1.9048477411270142,0.5195039510726929,6.02170991897583,2.5233047008514404,1.1132227182388306,5.689805030822754,-1.979062557220459,0.3215976655483246,6.258785247802734
1741261517.7910244,1.9048477411270142,0.44528907537460327,5.025994300842285,-1.880109429359436,0.5195039510726929,6.02170991897583,2.5233047008514404,1.1132227182388306,5.64238977432251,-2.0780158042907715,0.3215976655483246,6.258785247802734
1741261517.7935941,1.9048477411270142,0.37107422947883606,5.025994300842285,-1.880109429359436,0.5195039510726929,6.02170991897583,2.5233047008514404,1.0637460947036743,5.64238977432251,-2.0285391807556152,0.3215976655483246,6.211370468139648
1741261517.7950861,1.9048477411270142,0.44528907537460327,5.120824337005615,-1.9048477411270142,0.5195039510726929,6.02170991897583,2.5233047008514404,1.0637460947036743,5.64238977432251,-2.003800868988037,0.3463359475135803,6.258785247802734
1741261517.7972696,1.9048477411270142,0.44528907537460327,5.025994300842285,-1.8306329250335693,0.5195039510726929,6.116540431976318,2.5233047008514404,1.0637460947036743,5.64238977432251,-2.0285391807556152,0.3463359475135803,6.258785247802734
1741261517.7993994,1.880109429359436,0.42055079340934753,5.025994300842285,-1.8306329250335693,0.5195039510726929,6.116540431976318,2.5233047008514404,1.0884844064712524,5.64238977432251,-2.003800868988037,0.24738281965255737,6.258785247802734
1741261517.8011594,1.9295859336853027,0.37107422947883606,5.120824337005615,-1.8306329250335693,0.5195039510726929,6.069125175476074,2.5233047008514404,1.0637460947036743,5.64238977432251,-2.0780158042907715,0.2721211016178131,6.211370468139648
1741261517.8037817,1.9295859336853027,0.37107422947883606,5.025994300842285,-1.8306329250335693,0.470027357339859,6.069125175476074,2.5233047008514404,1.0390079021453857,5.784635066986084,-2.003800868988037,0.3215976655483246,6.258785247802734
1741261517.8058736,1.9295859336853027,0.37107422947883606,5.073409557342529,-1.9048477411270142,0.5442422032356262,6.02170991897583,2.5233047008514404,1.0884844064712524,5.64238977432251,-2.003800868988037,0.2721211016178131,6.211370468139648
1741261517.807654,1.9048477411270142,0.37107422947883606,5.120824337005615,-1.9048477411270142,0.5442422032356262,6.02170991897583,2.4985663890838623,1.0884844064712524,5.689805030822754,-2.003800868988037,0.24738281965255737,6.211370468139648
1741261517.8093102,1.8306329250335693,0.37107422947883606,5.120824337005615,-1.9048477411270142,0.44528907537460327,6.02170991897583,2.4985663890838623,1.0884844064712524,5.64238977432251,-2.003800868988037,0.2721211016178131,6.211370468139648
1741261517.811554,1.880109429359436,0.42055079340934753,5.120824337005615,-1.9048477411270142,0.44528907537460327,6.069125175476074,2.5233047008514404,1.1874375343322754,5.64238977432251,-2.003800868988037,0.24738281965255737,6.116540431976318
1741261517.8136897,1.9295859336853027,0.37107422947883606,5.025994300842285,-1.979062557220459,0.5195039510726929,6.069125175476074,2.4985663890838623,1.0637460947036743,5.64238977432251,-2.0780158042907715,0.24738281965255737,6.211370468139648
1741261517.815228,1.9048477411270142,0.42055079340934753,5.120824337005615,-1.9048477411270142,0.470027357339859,6.069125175476074,2.4985663890838623,1.0884844064712524,5.689805030822754,-2.0780158042907715,0.24738281965255737,6.258785247802734
1741261517.8173525,1.880109429359436,0.37107422947883606,5.120824337005615,-1.9295859336853027,0.470027357339859,6.02170991897583,2.5233047008514404,1.0884844064712524,5.64238977432251,-2.0285391807556152,0.24738281965255737,6.211370468139648
1741261517.8190005,1.880109429359436,0.3463359475135803,5.025994300842285,-1.979062557220459,0.44528907537460327,6.069125175476074,2.4985663890838623,1.0884844064712524,5.64238977432251,-2.003800868988037,0.24738281965255737,6.211370468139648
1741261517.8211071,1.880109429359436,0.3463359475135803,5.025994300842285,-1.9048477411270142,0.470027357339859,6.02170991897583,2.5233047008514404,1.0637460947036743,5.64238977432251,-1.979062557220459,0.22264453768730164,6.211370468139648
1741261517.8234391,1.880109429359436,0.3215976655483246,5.120824337005615,-1.9048477411270142,0.44528907537460327,6.02170991897583,2.5233047008514404,1.0637460947036743,5.64238977432251,-2.003800868988037,0.22264453768730164,6.258785247802734
1741261517.8260913,1.880109429359436,0.42055079340934753,5.120824337005615,-1.9048477411270142,0.470027357339859,6.02170991897583,2.4985663890838623,1.0390079021453857,5.64238977432251,-2.0285391807556152,0.22264453768730164,6.211370468139648
1741261517.8278577,1.880109429359436,0.42055079340934753,5.025994300842285,-1.9048477411270142,0.470027357339859,6.02170991897583,2.4985663890838623,1.0390079021453857,5.689805030822754,-2.0285391807556152,0.22264453768730164,6.211370468139648
1741261517.8291328,1.880109429359436,0.37107422947883606,5.120824337005615,-1.979062557220459,0.470027357339859,5.974295139312744,2.449090003967285,1.0390079021453857,5.689805030822754,-1.979062557220459,0.22264453768730164,6.116540431976318
1741261517.8315609,1.9048477411270142,0.42055079340934753,5.025994300842285,-1.9048477411270142,0.44528907537460327,6.02170991897583,2.4985663890838623,1.0637460947036743,5.64238977432251,-2.003800868988037,0.22264453768730164,6.116540431976318
1741261517.833701,1.880109429359436,0.42055079340934753,5.025994300842285,-1.979062557220459,0.42055079340934753,6.02170991897583,2.5233047008514404,1.0390079021453857,5.64238977432251,-1.979062557220459,0.17316797375679016,6.069125175476074
1741261517.8350637,1.880109429359436,0.42055079340934753,5.120824337005615,-1.979062557220459,0.42055079340934753,6.02170991897583,2.5233047008514404,1.0637460947036743,5.689805030822754,-2.003800868988037,0.17316797375679016,6.211370468139648
1741261517.8374379,1.880109429359436,0.37107422947883606,5.120824337005615,-1.979062557220459,0.44528907537460327,6.02170991897583,2.5233047008514404,1.0637460947036743,5.689805030822754,-2.0285391807556152,0.24738281965255737,6.116540431976318
1741261517.839088,1.8306329250335693,0.37107422947883606,5.120824337005615,-1.979062557220459,0.42055079340934753,6.02170991897583,2.5233047008514404,1.0884844064712524,5.64238977432251,-1.979062557220459,0.22264453768730164,6.116540431976318
1741261517.841076,1.880109429359436,0.37107422947883606,5.025994300842285,-1.979062557220459,0.42055079340934753,6.02170991897583,2.5233047008514404,1.0637460947036743,5.64238977432251,-2.003800868988037,0.22264453768730164,6.069125175476074
1741261517.8434114,1.9048477411270142,0.3463359475135803,5.025994300842285,-1.979062557220459,0.470027357339859,5.974295139312744,2.5233047008514404,1.0390079021453857,5.64238977432251,-1.979062557220459,0.22264453768730164,6.069125175476074
1741261517.8452837,1.880109429359436,0.44528907537460327,5.120824337005615,-1.979062557220459,0.42055079340934753,6.02170991897583,2.5233047008514404,1.0390079021453857,5.64238977432251,-2.003800868988037,0.24738281965255737,6.069125175476074
1741261517.8476818,1.880109429359436,0.3463359475135803,5.025994300842285,-1.979062557220459,0.42055079340934753,6.02170991897583,2.4985663890838623,1.0637460947036743,5.594974994659424,-2.003800868988037,0.17316797375679016,6.069125175476074
1741261517.8494608,1.880109429359436,0.37107422947883606,5.120824337005615,-1.9295859336853027,0.42055079340934753,6.02170991897583,2.5233047008514404,1.0884844064712524,5.64238977432251,-2.003800868988037,0.17316797375679016,6.116540431976318
1741261517.85096,1.880109429359436,0.3463359475135803,5.120824337005615,-1.9295859336853027,0.42055079340934753,6.02170991897583,2.5233047008514404,1.0637460947036743,5.689805030822754,-2.003800868988037,0.22264453768730164,6.069125175476074
1741261517.8532615,1.9048477411270142,0.3463359475135803,5.120824337005615,-1.9295859336853027,0.470027357339859,6.069125175476074,2.5233047008514404,1.0390079021453857,5.64238977432251,-2.0285391807556152,0.22264453768730164,6.116540431976318
1741261517.8550968,1.9048477411270142,0.37107422947883606,5.120824337005615,-1.9048477411270142,0.44528907537460327,6.02170991897583,2.449090003967285,1.0390079021453857,5.594974994659424,-2.003800868988037,0.22264453768730164,6.069125175476074
1741261517.8569605,1.9048477411270142,0.3463359475135803,5.120824337005615,-1.9295859336853027,0.44528907537460327,6.069125175476074,2.4985663890838623,1.0390079021453857,5.64238977432251,-2.003800868988037,0.22264453768730164,6.069125175476074
1741261517.8590405,1.9048477411270142,0.3463359475135803,5.120824337005615,-1.979062557220459,0.42055079340934753,6.02170991897583,2.5233047008514404,0.9895312786102295,5.5001444816589355,-2.0285391807556152,0.22264453768730164,6.258785247802734
1741261517.860981,1.9295859336853027,0.3215976655483246,5.120824337005615,-1.9048477411270142,0.44528907537460327,6.02170991897583,2.5233047008514404,1.0637460947036743,5.64238977432251,-2.0285391807556152,0.22264453768730164,6.211370468139648
1741261517.863747,1.9048477411270142,0.3215976655483246,5.120824337005615,-1.9048477411270142,0.37107422947883606,6.02170991897583,2.4985663890838623,1.0637460947036743,5.5001444816589355,-2.003800868988037,0.22264453768730164,6.211370468139648
1741261517.8660321,1.9295859336853027,0.3215976655483246,5.073409557342529,-1.880109429359436,0.44528907537460327,5.974295139312744,2.449090003967285,1.0390079021453857,5.64238977432251,-2.0285391807556152,0.22264453768730164,6.211370468139648
1741261517.8681855,1.9295859336853027,0.3215976655483246,5.120824337005615,-1.880109429359436,0.42055079340934753,6.02170991897583,2.449090003967285,1.0637460947036743,5.64238977432251,-2.0285391807556152,0.22264453768730164,6.211370468139648
1741261517.8695517,1.9048477411270142,0.37107422947883606,5.120824337005615,-1.9295859336853027,0.44528907537460327,6.116540431976318,2.4985663890838623,1.0637460947036743,5.5001444816589355,-2.003800868988037,0.22264453768730164,6.069125175476074
1741261517.8719208,1.880109429359436,0.37107422947883606,5.120824337005615,-1.9295859336853027,0.44528907537460327,6.116540431976318,2.5233047008514404,1.0637460947036743,5.64238977432251,-2.003800868988037,0.17316797375679016,6.069125175476074
1741261517.8735466,1.880109429359436,0.3215976655483246,5.120824337005615,-1.979062557220459,0.44528907537460327,6.069125175476074,2.449090003967285,0.9895312786102295,5.64238977432251,-2.0285391807556152,0.22264453768730164,6.116540431976318
1741261517.8756776,1.9295859336853027,0.37107422947883606,5.120824337005615,-1.9295859336853027,0.44528907537460327,6.02170991897583,2.4985663890838623,1.0637460947036743,5.594974994659424,-1.979062557220459,0.2721211016178131,6.069125175476074
1741261517.8772492,1.979062557220459,0.3215976655483246,5.025994300842285,-1.9048477411270142,0.44528907537460327,6.02170991897583,2.424351692199707,0.9895312786102295,5.594974994659424,-2.0285391807556152,0.22264453768730164,6.069125175476074
1741261517.879108,1.9295859336853027,0.3215976655483246,5.120824337005615,-1.979062557220459,0.44528907537460327,6.211370468139648,2.4985663890838623,1.0390079021453857,5.594974994659424,-1.979062557220459,0.22264453768730164,6.116540431976318
1741261517.8810372,1.9295859336853027,0.3215976655483246,5.120824337005615,-1.9048477411270142,0.44528907537460327,6.02170991897583,2.449090003967285,1.0390079021453857,5.5001444816589355,-1.979062557220459,0.2721211016178131,6.069125175476074
1741261517.8832712,1.9295859336853027,0.3215976655483246,5.120824337005615,-1.9048477411270142,0.44528907537460327,6.116540431976318,2.4985663890838623,0.9895312786102295,5.5001444816589355,-2.0285391807556152,0.2721211016178131,6.116540431976318
1741261517.8851724,1.880109429359436,0.3215976655483246,5.120824337005615,-1.9295859336853027,0.42055079340934753,6.02170991897583,2.4985663890838623,0.9895312786102295,5.594974994659424,-1.979062557220459,0.22264453768730164,6.116540431976318
1741261517.8877647,1.9048477411270142,0.3215976655483246,5.120824337005615,-1.9048477411270142,0.44528907537460327,6.069125175476074,2.4985663890838623,0.9895312786102295,5.5001444816589355,-2.0285391807556152,0.17316797375679016,6.069125175476074
1741261517.8892927,1.9048477411270142,0.3215976655483246,5.120824337005615,-1.9295859336853027,0.37107422947883606,6.02170991897583,2.449090003967285,0.9647929668426514,5.5001444816589355,-1.979062557220459,0.22264453768730164,6.116540431976318
1741261517.8911793,1.9048477411270142,0.3215976655483246,5.120824337005615,-1.979062557220459,0.42055079340934753,6.02170991897583,2.4985663890838623,1.0390079021453857,5.594974994659424,-1.979062557220459,0.22264453768730164,6.116540431976318
1741261517.8937223,1.9295859336853027,0.3215976655483246,5.120824337005615,-1.979062557220459,0.44528907537460327,6.116540431976318,2.4985663890838623,1.0390079021453857,5.5001444816589355,-2.003800868988037,0.22264453768730164,6.116540431976318
1741261517.8952777,1.880109429359436,0.3463359475135803,5.120824337005615,-1.9295859336853027,0.42055079340934753,6.02170991897583,2.4985663890838623,0.9895312786102295,5.5001444816589355,-1.979062557220459,0.24738281965255737,6.116540431976318
1741261517.8972218,1.9048477411270142,0.3215976655483246,5.120824337005615,-1.9295859336853027,0.44528907537460327,6.02170991897583,2.4985663890838623,0.9895312786102295,5.5001444816589355,-2.003800868988037,0.2721211016178131,6.116540431976318
1741261517.8991272,1.9048477411270142,0.37107422947883606,5.120824337005615,-1.9295859336853027,0.42055079340934753,6.02170991897583,2.5233047008514404,1.0390079021453857,5.64238977432251,-1.9295859336853027,0.17316797375679016,6.069125175476074
1741261517.9017394,1.9048477411270142,0.3215976655483246,5.025994300842285,-2.003800868988037,0.42055079340934753,6.069125175476074,2.5233047008514404,0.9647929668426514,5.594974994659424,-1.979062557220459,0.22264453768730164,6.069125175476074
1741261517.9032917,1.880109429359436,0.37107422947883606,5.120824337005615,-1.979062557220459,0.37107422947883606,6.069125175476074,2.4985663890838623,1.0884844064712524,5.5001444816589355,-2.003800868988037,0.22264453768730164,6.02170991897583
1741261517.9050357,1.880109429359436,0.3215976655483246,5.120824337005615,-1.9295859336853027,0.37107422947883606,6.069125175476074,2.4985663890838623,1.0637460947036743,5.64238977432251,-2.003800868988037,0.2721211016178131,6.02170991897583
1741261517.9072807,1.9048477411270142,0.3215976655483246,5.120824337005615,-1.9048477411270142,0.44528907537460327,6.02170991897583,2.4985663890838623,0.9895312786102295,5.5001444816589355,-1.979062557220459,0.24738281965255737,6.069125175476074
1741261517.909285,1.9048477411270142,0.3463359475135803,5.120824337005615,-1.9048477411270142,0.42055079340934753,6.069125175476074,2.4985663890838623,1.0637460947036743,5.5001444816589355,-1.979062557220459,0.2721211016178131,6.069125175476074
1741261517.9110415,1.880109429359436,0.3215976655483246,5.120824337005615,-1.9295859336853027,0.37107422947883606,6.069125175476074,2.4985663890838623,1.0884844064712524,5.5001444816589355,-1.979062557220459,0.17316797375679016,6.116540431976318
1741261517.9137151,1.880109429359436,0.37107422947883606,5.073409557342529,-1.9048477411270142,0.42055079340934753,6.02170991897583,2.5480430126190186,0.9895312786102295,5.5001444816589355,-1.979062557220459,0.22264453768730164,6.116540431976318
1741261517.915372,1.880109429359436,0.3463359475135803,5.120824337005615,-1.9295859336853027,0.37107422947883606,6.116540431976318,2.4985663890838623,1.0390079021453857,5.5001444816589355,-1.9295859336853027,0.17316797375679016,6.116540431976318
1741261517.9175236,1.880109429359436,0.2721211016178131,5.120824337005615,-1.979062557220459,0.42055079340934753,6.02170991897583,2.5233047008514404,1.0390079021453857,5.5001444816589355,-1.9295859336853027,0.17316797375679016,6.116540431976318
1741261517.9192498,1.9048477411270142,0.37107422947883606,5.025994300842285,-1.979062557220459,0.3463359475135803,6.069125175476074,2.5233047008514404,1.0637460947036743,5.5001444816589355,-2.003800868988037,0.17316797375679016,6.069125175476074
1741261517.9211128,1.880109429359436,0.3215976655483246,5.025994300842285,-1.979062557220459,0.42055079340934753,6.02170991897583,2.4985663890838623,1.0390079021453857,5.64238977432251,-1.9295859336853027,0.17316797375679016,6.116540431976318
1741261517.9237134,1.880109429359436,0.3215976655483246,5.120824337005615,-2.003800868988037,0.42055079340934753,6.02170991897583,2.5233047008514404,1.0390079021453857,5.64238977432251,-1.9295859336853027,0.17316797375679016,6.069125175476074
1741261517.9261298,1.880109429359436,0.3215976655483246,5.025994300842285,-2.003800868988037,0.42055079340934753,5.879465103149414,2.5233047008514404,1.0637460947036743,5.594974994659424,-1.979062557220459,0.22264453768730164,6.116540431976318
1741261517.927455,1.8306329250335693,0.37107422947883606,5.120824337005615,-1.979062557220459,0.42055079340934753,6.02170991897583,2.5233047008514404,1.0637460947036743,5.594974994659424,-1.9295859336853027,0.22264453768730164,6.069125175476074
1741261517.9293768,1.8306329250335693,0.37107422947883606,5.120824337005615,-1.979062557220459,0.42055079340934753,6.116540431976318,2.5233047008514404,1.0637460947036743,5.594974994659424,-1.9048477411270142,0.17316797375679016,6.116540431976318
1741261517.9315329,1.8306329250335693,0.37107422947883606,5.025994300842285,-1.9048477411270142,0.37107422947883606,6.069125175476074,2.5480430126190186,1.0637460947036743,5.5001444816589355,-1.9048477411270142,0.17316797375679016,6.116540431976318
1741261517.9334981,1.880109429359436,0.3215976655483246,5.120824337005615,-1.979062557220459,0.44528907537460327,6.116540431976318,2.5233047008514404,1.0637460947036743,5.64238977432251,-1.9295859336853027,0.17316797375679016,6.069125175476074
1741261517.9352393,1.8306329250335693,0.3463359475135803,5.025994300842285,-1.9295859336853027,0.3463359475135803,6.02170991897583,2.4985663890838623,1.0637460947036743,5.5001444816589355,-1.9295859336853027,0.22264453768730164,6.069125175476074
1741261517.9372501,1.880109429359436,0.37107422947883606,5.073409557342529,-1.9295859336853027,0.37107422947883606,6.02170991897583,2.4985663890838623,1.0637460947036743,5.64238977432251,-1.9048477411270142,0.22264453768730164,6.116540431976318
1741261517.9390018,1.8306329250335693,0.3463359475135803,5.025994300842285,-1.979062557220459,0.3463359475135803,6.02170991897583,2.4985663890838623,1.0390079021453857,5.5001444816589355,-1.9295859336853027,0.24738281965255737,6.211370468139648
1741261517.940976,1.880109429359436,0.3463359475135803,5.120824337005615,-1.9295859336853027,0.37107422947883606,6.069125175476074,2.5233047008514404,1.0390079021453857,5.594974994659424,-1.9295859336853027,0.22264453768730164,6.211370468139648
1741261517.9433217,1.8306329250335693,0.3215976655483246,5.120824337005615,-1.979062557220459,0.42055079340934753,6.02170991897583,2.5480430126190186,1.0390079021453857,5.5001444816589355,-1.9295859336853027,0.22264453768730164,6.116540431976318
1741261517.9450114,1.8306329250335693,0.37107422947883606,5.120824337005615,-1.979062557220459,0.3463359475135803,6.116540431976318,2.4985663890838623,1.0390079021453857,5.5001444816589355,-1.9295859336853027,0.22264453768730164,6.116540431976318
1741261517.9473946,1.8306329250335693,0.42055079340934753,5.025994300842285,-2.003800868988037,0.44528907537460327,6.211370468139648,2.4985663890838623,1.0390079021453857,5.5001444816589355,-1.9048477411270142,0.22264453768730164,6.116540431976318
1741261517.9492114,1.8306329250335693,0.3463359475135803,5.025994300842285,-1.979062557220459,0.44528907537460327,6.116540431976318,2.5233047008514404,1.0637460947036743,5.5001444816589355,-1.9295859336853027,0.22264453768730164,6.116540431976318
1741261517.9510539,1.880109429359436,0.3463359475135803,5.025994300842285,-1.979062557220459,0.37107422947883606,6.116540431976318,2.4985663890838623,1.0637460947036743,5.5001444816589355,-1.9295859336853027,0.22264453768730164,6.258785247802734
1741261517.9535134,1.9048477411270142,0.3463359475135803,5.120824337005615,-1.979062557220459,0.44528907537460327,6.116540431976318,2.4985663890838623,1.0390079021453857,5.594974994659424,-1.979062557220459,0.22264453768730164,6.069125175476074
1741261517.9550872,1.9048477411270142,0.3463359475135803,5.025994300842285,-1.9295859336853027,0.42055079340934753,6.069125175476074,2.4985663890838623,1.0390079021453857,5.5001444816589355,-1.9295859336853027,0.24738281965255737,6.116540431976318
1741261517.957506,1.9295859336853027,0.37107422947883606,5.025994300842285,-1.979062557220459,0.37107422947883606,6.02170991897583,2.5233047008514404,1.0390079021453857,5.64238977432251,-1.9048477411270142,0.17316797375679016,6.211370468139648
1741261517.959277,1.9048477411270142,0.37107422947883606,5.025994300842285,-1.979062557220459,0.3463359475135803,6.02170991897583,2.5233047008514404,1.0637460947036743,5.5001444816589355,-1.9295859336853027,0.22264453768730164,6.211370468139648
1741261517.9618275,1.8306329250335693,0.3463359475135803,5.025994300842285,-1.979062557220459,0.42055079340934753,6.116540431976318,2.4985663890838623,1.0390079021453857,5.594974994659424,-1.9295859336853027,0.22264453768730164,6.116540431976318
1741261517.9635544,1.880109429359436,0.37107422947883606,5.025994300842285,-1.979062557220459,0.44528907537460327,6.116540431976318,2.4985663890838623,1.0390079021453857,5.5001444816589355,-1.9295859336853027,0.22264453768730164,6.211370468139648
1741261517.9659088,1.880109429359436,0.3463359475135803,5.025994300842285,-1.9295859336853027,0.42055079340934753,6.116540431976318,2.5233047008514404,1.0637460947036743,5.5001444816589355,-1.9295859336853027,0.22264453768730164,6.258785247802734
1741261517.9677963,1.880109429359436,0.37107422947883606,5.120824337005615,-1.979062557220459,0.42055079340934753,6.116540431976318,2.5233047008514404,1.0637460947036743,5.5001444816589355,-2.003800868988037,0.22264453768730164,6.116540431976318
1741261517.9692717,1.9048477411270142,0.37107422947883606,5.120824337005615,-1.979062557220459,0.37107422947883606,6.069125175476074,2.4985663890838623,1.0637460947036743,5.5001444816589355,-1.9295859336853027,0.17316797375679016,6.258785247802734
1741261517.9716437,1.880109429359436,0.37107422947883606,5.120824337005615,-1.9048477411270142,0.42055079340934753,6.069125175476074,2.4985663890838623,1.0390079021453857,5.5001444816589355,-1.979062557220459,0.22264453768730164,6.258785247802734
1741261517.9733787,1.9048477411270142,0.3463359475135803,5.025994300842285,-1.979062557220459,0.42055079340934753,6.069125175476074,2.5233047008514404,1.0637460947036743,5.5001444816589355,-1.979062557220459,0.22264453768730164,6.258785247802734
1741261517.9752018,1.880109429359436,0.3463359475135803,5.120824337005615,-1.979062557220459,0.42055079340934753,6.116540431976318,2.4985663890838623,1.0637460947036743,5.5001444816589355,-1.979062557220459,0.22264453768730164,6.116540431976318
1741261517.9774554,1.880109429359436,0.3463359475135803,5.025994300842285,-1.979062557220459,0.44528907537460327,6.116540431976318,2.5233047008514404,1.0637460947036743,5.594974994659424,-1.9295859336853027,0.22264453768730164,6.116540431976318
1741261517.9790356,1.9048477411270142,0.37107422947883606,5.025994300842285,-1.9048477411270142,0.42055079340934753,6.116540431976318,2.4985663890838623,1.0390079021453857,5.5001444816589355,-1.9295859336853027,0.22264453768730164,6.258785247802734
1741261517.9809709,1.9048477411270142,0.3463359475135803,5.120824337005615,-1.979062557220459,0.44528907537460327,6.116540431976318,2.4985663890838623,1.0637460947036743,5.5001444816589355,-1.9048477411270142,0.17316797375679016,6.116540431976318
1741261517.983367,1.880109429359436,0.37107422947883606,5.025994300842285,-1.979062557220459,0.3463359475135803,6.116540431976318,2.5480430126190186,1.0390079021453857,5.45272970199585,-1.9295859336853027,0.22264453768730164,6.116540431976318
1741261517.9849749,1.9048477411270142,0.3463359475135803,5.025994300842285,-1.979062557220459,0.42055079340934753,6.116540431976318,2.5233047008514404,1.0637460947036743,5.5001444816589355,-1.979062557220459,0.22264453768730164,6.116540431976318
1741261517.987285,1.880109429359436,0.3463359475135803,5.120824337005615,-1.979062557220459,0.3463359475135803,6.02170991897583,2.5233047008514404,1.0637460947036743,5.5001444816589355,-1.9048477411270142,0.22264453768730164,6.258785247802734
1741261517.98906,1.880109429359436,0.37107422947883606,5.025994300842285,-1.979062557220459,0.3463359475135803,6.116540431976318,2.5233047008514404,1.0637460947036743,5.5001444816589355,-1.979062557220459,0.22264453768730164,6.116540431976318
1741261517.9909987,1.9048477411270142,0.37107422947883606,5.025994300842285,-1.979062557220459,0.3463359475135803,6.116540431976318,2.4985663890838623,1.0637460947036743,5.5001444816589355,-1.979062557220459,0.22264453768730164,6.211370468139648
1741261517.9932222,1.880109429359436,0.3463359475135803,5.025994300842285,-1.979062557220459,0.3463359475135803,6.116540431976318,2.5480430126190186,1.0884844064712524,5.5001444816589355,-1.9295859336853027,0.17316797375679016,6.258785247802734
1741261517.9950156,1.880109429359436,0.37107422947883606,5.025994300842285,-1.9048477411270142,0.3463359475135803,6.116540431976318,2.5233047008514404,1.0637460947036743,5.5001444816589355,-1.9295859336853027,0.17316797375679016,6.116540431976318
1741261517.9973764,1.880109429359436,0.3463359475135803,5.120824337005615,-2.003800868988037,0.3463359475135803,6.116540431976318,2.5233047008514404,1.0637460947036743,5.5001444816589355,-1.880109429359436,0.14842969179153442,6.116540431976318
1741261517.9991288,1.880109429359436,0.37107422947883606,5.120824337005615,-2.003800868988037,0.3463359475135803,6.116540431976318,2.5480430126190186,0.9895312786102295,5.45272970199585,-1.880109429359436,0.17316797375679016,6.116540431976318
1741261518.0014343,1.8306329250335693,0.3463359475135803,5.025994300842285,-1.9295859336853027,0.3463359475135803,6.116540431976318,2.5480430126190186,1.0637460947036743,5.5001444816589355,-1.880109429359436,0.17316797375679016,6.116540431976318
1741261518.0032377,1.8058946132659912,0.3463359475135803,5.120824337005615,-2.0285391807556152,0.42055079340934753,6.116540431976318,2.5233047008514404,1.0637460947036743,5.5001444816589355,-1.9048477411270142,0.17316797375679016,6.116540431976318
1741261518.0058765,1.880109429359436,0.42055079340934753,5.025994300842285,-2.003800868988037,0.42055079340934753,6.02170991897583,2.5480430126190186,1.0390079021453857,5.5001444816589355,-1.9295859336853027,0.17316797375679016,6.211370468139648
1741261518.0076985,1.8306329250335693,0.37107422947883606,5.120824337005615,-1.9295859336853027,0.42055079340934753,6.02170991897583,2.5233047008514404,1.0884844064712524,5.64238977432251,-1.9048477411270142,0.14842969179153442,6.069125175476074
1741261518.0092175,1.880109429359436,0.37107422947883606,5.120824337005615,-2.003800868988037,0.42055079340934753,6.02170991897583,2.5480430126190186,1.0637460947036743,5.5001444816589355,-1.9295859336853027,0.22264453768730164,6.069125175476074
1741261518.011563,1.8306329250335693,0.42055079340934753,5.120824337005615,-1.979062557220459,0.37107422947883606,6.02170991897583,2.5480430126190186,1.0637460947036743,5.64238977432251,-1.9048477411270142,0.22264453768730164,6.258785247802734
1741261518.013528,1.880109429359436,0.42055079340934753,5.025994300842285,-1.979062557220459,0.37107422947883606,6.116540431976318,2.597519636154175,1.0637460947036743,5.64238977432251,-1.9048477411270142,0.17316797375679016,6.116540431976318
1741261518.0157187,1.8306329250335693,0.3463359475135803,5.025994300842285,-1.9295859336853027,0.42055079340934753,6.02170991897583,2.5480430126190186,1.0884844064712524,5.64238977432251,-1.979062557220459,0.22264453768730164,6.211370468139648
1741261518.0174608,1.781156301498413,0.42055079340934753,5.120824337005615,-1.9295859336853027,0.37107422947883606,6.02170991897583,2.5480430126190186,1.0884844064712524,5.64238977432251,-1.9048477411270142,0.22264453768730164,6.116540431976318
1741261518.0193682,1.880109429359436,0.42055079340934753,5.120824337005615,-1.979062557220459,0.42055079340934753,6.02170991897583,2.5480430126190186,1.0637460947036743,5.64238977432251,-1.9048477411270142,0.17316797375679016,6.211370468139648
1741261518.0216265,1.8058946132659912,0.37107422947883606,5.025994300842285,-1.979062557220459,0.37107422947883606,6.02170991897583,2.5480430126190186,1.0884844064712524,5.64238977432251,-1.9048477411270142,0.22264453768730164,6.116540431976318
1741261518.0234168,1.8306329250335693,0.42055079340934753,5.120824337005615,-1.9295859336853027,0.3463359475135803,6.02170991897583,2.5480430126190186,1.0884844064712524,5.64238977432251,-1.9295859336853027,0.14842969179153442,6.211370468139648
1741261518.025704,1.8306329250335693,0.42055079340934753,5.215654373168945,-1.979062557220459,0.42055079340934753,6.069125175476074,2.5233047008514404,1.0884844064712524,5.5001444816589355,-1.9295859336853027,0.17316797375679016,6.069125175476074
1741261518.0276446,1.8306329250335693,0.42055079340934753,5.120824337005615,-2.003800868988037,0.42055079340934753,6.02170991897583,2.5233047008514404,1.0884844064712524,5.64238977432251,-1.9295859336853027,0.22264453768730164,6.116540431976318
1741261518.0292628,1.8306329250335693,0.42055079340934753,5.120824337005615,-1.979062557220459,0.42055079340934753,6.02170991897583,2.5480430126190186,1.0884844064712524,5.64238977432251,-1.9295859336853027,0.22264453768730164,6.116540431976318
1741261518.0316916,1.8306329250335693,0.37107422947883606,5.073409557342529,-1.979062557220459,0.42055079340934753,6.02170991897583,2.5480430126190186,1.0884844064712524,5.64238977432251,-1.9295859336853027,0.22264453768730164,6.211370468139648
1741261518.0334857,1.8306329250335693,0.37107422947883606,5.120824337005615,-1.979062557220459,0.37107422947883606,6.02170991897583,2.5480430126190186,1.0637460947036743,5.594974994659424,-1.9048477411270142,0.17316797375679016,6.116540431976318
1741261518.0350738,1.880109429359436,0.42055079340934753,5.120824337005615,-2.003800868988037,0.42055079340934753,6.02170991897583,2.5480430126190186,1.0390079021453857,5.5001444816589355,-1.9295859336853027,0.22264453768730164,6.211370468139648
1741261518.0373557,1.880109429359436,0.42055079340934753,5.120824337005615,-2.003800868988037,0.42055079340934753,6.02170991897583,2.5480430126190186,0.9895312786102295,5.5001444816589355,-1.9295859336853027,0.17316797375679016,6.211370468139648
1741261518.0390573,1.8306329250335693,0.42055079340934753,5.025994300842285,-1.979062557220459,0.42055079340934753,6.02170991897583,2.5233047008514404,1.0390079021453857,5.5001444816589355,-1.9048477411270142,0.22264453768730164,6.211370468139648
1741261518.0414424,1.880109429359436,0.37107422947883606,5.025994300842285,-1.979062557220459,0.42055079340934753,6.116540431976318,2.5480430126190186,1.0390079021453857,5.5001444816589355,-1.9048477411270142,0.22264453768730164,6.258785247802734
1741261518.0433626,1.8306329250335693,0.42055079340934753,5.120824337005615,-1.979062557220459,0.42055079340934753,6.116540431976318,2.5233047008514404,1.0637460947036743,5.5001444816589355,-1.9048477411270142,0.22264453768730164,6.116540431976318
1741261518.0450358,1.880109429359436,0.37107422947883606,5.025994300842285,-1.9295859336853027,0.42055079340934753,6.116540431976318,2.5233047008514404,1.0390079021453857,5.5001444816589355,-1.9295859336853027,0.22264453768730164,6.116540431976318
1741261518.0471601,1.880109429359436,0.42055079340934753,5.025994300842285,-1.9295859336853027,0.42055079340934753,6.116540431976318,2.4985663890838623,1.0637460947036743,5.5001444816589355,-1.9295859336853027,0.22264453768730164,6.116540431976318
1741261518.049403,1.880109429359436,0.42055079340934753,5.025994300842285,-1.979062557220459,0.44528907537460327,6.02170991897583,2.5233047008514404,1.0390079021453857,5.5001444816589355,-1.9048477411270142,0.14842969179153442,6.258785247802734
1741261518.0511959,1.880109429359436,0.37107422947883606,5.025994300842285,-1.9048477411270142,0.3463359475135803,6.069125175476074,2.5480430126190186,1.0390079021453857,5.5001444816589355,-1.9295859336853027,0.17316797375679016,6.258785247802734
1741261518.053561,1.8306329250335693,0.3463359475135803,5.073409557342529,-1.979062557220459,0.42055079340934753,6.069125175476074,2.4985663890838623,1.0390079021453857,5.45272970199585,-1.9048477411270142,0.17316797375679016,6.116540431976318
1741261518.0551686,1.880109429359436,0.3463359475135803,5.120824337005615,-1.979062557220459,0.42055079340934753,6.116540431976318,2.5233047008514404,1.0637460947036743,5.5001444816589355,-1.9048477411270142,0.14842969179153442,6.116540431976318
1741261518.057401,1.880109429359436,0.3463359475135803,5.025994300842285,-1.979062557220459,0.3463359475135803,6.02170991897583,2.449090003967285,1.0390079021453857,5.45272970199585,-1.9048477411270142,0.14842969179153442,6.211370468139648
1741261518.059064,1.8306329250335693,0.37107422947883606,5.025994300842285,-1.979062557220459,0.3463359475135803,6.116540431976318,2.5233047008514404,1.0390079021453857,5.4053144454956055,-1.9048477411270142,0.17316797375679016,6.116540431976318
1741261518.0614038,1.8306329250335693,0.37107422947883606,5.025994300842285,-1.9295859336853027,0.42055079340934753,6.069125175476074,2.5233047008514404,1.0637460947036743,5.5001444816589355,-1.880109429359436,0.14842969179153442,6.211370468139648
1741261518.0632632,1.8306329250335693,0.3215976655483246,5.120824337005615,-1.979062557220459,0.42055079340934753,6.211370468139648,2.5480430126190186,1.0390079021453857,5.5001444816589355,-1.9048477411270142,0.22264453768730164,6.3062005043029785
1741261518.0657341,1.880109429359436,0.37107422947883606,5.025994300842285,-1.979062557220459,0.3463359475135803,6.116540431976318,2.5233047008514404,1.0884844064712524,5.45272970199585,-1.9048477411270142,0.17316797375679016,6.258785247802734
1741261518.0678627,1.9048477411270142,0.37107422947883606,5.120824337005615,-1.979062557220459,0.3463359475135803,6.116540431976318,2.5233047008514404,1.0637460947036743,5.5001444816589355,-1.9048477411270142,0.14842969179153442,6.116540431976318
1741261518.0693352,1.8306329250335693,0.37107422947883606,5.025994300842285,-1.979062557220459,0.42055079340934753,6.116540431976318,2.5233047008514404,1.0390079021453857,5.45272970199585,-1.9048477411270142,0.22264453768730164,6.211370468139648
1741261518.071465,1.880109429359436,0.37107422947883606,5.025994300842285,-2.0285391807556152,0.3463359475135803,6.116540431976318,2.5233047008514404,1.0390079021453857,5.4053144454956055,-1.9295859336853027,0.17316797375679016,6.3062005043029785
1741261518.073491,1.9048477411270142,0.3463359475135803,5.025994300842285,-1.979062557220459,0.3215976655483246,6.116540431976318,2.5233047008514404,1.0637460947036743,5.5001444816589355,-1.9048477411270142,0.17316797375679016,6.116540431976318
1741261518.0759006,1.880109429359436,0.3463359475135803,5.073409557342529,-1.979062557220459,0.42055079340934753,6.069125175476074,2.5480430126190186,1.0637460947036743,5.5001444816589355,-1.9048477411270142,0.14842969179153442,6.116540431976318
1741261518.0774746,1.880109429359436,0.3463359475135803,5.025994300842285,-1.979062557220459,0.42055079340934753,6.116540431976318,2.5480430126190186,1.0637460947036743,5.5001444816589355,-1.9048477411270142,0.22264453768730164,6.211370468139648
1741261518.0792382,1.880109429359436,0.3463359475135803,5.025994300842285,-1.979062557220459,0.37107422947883606,6.116540431976318,2.5233047008514404,1.0390079021453857,5.45272970199585,-1.880109429359436,0.17316797375679016,6.258785247802734
1741261518.0818062,1.8306329250335693,0.3463359475135803,5.025994300842285,-1.9295859336853027,0.37107422947883606,6.02170991897583,2.5480430126190186,1.0637460947036743,5.45272970199585,-1.9048477411270142,0.17316797375679016,6.116540431976318
1741261518.0835469,1.9048477411270142,0.42055079340934753,5.025994300842285,-1.979062557220459,0.37107422947883606,6.211370468139648,2.5233047008514404,1.0637460947036743,5.45272970199585,-1.9048477411270142,0.17316797375679016,6.3062005043029785
1741261518.085175,1.9048477411270142,0.42055079340934753,5.025994300842285,-1.979062557220459,0.37107422947883606,6.116540431976318,2.5480430126190186,1.0637460947036743,5.4053144454956055,-1.9048477411270142,0.17316797375679016,6.116540431976318
1741261518.0873618,1.880109429359436,0.42055079340934753,4.883749008178711,-2.0285391807556152,0.42055079340934753,6.211370468139648,2.5480430126190186,1.0390079021453857,5.45272970199585,-1.880109429359436,0.17316797375679016,6.258785247802734
1741261518.0891068,1.880109429359436,0.37107422947883606,4.883749008178711,-1.979062557220459,0.37107422947883606,6.116540431976318,2.5233047008514404,1.1132227182388306,5.5001444816589355,-1.9295859336853027,0.17316797375679016,6.211370468139648
1741261518.0914242,1.8306329250335693,0.3463359475135803,5.025994300842285,-1.979062557220459,0.42055079340934753,6.116540431976318,2.5480430126190186,1.0637460947036743,5.45272970199585,-1.9048477411270142,0.17316797375679016,6.3062005043029785
1741261518.0934832,1.8306329250335693,0.42055079340934753,5.025994300842285,-2.0285391807556152,0.37107422947883606,6.116540431976318,2.597519636154175,1.1626992225646973,5.5001444816589355,-1.880109429359436,0.17316797375679016,6.211370468139648
1741261518.0951965,1.8306329250335693,0.42055079340934753,5.120824337005615,-2.0285391807556152,0.37107422947883606,6.116540431976318,2.5233047008514404,1.0637460947036743,5.594974994659424,-1.9048477411270142,0.14842969179153442,6.3062005043029785
1741261518.0974991,1.8306329250335693,0.37107422947883606,5.025994300842285,-1.979062557220459,0.42055079340934753,6.116540431976318,2.597519636154175,1.0884844064712524,5.4053144454956055,-1.9048477411270142,0.14842969179153442,6.258785247802734
1741261518.099296,1.880109429359436,0.37107422947883606,5.025994300842285,-1.979062557220459,0.44528907537460327,6.116540431976318,2.597519636154175,1.1132227182388306,5.5001444816589355,-1.9048477411270142,0.14842969179153442,6.3062005043029785
1741261518.1016715,1.880109429359436,0.37107422947883606,5.025994300842285,-1.979062557220459,0.42055079340934753,6.116540431976318,2.5480430126190186,1.0637460947036743,5.594974994659424,-1.9048477411270142,0.14842969179153442,6.258785247802734
1741261518.1034026,1.880109429359436,0.37107422947883606,5.025994300842285,-1.979062557220459,0.42055079340934753,6.02170991897583,2.5233047008514404,1.0884844064712524,5.5001444816589355,-1.9295859336853027,0.14842969179153442,6.3062005043029785
1741261518.105215,1.880109429359436,0.37107422947883606,5.025994300842285,-1.979062557220459,0.42055079340934753,6.069125175476074,2.5480430126190186,1.0884844064712524,5.5001444816589355,-1.9048477411270142,0.17316797375679016,6.211370468139648
1741261518.1075084,1.8306329250335693,0.37107422947883606,5.120824337005615,-1.979062557220459,0.42055079340934753,6.211370468139648,2.5480430126190186,1.0884844064712524,5.5001444816589355,-1.9295859336853027,0.14842969179153442,6.116540431976318
1741261518.1092703,1.880109429359436,0.42055079340934753,5.025994300842285,-1.979062557220459,0.42055079340934753,6.116540431976318,2.597519636154175,1.0637460947036743,5.45272970199585,-1.880109429359436,0.12369140982627869,6.258785247802734
1741261518.1116498,1.880109429359436,0.37107422947883606,5.025994300842285,-1.979062557220459,0.37107422947883606,6.211370468139648,2.597519636154175,1.0884844064712524,5.45272970199585,-1.9048477411270142,0.12369140982627869,6.3062005043029785
1741261518.1133757,1.8306329250335693,0.42055079340934753,5.073409557342529,-1.9295859336853027,0.44528907537460327,6.116540431976318,2.597519636154175,1.1132227182388306,5.45272970199585,-1.8306329250335693,0.14842969179153442,6.3062005043029785
1741261518.1149902,1.880109429359436,0.44528907537460327,5.120824337005615,-2.003800868988037,0.42055079340934753,6.116540431976318,2.5233047008514404,1.0884844064712524,5.45272970199585,-1.880109429359436,0.17316797375679016,6.116540431976318
1741261518.1169999,1.880109429359436,0.37107422947883606,5.025994300842285,-1.979062557220459,0.3463359475135803,6.116540431976318,2.5480430126190186,1.0884844064712524,5.45272970199585,-1.9048477411270142,0.14842969179153442,6.211370468139648
1741261518.1189904,1.880109429359436,0.37107422947883606,4.978579044342041,-1.9295859336853027,0.3463359475135803,6.258785247802734,2.5480430126190186,1.0637460947036743,5.45272970199585,-1.9048477411270142,0.14842969179153442,6.3062005043029785
1741261518.1210132,1.880109429359436,0.42055079340934753,5.025994300842285,-1.979062557220459,0.42055079340934753,6.258785247802734,2.5480430126190186,1.0637460947036743,5.45272970199585,-1.9048477411270142,0.14842969179153442,6.211370468139648
1741261518.1230013,1.880109429359436,0.37107422947883606,5.025994300842285,-1.9295859336853027,0.37107422947883606,6.211370468139648,2.5233047008514404,1.0637460947036743,5.45272970199585,-1.9048477411270142,0.17316797375679016,6.258785247802734
1741261518.1266985,1.880109429359436,0.3463359475135803,4.978579044342041,-1.9295859336853027,0.3463359475135803,6.116540431976318,2.5233047008514404,1.0884844064712524,5.5001444816589355,-1.9048477411270142,0.22264453768730164,6.211370468139648
1741261518.1280603,1.9048477411270142,0.37107422947883606,4.978579044342041,-1.9295859336853027,0.44528907537460327,6.211370468139648,2.4985663890838623,1.0637460947036743,5.45272970199585,-1.9295859336853027,0.17316797375679016,6.258785247802734
1741261518.1301484,1.9048477411270142,0.37107422947883606,4.978579044342041,-1.9048477411270142,0.44528907537460327,6.116540431976318,2.5233047008514404,1.0637460947036743,5.45272970199585,-1.9295859336853027,0.17316797375679016,6.116540431976318
1741261518.1317668,1.880109429359436,0.37107422947883606,5.025994300842285,-1.9295859336853027,0.42055079340934753,6.02170991897583,2.5233047008514404,1.0637460947036743,5.45272970199585,-1.9048477411270142,0.17316797375679016,6.258785247802734
1741261518.1337306,1.9048477411270142,0.42055079340934753,4.883749008178711,-1.979062557220459,0.3463359475135803,6.116540431976318,2.5233047008514404,1.0884844064712524,5.45272970199585,-1.9295859336853027,0.17316797375679016,6.258785247802734
1741261518.1360588,1.880109429359436,0.37107422947883606,5.025994300842285,-1.9048477411270142,0.42055079340934753,6.211370468139648,2.5480430126190186,1.0884844064712524,5.45272970199585,-1.9048477411270142,0.14842969179153442,6.211370468139648
1741261518.1374605,1.880109429359436,0.37107422947883606,5.073409557342529,-1.9295859336853027,0.42055079340934753,6.211370468139648,2.5233047008514404,1.0637460947036743,5.45272970199585,-1.9295859336853027,0.17316797375679016,6.211370468139648
1741261518.1392076,1.9048477411270142,0.42055079340934753,4.883749008178711,-1.9048477411270142,0.37107422947883606,6.211370468139648,2.5233047008514404,1.0884844064712524,5.5001444816589355,-1.9295859336853027,0.17316797375679016,6.258785247802734
1741261518.141513,1.880109429359436,0.42055079340934753,5.215654373168945,-1.979062557220459,0.37107422947883606,6.211370468139648,2.5480430126190186,1.0884844064712524,5.5001444816589355,-1.9048477411270142,0.17316797375679016,6.211370468139648
1741261518.1433277,1.9048477411270142,0.37107422947883606,5.120824337005615,-1.979062557220459,0.37107422947883606,6.116540431976318,2.4985663890838623,1.0884844064712524,5.5001444816589355,-1.9295859336853027,0.17316797375679016,6.116540431976318
1741261518.145121,1.9295859336853027,0.37107422947883606,5.025994300842285,-1.9048477411270142,0.42055079340934753,6.211370468139648,2.5233047008514404,1.0637460947036743,5.45272970199585,-1.9295859336853027,0.14842969179153442,6.211370468139648
1741261518.1473022,1.9048477411270142,0.37107422947883606,5.025994300842285,-1.9295859336853027,0.42055079340934753,6.116540431976318,2.4985663890838623,1.0637460947036743,5.45272970199585,-1.9048477411270142,0.17316797375679016,6.211370468139648
1741261518.1490579,1.9048477411270142,0.3463359475135803,5.025994300842285,-1.9048477411270142,0.42055079340934753,6.116540431976318,2.4985663890838623,1.0884844064712524,5.45272970199585,-1.9048477411270142,0.14842969179153442,6.116540431976318
1741261518.1509287,1.880109429359436,0.3215976655483246,5.025994300842285,-1.9295859336853027,0.42055079340934753,6.116540431976318,2.4985663890838623,1.0390079021453857,5.45272970199585,-1.9295859336853027,0.14842969179153442,6.069125175476074
1741261518.1539614,1.880109429359436,0.37107422947883606,5.025994300842285,-1.9048477411270142,0.42055079340934753,6.258785247802734,2.5233047008514404,1.0884844064712524,5.45272970199585,-1.9048477411270142,0.14842969179153442,6.3062005043029785
1741261518.155,1.880109429359436,0.42055079340934753,5.120824337005615,-1.979062557220459,0.42055079340934753,6.211370468139648,2.5233047008514404,1.0884844064712524,5.5001444816589355,-1.9048477411270142,0.14842969179153442,6.3062005043029785
1741261518.157295,1.880109429359436,0.37107422947883606,5.025994300842285,-1.9295859336853027,0.37107422947883606,6.116540431976318,2.597519636154175,1.0884844064712524,5.45272970199585,-1.9048477411270142,0.17316797375679016,6.3062005043029785
1741261518.159005,1.880109429359436,0.3463359475135803,5.025994300842285,-1.9295859336853027,0.42055079340934753,6.116540431976318,2.5233047008514404,1.0390079021453857,5.4053144454956055,-1.979062557220459,0.14842969179153442,6.258785247802734
1741261518.160893,1.9048477411270142,0.42055079340934753,5.025994300842285,-1.9295859336853027,0.37107422947883606,6.211370468139648,2.5480430126190186,1.0884844064712524,5.45272970199585,-1.9048477411270142,0.14842969179153442,6.258785247802734
1741261518.1631062,1.9048477411270142,0.3463359475135803,5.025994300842285,-1.9048477411270142,0.44528907537460327,6.116540431976318,2.5233047008514404,0.9895312786102295,5.45272970199585,-1.880109429359436,0.17316797375679016,6.211370468139648
1741261518.166233,1.880109429359436,0.42055079340934753,5.025994300842285,-1.9048477411270142,0.42055079340934753,6.211370468139648,2.5233047008514404,1.0637460947036743,5.5001444816589355,-1.9048477411270142,0.17316797375679016,6.3062005043029785
1741261518.1679482,1.880109429359436,0.42055079340934753,5.120824337005615,-1.9048477411270142,0.42055079340934753,6.116540431976318,2.5480430126190186,1.0637460947036743,5.5001444816589355,-1.9295859336853027,0.17316797375679016,6.258785247802734
1741261518.1694357,1.9048477411270142,0.42055079340934753,5.120824337005615,-1.979062557220459,0.42055079340934753,6.211370468139648,2.5233047008514404,1.0637460947036743,5.5001444816589355,-1.979062557220459,0.17316797375679016,6.258785247802734
1741261518.1720846,1.880109429359436,0.37107422947883606,5.120824337005615,-1.979062557220459,0.42055079340934753,6.116540431976318,2.597519636154175,1.1132227182388306,5.5001444816589355,-1.9295859336853027,0.14842969179153442,6.258785247802734
1741261518.173741,1.880109429359436,0.42055079340934753,5.025994300842285,-2.003800868988037,0.3463359475135803,6.116540431976318,2.5480430126190186,1.0884844064712524,5.5001444816589355,-1.9048477411270142,0.17316797375679016,6.116540431976318
1741261518.1757486,1.9048477411270142,0.37107422947883606,4.978579044342041,-2.003800868988037,0.37107422947883606,6.116540431976318,2.5233047008514404,1.0637460947036743,5.45272970199585,-1.880109429359436,0.17316797375679016,6.116540431976318
1741261518.1773665,1.9048477411270142,0.37107422947883606,5.120824337005615,-2.003800868988037,0.37107422947883606,6.116540431976318,2.5233047008514404,1.0637460947036743,5.5001444816589355,-1.880109429359436,0.14842969179153442,6.116540431976318
1741261518.1791017,1.880109429359436,0.42055079340934753,5.025994300842285,-1.9295859336853027,0.42055079340934753,6.211370468139648,2.5233047008514404,1.1132227182388306,5.45272970199585,-1.9048477411270142,0.17316797375679016,6.211370468139648
1741261518.1810448,1.880109429359436,0.42055079340934753,5.025994300842285,-1.9295859336853027,0.42055079340934753,6.116540431976318,2.5233047008514404,1.0637460947036743,5.4053144454956055,-1.9048477411270142,0.17316797375679016,6.211370468139648
1741261518.1830766,1.9048477411270142,0.37107422947883606,5.025994300842285,-1.979062557220459,0.42055079340934753,6.116540431976318,2.5480430126190186,1.0884844064712524,5.45272970199585,-1.9048477411270142,0.17316797375679016,6.211370468139648
1741261518.1850593,1.9048477411270142,0.42055079340934753,4.978579044342041,-1.979062557220459,0.42055079340934753,6.116540431976318,2.5233047008514404,1.0637460947036743,5.45272970199585,-1.9048477411270142,0.17316797375679016,6.3062005043029785
1741261518.1877089,1.880109429359436,0.42055079340934753,5.025994300842285,-1.9048477411270142,0.3463359475135803,6.116540431976318,2.5480430126190186,1.0637460947036743,5.45272970199585,-1.9048477411270142,0.14842969179153442,6.258785247802734
1741261518.189229,1.9048477411270142,0.3463359475135803,5.025994300842285,-2.003800868988037,0.37107422947883606,6.116540431976318,2.5480430126190186,1.0637460947036743,5.45272970199585,-1.9048477411270142,0.14842969179153442,6.116540431976318
1741261518.191672,1.9048477411270142,0.42055079340934753,5.025994300842285,-1.9295859336853027,0.42055079340934753,6.211370468139648,2.5233047008514404,1.0637460947036743,5.4053144454956055,-1.9048477411270142,0.14842969179153442,6.211370468139648
1741261518.1935081,1.9048477411270142,0.37107422947883606,5.120824337005615,-1.9295859336853027,0.37107422947883606,6.211370468139648,2.4985663890838623,1.0884844064712524,5.45272970199585,-1.9048477411270142,0.14842969179153442,6.211370468139648
1741261518.1952686,1.880109429359436,0.37107422947883606,5.025994300842285,-1.9295859336853027,0.37107422947883606,6.211370468139648,2.597519636154175,1.1132227182388306,5.5001444816589355,-1.880109429359436,0.14842969179153442,6.116540431976318
1741261518.1975625,1.8306329250335693,0.37107422947883606,5.025994300842285,-1.979062557220459,0.37107422947883606,6.211370468139648,2.5233047008514404,1.0637460947036743,5.5001444816589355,-1.880109429359436,0.14842969179153442,6.211370468139648
1741261518.1991813,1.880109429359436,0.3463359475135803,5.025994300842285,-1.979062557220459,0.37107422947883606,6.211370468139648,2.597519636154175,1.0884844064712524,5.45272970199585,-1.880109429359436,0.14842969179153442,6.116540431976318
1741261518.2017033,1.8306329250335693,0.37107422947883606,5.025994300842285,-1.9295859336853027,0.3215976655483246,6.116540431976318,2.5480430126190186,1.0637460947036743,5.45272970199585,-1.9048477411270142,0.14842969179153442,6.069125175476074
1741261518.2033198,1.9048477411270142,0.37107422947883606,5.073409557342529,-1.9295859336853027,0.3463359475135803,6.116540431976318,2.597519636154175,1.0884844064712524,5.5001444816589355,-1.9048477411270142,0.12369140982627869,6.258785247802734
1741261518.205747,1.880109429359436,0.37107422947883606,5.120824337005615,-1.979062557220459,0.3463359475135803,6.211370468139648,2.5480430126190186,1.0390079021453857,5.5001444816589355,-1.9048477411270142,0.12369140982627869,6.258785247802734
1741261518.2074673,1.8306329250335693,0.37107422947883606,5.025994300842285,-1.9295859336853027,0.37107422947883606,6.211370468139648,2.5233047008514404,1.0884844064712524,5.5001444816589355,-1.880109429359436,0.14842969179153442,6.258785247802734
1741261518.2091663,1.8306329250335693,0.37107422947883606,5.025994300842285,-1.9295859336853027,0.3463359475135803,6.116540431976318,2.5480430126190186,1.0637460947036743,5.5001444816589355,-1.880109429359436,0.12369140982627869,6.116540431976318
1741261518.2111511,1.8306329250335693,0.42055079340934753,5.120824337005615,-1.9295859336853027,0.37107422947883606,6.116540431976318,2.597519636154175,1.1132227182388306,5.45272970199585,-1.9048477411270142,0.14842969179153442,6.116540431976318
1741261518.2131786,1.8306329250335693,0.42055079340934753,5.025994300842285,-1.9295859336853027,0.3463359475135803,6.116540431976318,2.5233047008514404,1.0390079021453857,5.45272970199585,-1.9048477411270142,0.17316797375679016,6.069125175476074
1741261518.2149482,1.8058946132659912,0.37107422947883606,5.025994300842285,-1.9295859336853027,0.37107422947883606,6.116540431976318,2.597519636154175,1.0884844064712524,5.5001444816589355,-1.9048477411270142,0.17316797375679016,6.211370468139648
