Zehao0525/comp0250_s25_labs/CW2_Task1/CW2_testing_data/output_effort.csv
timestamp,joint_1,joint_2,joint_3,joint_4,joint_5,joint_6,joint_7,joint_8,joint_9,joint_10,joint_11,joint_12
1741274305.068602,2.597519636154175,0.0,5.974295139312744,-2.449090003967285,-0.42055079340934753,6.875180721282959,2.226445436477661,0.14842969179153442,5.073409557342529,-1.8058946132659912,-0.049476563930511475,6.02170991897583
1741274305.0706234,2.646996259689331,0.0,5.974295139312744,-2.3501367568969727,-0.3463359475135803,6.875180721282959,2.201707124710083,0.14842969179153442,5.073409557342529,-1.8058946132659912,-0.07421484589576721,6.02170991897583
1741274305.072524,2.67173433303833,0.0,5.879465103149414,-2.424351692199707,-0.37107422947883606,6.970010757446289,2.1522305011749268,0.14842969179153442,5.025994300842285,-1.8058946132659912,-0.049476563930511475,6.02170991897583
1741274305.0742927,2.622257947921753,0.0,5.83204984664917,-2.449090003967285,-0.3463359475135803,6.875180721282959,2.201707124710083,0.14842969179153442,5.073409557342529,-1.781156301498413,-0.049476563930511475,6.02170991897583
1741274305.0763881,2.622257947921753,0.0,5.879465103149414,-2.4985663890838623,-0.42055079340934753,6.970010757446289,2.201707124710083,0.14842969179153442,5.073409557342529,-1.781156301498413,-0.07421484589576721,6.069125175476074
1741274305.0783405,2.646996259689331,0.0,5.879465103149414,-2.5233047008514404,-0.42055079340934753,6.970010757446289,2.201707124710083,0.17316797375679016,5.025994300842285,-1.781156301498413,-0.049476563930511475,5.974295139312744
1741274305.0802276,2.597519636154175,0.0,5.879465103149414,-2.4985663890838623,-0.37107422947883606,6.970010757446289,2.201707124710083,0.17316797375679016,5.073409557342529,-1.781156301498413,-0.049476563930511475,5.974295139312744
1741274305.0822573,2.597519636154175,0.0,5.879465103149414,-2.4985663890838623,-0.42055079340934753,6.970010757446289,2.2511837482452393,0.14842969179153442,4.978579044342041,-1.781156301498413,0.0,6.02170991897583
1741274305.084205,2.646996259689331,0.0,5.974295139312744,-2.424351692199707,-0.42055079340934753,6.875180721282959,2.2511837482452393,0.14842969179153442,4.978579044342041,-1.781156301498413,-0.024738281965255737,5.974295139312744
1741274305.0863159,2.646996259689331,0.049476563930511475,5.879465103149414,-2.4985663890838623,-0.44528907537460327,6.875180721282959,2.2511837482452393,0.14842969179153442,5.073409557342529,-1.7316796779632568,-0.024738281965255737,5.974295139312744
1741274305.0884414,2.597519636154175,0.049476563930511475,5.974295139312744,-2.4985663890838623,-0.44528907537460327,6.970010757446289,2.2511837482452393,0.14842969179153442,5.073409557342529,-1.7316796779632568,-0.024738281965255737,6.02170991897583
1741274305.0903666,2.597519636154175,0.0,5.784635066986084,-2.449090003967285,-0.42055079340934753,6.875180721282959,2.226445436477661,0.12369140982627869,5.025994300842285,-1.8058946132659912,-0.049476563930511475,6.02170991897583
1741274305.0922735,2.597519636154175,0.0,5.879465103149414,-2.4985663890838623,-0.44528907537460327,6.875180721282959,2.201707124710083,0.12369140982627869,5.025994300842285,-1.8058946132659912,-0.049476563930511475,6.02170991897583
1741274305.0943713,2.646996259689331,0.0,5.879465103149414,-2.449090003967285,-0.42055079340934753,6.875180721282959,2.201707124710083,0.12369140982627869,5.073409557342529,-1.781156301498413,-0.024738281965255737,5.974295139312744
1741274305.0963004,2.67173433303833,-0.024738281965255737,5.879465103149414,-2.449090003967285,-0.42055079340934753,6.970010757446289,2.201707124710083,0.14842969179153442,5.025994300842285,-1.781156301498413,-0.049476563930511475,6.02170991897583
1741274305.0982585,2.646996259689331,0.0,5.879465103149414,-2.449090003967285,-0.44528907537460327,6.970010757446289,2.201707124710083,0.14842969179153442,5.025994300842285,-1.781156301498413,-0.024738281965255737,6.02170991897583
1741274305.1002965,2.646996259689331,-0.024738281965255737,5.879465103149414,-2.424351692199707,-0.42055079340934753,7.017426013946533,2.1522305011749268,0.12369140982627869,5.025994300842285,-1.880109429359436,-0.049476563930511475,6.02170991897583
1741274305.1022632,2.646996259689331,-0.049476563930511475,5.974295139312744,-2.449090003967285,-0.37107422947883606,6.970010757446289,2.201707124710083,0.07421484589576721,4.978579044342041,-1.8058946132659912,-0.049476563930511475,6.069125175476074
1741274305.1042538,2.646996259689331,0.0,6.02170991897583,-2.449090003967285,-0.42055079340934753,6.875180721282959,2.201707124710083,0.12369140982627869,5.025994300842285,-1.8058946132659912,-0.049476563930511475,6.02170991897583
1741274305.1062438,2.597519636154175,-0.024738281965255737,5.879465103149414,-2.449090003967285,-0.42055079340934753,6.875180721282959,2.201707124710083,0.12369140982627869,5.073409557342529,-1.781156301498413,-0.07421484589576721,6.02170991897583
1741274305.1082299,2.597519636154175,-0.024738281965255737,5.879465103149414,-2.4985663890838623,-0.42055079340934753,6.970010757446289,2.201707124710083,0.12369140982627869,5.025994300842285,-1.781156301498413,-0.024738281965255737,5.974295139312744
1741274305.110185,2.67173433303833,-0.024738281965255737,5.974295139312744,-2.449090003967285,-0.42055079340934753,6.970010757446289,2.226445436477661,0.07421484589576721,5.025994300842285,-1.7316796779632568,-0.049476563930511475,6.02170991897583
1741274305.1123931,2.67173433303833,-0.049476563930511475,6.02170991897583,-2.449090003967285,-0.42055079340934753,6.875180721282959,2.226445436477661,0.12369140982627869,4.883749008178711,-1.781156301498413,-0.024738281965255737,6.02170991897583
1741274305.114228,2.622257947921753,-0.049476563930511475,5.974295139312744,-2.4985663890838623,-0.42055079340934753,6.875180721282959,2.201707124710083,0.07421484589576721,4.978579044342041,-1.781156301498413,-0.049476563930511475,5.974295139312744
1741274305.1164463,2.67173433303833,-0.049476563930511475,5.974295139312744,-2.449090003967285,-0.42055079340934753,6.875180721282959,2.201707124710083,0.07421484589576721,4.978579044342041,-1.8058946132659912,-0.049476563930511475,5.974295139312744
1741274305.1183999,2.646996259689331,-0.049476563930511475,5.974295139312744,-2.4985663890838623,-0.42055079340934753,6.875180721282959,2.2511837482452393,0.12369140982627869,4.883749008178711,-1.8058946132659912,-0.049476563930511475,6.02170991897583
1741274305.1202595,2.67173433303833,-0.07421484589576721,5.83204984664917,-2.4985663890838623,-0.42055079340934753,7.017426013946533,2.1522305011749268,0.07421484589576721,5.025994300842285,-1.781156301498413,-0.07421484589576721,5.879465103149414
1741274305.1223059,2.67173433303833,-0.049476563930511475,5.974295139312744,-2.4985663890838623,-0.44528907537460327,6.970010757446289,2.201707124710083,0.07421484589576721,4.978579044342041,-1.8058946132659912,-0.049476563930511475,5.974295139312744
1741274305.1242647,2.622257947921753,-0.049476563930511475,5.974295139312744,-2.4985663890838623,-0.44528907537460327,6.875180721282959,2.201707124710083,0.12369140982627869,5.025994300842285,-1.6822031736373901,-0.049476563930511475,5.974295139312744
1741274305.12631,2.646996259689331,-0.049476563930511475,5.974295139312744,-2.5233047008514404,-0.44528907537460327,6.875180721282959,2.201707124710083,0.07421484589576721,5.073409557342529,-1.7316796779632568,-0.049476563930511475,5.974295139312744
1741274305.1284635,2.646996259689331,-0.049476563930511475,5.974295139312744,-2.4985663890838623,-0.44528907537460327,6.970010757446289,2.226445436477661,0.07421484589576721,4.978579044342041,-1.7316796779632568,-0.049476563930511475,5.974295139312744
1741274305.130281,2.597519636154175,-0.049476563930511475,5.974295139312744,-2.4985663890838623,-0.44528907537460327,6.875180721282959,2.226445436477661,0.07421484589576721,5.073409557342529,-1.7316796779632568,-0.07421484589576721,5.974295139312744
1741274305.1322944,2.646996259689331,-0.049476563930511475,5.83204984664917,-2.449090003967285,-0.44528907537460327,6.875180721282959,2.3006601333618164,0.07421484589576721,5.025994300842285,-1.781156301498413,-0.049476563930511475,5.879465103149414
1741274305.134313,2.622257947921753,-0.049476563930511475,5.879465103149414,-2.4985663890838623,-0.44528907537460327,7.017426013946533,2.201707124710083,0.07421484589576721,5.025994300842285,-1.7316796779632568,-0.049476563930511475,5.974295139312744
1741274305.1363842,2.646996259689331,-0.024738281965255737,5.879465103149414,-2.449090003967285,-0.44528907537460327,6.970010757446289,2.2511837482452393,0.07421484589576721,4.978579044342041,-1.7316796779632568,-0.024738281965255737,5.879465103149414
1741274305.138283,2.67173433303833,-0.07421484589576721,5.83204984664917,-2.4985663890838623,-0.42055079340934753,7.017426013946533,2.201707124710083,0.049476563930511475,4.978579044342041,-1.7316796779632568,-0.024738281965255737,5.974295139312744
1741274305.1401,2.622257947921753,-0.07421484589576721,5.879465103149414,-2.5233047008514404,-0.44528907537460327,6.875180721282959,2.201707124710083,0.07421484589576721,4.978579044342041,-1.7316796779632568,-0.024738281965255737,5.974295139312744
1741274305.1422386,2.646996259689331,-0.049476563930511475,5.879465103149414,-2.4985663890838623,-0.44528907537460327,6.875180721282959,2.2511837482452393,0.07421484589576721,5.025994300842285,-1.781156301498413,-0.049476563930511475,5.879465103149414
1741274305.1441813,2.646996259689331,-0.07421484589576721,5.879465103149414,-2.4985663890838623,-0.44528907537460327,6.970010757446289,2.2511837482452393,0.12369140982627869,4.883749008178711,-1.781156301498413,-0.049476563930511475,5.974295139312744
1741274305.1460757,2.646996259689331,-0.049476563930511475,5.974295139312744,-2.449090003967285,-0.44528907537460327,6.875180721282959,2.2511837482452393,0.07421484589576721,4.978579044342041,-1.781156301498413,-0.049476563930511475,5.879465103149414
1741274305.148269,2.646996259689331,-0.049476563930511475,5.879465103149414,-2.449090003967285,-0.470027357339859,6.875180721282959,2.201707124710083,0.12369140982627869,5.073409557342529,-1.781156301498413,-0.049476563930511475,6.02170991897583
1741274305.1502461,2.646996259689331,-0.049476563930511475,5.879465103149414,-2.4985663890838623,-0.44528907537460327,6.970010757446289,2.226445436477661,0.07421484589576721,5.073409557342529,-1.7316796779632568,-0.024738281965255737,5.974295139312744
1741274305.1524637,2.67173433303833,-0.07421484589576721,5.974295139312744,-2.449090003967285,-0.44528907537460327,6.970010757446289,2.1522305011749268,0.12369140982627869,4.883749008178711,-1.781156301498413,-0.024738281965255737,5.974295139312744
1741274305.1544557,2.646996259689331,-0.07421484589576721,5.879465103149414,-2.449090003967285,-0.470027357339859,6.875180721282959,2.201707124710083,0.12369140982627869,4.883749008178711,-1.781156301498413,-0.049476563930511475,5.879465103149414
1741274305.1563053,2.67173433303833,-0.049476563930511475,5.879465103149414,-2.4985663890838623,-0.470027357339859,6.875180721282959,2.1522305011749268,0.12369140982627869,4.978579044342041,-1.7316796779632568,-0.049476563930511475,5.974295139312744
1741274305.1584966,2.646996259689331,-0.049476563930511475,5.879465103149414,-2.4985663890838623,-0.44528907537460327,6.970010757446289,2.2511837482452393,0.07421484589576721,4.978579044342041,-1.7316796779632568,-0.07421484589576721,5.974295139312744
1741274305.160584,2.646996259689331,-0.07421484589576721,5.879465103149414,-2.449090003967285,-0.470027357339859,6.970010757446289,2.201707124710083,0.07421484589576721,5.025994300842285,-1.7316796779632568,-0.049476563930511475,5.974295139312744
1741274305.1623414,2.646996259689331,-0.049476563930511475,5.974295139312744,-2.449090003967285,-0.470027357339859,6.970010757446289,2.201707124710083,0.049476563930511475,5.025994300842285,-1.7316796779632568,-0.049476563930511475,5.974295139312744
1741274305.1643584,2.646996259689331,-0.07421484589576721,5.879465103149414,-2.4985663890838623,-0.470027357339859,6.970010757446289,2.226445436477661,0.049476563930511475,5.025994300842285,-1.781156301498413,-0.049476563930511475,5.974295139312744
1741274305.166338,2.646996259689331,-0.024738281965255737,5.974295139312744,-2.449090003967285,-0.470027357339859,6.875180721282959,2.201707124710083,0.07421484589576721,5.073409557342529,-1.781156301498413,-0.049476563930511475,5.879465103149414
1741274305.168313,2.646996259689331,-0.07421484589576721,5.879465103149414,-2.4985663890838623,-0.470027357339859,6.970010757446289,2.226445436477661,0.07421484589576721,4.978579044342041,-1.781156301498413,-0.024738281965255737,5.974295139312744
1741274305.1706338,2.622257947921753,-0.07421484589576721,5.974295139312744,-2.5233047008514404,-0.470027357339859,6.970010757446289,2.1522305011749268,0.14842969179153442,4.978579044342041,-1.781156301498413,-0.049476563930511475,5.974295139312744
1741274305.1723173,2.67173433303833,-0.12369140982627869,5.974295139312744,-2.4985663890838623,-0.44528907537460327,6.970010757446289,2.1522305011749268,0.07421484589576721,4.883749008178711,-1.781156301498413,-0.049476563930511475,5.879465103149414
1741274305.1746316,2.67173433303833,-0.12369140982627869,5.879465103149414,-2.4985663890838623,-0.42055079340934753,6.970010757446289,2.1274921894073486,0.07421484589576721,4.883749008178711,-1.8058946132659912,-0.07421484589576721,5.974295139312744
1741274305.1763341,2.67173433303833,-0.049476563930511475,5.974295139312744,-2.449090003967285,-0.470027357339859,6.970010757446289,2.2511837482452393,0.049476563930511475,4.978579044342041,-1.7316796779632568,-0.024738281965255737,5.974295139312744
1741274305.1784449,2.67173433303833,-0.12369140982627869,5.879465103149414,-2.449090003967285,-0.5195039510726929,6.970010757446289,2.1522305011749268,0.07421484589576721,4.883749008178711,-1.781156301498413,-0.049476563930511475,5.879465103149414
1741274305.1802258,2.67173433303833,-0.12369140982627869,5.879465103149414,-2.4985663890838623,-0.5195039510726929,6.875180721282959,2.201707124710083,0.024738281965255737,4.978579044342041,-1.781156301498413,-0.049476563930511475,5.879465103149414
1741274305.182271,2.7212109565734863,-0.12369140982627869,5.879465103149414,-2.449090003967285,-0.5195039510726929,7.017426013946533,2.201707124710083,0.049476563930511475,4.978579044342041,-1.781156301498413,-0.049476563930511475,5.879465103149414
1741274305.184246,2.67173433303833,-0.12369140982627869,5.879465103149414,-2.4985663890838623,-0.470027357339859,6.970010757446289,2.1274921894073486,0.024738281965255737,4.883749008178711,-1.781156301498413,-0.049476563930511475,5.879465103149414
1741274305.186447,2.67173433303833,-0.12369140982627869,5.879465103149414,-2.4985663890838623,-0.5442422032356262,7.017426013946533,2.1522305011749268,0.049476563930511475,4.883749008178711,-1.781156301498413,-0.07421484589576721,5.879465103149414
1741274305.188296,2.7212109565734863,-0.12369140982627869,5.879465103149414,-2.4985663890838623,-0.5195039510726929,7.017426013946533,2.1027538776397705,0.024738281965255737,4.978579044342041,-1.781156301498413,-0.07421484589576721,5.83204984664917
1741274305.1904044,2.7212109565734863,-0.14842969179153442,5.879465103149414,-2.4985663890838623,-0.5442422032356262,7.017426013946533,2.201707124710083,0.024738281965255737,4.883749008178711,-1.781156301498413,-0.024738281965255737,5.879465103149414
1741274305.1923552,2.67173433303833,-0.12369140982627869,5.784635066986084,-2.4985663890838623,-0.470027357339859,6.875180721282959,2.1274921894073486,0.049476563930511475,4.978579044342041,-1.781156301498413,-0.07421484589576721,5.879465103149414
1741274305.1942601,2.7706875801086426,-0.14842969179153442,5.879465103149414,-2.449090003967285,-0.5195039510726929,6.970010757446289,2.1274921894073486,0.024738281965255737,4.883749008178711,-1.781156301498413,-0.024738281965255737,5.879465103149414
1741274305.1965554,2.646996259689331,-0.12369140982627869,5.974295139312744,-2.4985663890838623,-0.5195039510726929,7.064840793609619,2.1522305011749268,0.0,4.883749008178711,-1.7316796779632568,-0.049476563930511475,5.879465103149414
1741274305.198476,2.646996259689331,-0.12369140982627869,6.02170991897583,-2.4985663890838623,-0.5195039510726929,6.970010757446289,2.1522305011749268,0.0,4.883749008178711,-1.7316796779632568,0.0,5.879465103149414
1741274305.2004046,2.7212109565734863,-0.12369140982627869,5.879465103149414,-2.4985663890838623,-0.5442422032356262,7.017426013946533,2.201707124710083,0.049476563930511475,4.883749008178711,-1.6822031736373901,-0.049476563930511475,5.879465103149414
1741274305.202454,2.646996259689331,-0.12369140982627869,5.974295139312744,-2.4985663890838623,-0.470027357339859,7.017426013946533,2.1522305011749268,0.024738281965255737,4.978579044342041,-1.7316796779632568,-0.12369140982627869,5.879465103149414
1741274305.2044117,2.646996259689331,-0.12369140982627869,5.974295139312744,-2.4985663890838623,-0.5195039510726929,6.970010757446289,2.226445436477661,0.024738281965255737,4.978579044342041,-1.781156301498413,-0.07421484589576721,5.879465103149414
1741274305.2063863,2.646996259689331,-0.12369140982627869,5.83204984664917,-2.449090003967285,-0.5195039510726929,6.970010757446289,2.201707124710083,0.024738281965255737,4.978579044342041,-1.7316796779632568,-0.07421484589576721,5.784635066986084
1741274305.2084496,2.67173433303833,-0.12369140982627869,5.974295139312744,-2.4985663890838623,-0.470027357339859,6.970010757446289,2.1522305011749268,0.049476563930511475,4.883749008178711,-1.8306329250335693,-0.07421484589576721,5.83204984664917
1741274305.2102087,2.7212109565734863,-0.14842969179153442,5.974295139312744,-2.4985663890838623,-0.5442422032356262,7.017426013946533,2.1522305011749268,0.024738281965255737,4.883749008178711,-1.781156301498413,-0.049476563930511475,5.879465103149414
1741274305.2123141,2.67173433303833,-0.14842969179153442,5.879465103149414,-2.4985663890838623,-0.5442422032356262,7.017426013946533,2.1522305011749268,0.049476563930511475,4.836334228515625,-1.7069414854049683,-0.07421484589576721,5.879465103149414
1741274305.2143304,2.7212109565734863,-0.17316797375679016,5.974295139312744,-2.4985663890838623,-0.5689804553985596,6.970010757446289,2.201707124710083,0.024738281965255737,4.836334228515625,-1.7069414854049683,-0.07421484589576721,5.879465103149414
1741274305.2162237,2.7212109565734863,-0.17316797375679016,5.83204984664917,-2.5480430126190186,-0.5689804553985596,6.970010757446289,2.1027538776397705,0.024738281965255737,4.883749008178711,-1.7316796779632568,-0.07421484589576721,5.784635066986084
1741274305.2183676,2.67173433303833,-0.17316797375679016,5.879465103149414,-2.4985663890838623,-0.5689804553985596,7.017426013946533,2.1522305011749268,0.024738281965255737,4.883749008178711,-1.6822031736373901,-0.12369140982627869,5.784635066986084
1741274305.2204785,2.67173433303833,-0.17316797375679016,5.879465103149414,-2.597519636154175,-0.5689804553985596,6.970010757446289,2.1522305011749268,0.0,4.836334228515625,-1.7069414854049683,-0.07421484589576721,5.784635066986084
1741274305.222355,2.67173433303833,-0.17316797375679016,5.83204984664917,-2.5480430126190186,-0.5689804553985596,6.970010757446289,2.201707124710083,0.024738281965255737,4.883749008178711,-1.7069414854049683,-0.17316797375679016,5.879465103149414
1741274305.2244298,2.646996259689331,-0.14842969179153442,5.974295139312744,-2.5233047008514404,-0.5689804553985596,7.017426013946533,2.226445436477661,0.0,4.883749008178711,-1.7069414854049683,-0.17316797375679016,5.784635066986084
1741274305.2264864,2.67173433303833,-0.17316797375679016,5.83204984664917,-2.4985663890838623,-0.5442422032356262,6.970010757446289,2.201707124710083,0.0,4.788918972015381,-1.7069414854049683,-0.14842969179153442,5.784635066986084
1741274305.2285016,2.67173433303833,-0.17316797375679016,5.83204984664917,-2.5480430126190186,-0.5689804553985596,6.970010757446289,2.201707124710083,0.024738281965255737,4.836334228515625,-1.6822031736373901,-0.14842969179153442,5.83204984664917
1741274305.2301533,2.67173433303833,-0.17316797375679016,5.879465103149414,-2.5233047008514404,-0.5442422032356262,7.017426013946533,2.1522305011749268,0.024738281965255737,4.836334228515625,-1.6822031736373901,-0.14842969179153442,5.784635066986084
1741274305.232159,2.7212109565734863,-0.12369140982627869,6.02170991897583,-2.5233047008514404,-0.5689804553985596,6.875180721282959,2.1522305011749268,0.024738281965255737,4.836334228515625,-1.6822031736373901,-0.14842969179153442,5.784635066986084
1741274305.234182,2.67173433303833,-0.17316797375679016,5.879465103149414,-2.5233047008514404,-0.5442422032356262,6.970010757446289,2.1522305011749268,0.0,4.788918972015381,-1.7069414854049683,-0.17316797375679016,5.83204984664917
1741274305.236441,2.67173433303833,-0.17316797375679016,5.974295139312744,-2.4985663890838623,-0.5689804553985596,7.017426013946533,2.1274921894073486,0.024738281965255737,4.788918972015381,-1.7316796779632568,-0.12369140982627869,5.879465103149414
1741274305.238687,2.67173433303833,-0.14842969179153442,5.83204984664917,-2.5233047008514404,-0.5442422032356262,7.017426013946533,2.1522305011749268,0.024738281965255737,4.788918972015381,-1.7069414854049683,-0.14842969179153442,5.83204984664917
1741274305.2408657,2.67173433303833,-0.17316797375679016,5.879465103149414,-2.5233047008514404,-0.5937187671661377,7.064840793609619,2.1522305011749268,0.0,4.836334228515625,-1.7316796779632568,-0.12369140982627869,5.879465103149414
1741274305.2427053,2.67173433303833,-0.12369140982627869,5.974295139312744,-2.5233047008514404,-0.5442422032356262,7.064840793609619,2.201707124710083,0.049476563930511475,4.836334228515625,-1.6822031736373901,-0.17316797375679016,5.784635066986084
1741274305.2445576,2.67173433303833,-0.17316797375679016,5.974295139312744,-2.5480430126190186,-0.5689804553985596,7.017426013946533,2.201707124710083,0.024738281965255737,4.836334228515625,-1.7069414854049683,-0.17316797375679016,5.83204984664917
1741274305.246323,2.646996259689331,-0.17316797375679016,5.879465103149414,-2.5233047008514404,-0.5689804553985596,7.017426013946533,2.201707124710083,0.0,4.883749008178711,-1.6822031736373901,-0.12369140982627869,5.784635066986084
1741274305.2483013,2.7212109565734863,-0.17316797375679016,5.879465103149414,-2.5233047008514404,-0.5442422032356262,7.017426013946533,2.201707124710083,0.0,4.788918972015381,-1.6822031736373901,-0.14842969179153442,5.83204984664917
1741274305.250252,2.7459492683410645,-0.14842969179153442,5.974295139312744,-2.449090003967285,-0.5442422032356262,7.064840793609619,2.1274921894073486,0.0,4.883749008178711,-1.7316796779632568,-0.14842969179153442,5.784635066986084
1741274305.2523222,2.67173433303833,-0.14842969179153442,5.83204984664917,-2.5233047008514404,-0.5689804553985596,6.970010757446289,2.1522305011749268,0.0,4.788918972015381,-1.7069414854049683,-0.17316797375679016,5.784635066986084
1741274305.2541819,2.7212109565734863,-0.17316797375679016,5.879465103149414,-2.449090003967285,-0.5442422032356262,6.970010757446289,2.1274921894073486,0.024738281965255737,4.788918972015381,-1.781156301498413,-0.12369140982627869,5.784635066986084
1741274305.2563486,2.7706875801086426,-0.17316797375679016,5.974295139312744,-2.4985663890838623,-0.5937187671661377,7.017426013946533,2.1027538776397705,0.024738281965255737,4.883749008178711,-1.781156301498413,-0.12369140982627869,5.83204984664917
1741274305.2583833,2.7706875801086426,-0.17316797375679016,5.974295139312744,-2.449090003967285,-0.5689804553985596,7.017426013946533,2.1027538776397705,0.024738281965255737,4.883749008178711,-1.7069414854049683,-0.14842969179153442,5.784635066986084
1741274305.2603824,2.7212109565734863,-0.17316797375679016,5.974295139312744,-2.4985663890838623,-0.5689804553985596,7.017426013946533,2.1274921894073486,0.024738281965255737,4.788918972015381,-1.7316796779632568,-0.07421484589576721,5.83204984664917
1741274305.2624972,2.67173433303833,-0.14842969179153442,5.974295139312744,-2.4985663890838623,-0.5689804553985596,7.064840793609619,2.1274921894073486,0.024738281965255737,4.788918972015381,-1.7069414854049683,-0.12369140982627869,5.784635066986084
1741274305.264457,2.7212109565734863,-0.17316797375679016,5.974295139312744,-2.449090003967285,-0.5689804553985596,6.970010757446289,2.1027538776397705,0.049476563930511475,4.788918972015381,-1.6822031736373901,-0.07421484589576721,5.879465103149414
1741274305.266304,2.7706875801086426,-0.17316797375679016,5.83204984664917,-2.449090003967285,-0.5937187671661377,7.017426013946533,2.1027538776397705,0.024738281965255737,4.883749008178711,-1.7316796779632568,-0.07421484589576721,5.83204984664917
1741274305.268463,2.7706875801086426,-0.17316797375679016,5.879465103149414,-2.449090003967285,-0.5937187671661377,7.017426013946533,2.0780158042907715,0.0,4.836334228515625,-1.7316796779632568,-0.12369140982627869,5.83204984664917
1741274305.2704124,2.67173433303833,-0.14842969179153442,5.83204984664917,-2.4985663890838623,-0.5689804553985596,7.017426013946533,2.1522305011749268,0.024738281965255737,4.788918972015381,-1.7316796779632568,-0.07421484589576721,5.784635066986084
1741274305.2722096,2.7459492683410645,-0.17316797375679016,5.83204984664917,-2.4985663890838623,-0.5689804553985596,7.112256050109863,2.1274921894073486,0.0,4.788918972015381,-1.7316796779632568,-0.14842969179153442,5.83204984664917
1741274305.2743049,2.7459492683410645,-0.14842969179153442,6.02170991897583,-2.4985663890838623,-0.5937187671661377,6.970010757446289,2.1027538776397705,0.0,4.788918972015381,-1.781156301498413,-0.14842969179153442,5.784635066986084
1741274305.2762926,2.7706875801086426,-0.17316797375679016,5.83204984664917,-2.4985663890838623,-0.5689804553985596,7.017426013946533,2.1274921894073486,0.0,4.788918972015381,-1.7069414854049683,-0.14842969179153442,5.83204984664917
1741274305.2786498,2.7212109565734863,-0.17316797375679016,5.974295139312744,-2.5233047008514404,-0.5689804553985596,7.017426013946533,2.1274921894073486,0.0,4.788918972015381,-1.781156301498413,-0.14842969179153442,5.784635066986084
1741274305.2803931,2.7212109565734863,-0.17316797375679016,5.974295139312744,-2.4985663890838623,-0.5689804553985596,7.112256050109863,2.1274921894073486,0.024738281965255737,4.883749008178711,-1.7316796779632568,-0.12369140982627869,5.784635066986084
1741274305.2824235,2.7212109565734863,-0.14842969179153442,5.974295139312744,-2.4985663890838623,-0.5689804553985596,6.970010757446289,2.1274921894073486,0.024738281965255737,4.788918972015381,-1.7069414854049683,-0.14842969179153442,5.784635066986084
1741274305.2843406,2.7212109565734863,-0.17316797375679016,5.879465103149414,-2.449090003967285,-0.5689804553985596,7.112256050109863,2.1274921894073486,0.0,4.883749008178711,-1.7316796779632568,-0.14842969179153442,5.784635066986084
1741274305.2863986,2.7459492683410645,-0.17316797375679016,5.974295139312744,-2.449090003967285,-0.5689804553985596,7.017426013946533,2.1274921894073486,0.024738281965255737,4.836334228515625,-1.7069414854049683,-0.14842969179153442,5.83204984664917
1741274305.2882307,2.7706875801086426,-0.24738281965255737,5.974295139312744,-2.4985663890838623,-0.5937187671661377,7.017426013946533,2.1274921894073486,0.024738281965255737,4.788918972015381,-1.7316796779632568,-0.17316797375679016,5.83204984664917
1741274305.2902412,2.7706875801086426,-0.17316797375679016,5.879465103149414,-2.449090003967285,-0.5689804553985596,7.017426013946533,2.0780158042907715,0.024738281965255737,4.883749008178711,-1.7069414854049683,-0.12369140982627869,5.83204984664917
1741274305.2922661,2.7706875801086426,-0.24738281965255737,6.02170991897583,-2.4985663890838623,-0.5689804553985596,7.017426013946533,2.1027538776397705,0.0,4.788918972015381,-1.7069414854049683,-0.17316797375679016,5.784635066986084
1741274305.2942085,2.7212109565734863,-0.24738281965255737,5.974295139312744,-2.4985663890838623,-0.5689804553985596,7.017426013946533,2.1274921894073486,0.024738281965255737,4.788918972015381,-1.7316796779632568,-0.12369140982627869,5.83204984664917
1741274305.2963192,2.7212109565734863,-0.24738281965255737,5.879465103149414,-2.5233047008514404,-0.6431953310966492,7.017426013946533,2.1522305011749268,0.0,4.788918972015381,-1.6822031736373901,-0.12369140982627869,5.83204984664917
1741274305.298318,2.7212109565734863,-0.17316797375679016,6.02170991897583,-2.4985663890838623,-0.5937187671661377,7.017426013946533,2.1274921894073486,0.024738281965255737,4.788918972015381,-1.781156301498413,-0.14842969179153442,5.784635066986084
1741274305.300677,2.7212109565734863,-0.17316797375679016,5.879465103149414,-2.4985663890838623,-0.5937187671661377,6.875180721282959,2.1274921894073486,0.0,4.788918972015381,-1.781156301498413,-0.17316797375679016,5.879465103149414
1741274305.3023596,2.7706875801086426,-0.17316797375679016,6.02170991897583,-2.5233047008514404,-0.6431953310966492,6.970010757446289,2.0780158042907715,0.049476563930511475,4.788918972015381,-1.7069414854049683,-0.12369140982627869,5.83204984664917
1741274305.3044672,2.7212109565734863,-0.17316797375679016,5.879465103149414,-2.5233047008514404,-0.5689804553985596,7.017426013946533,2.1274921894073486,0.024738281965255737,4.788918972015381,-1.7316796779632568,-0.12369140982627869,5.83204984664917
1741274305.3064077,2.7212109565734863,-0.17316797375679016,6.02170991897583,-2.5480430126190186,-0.5937187671661377,7.017426013946533,2.1522305011749268,-0.024738281965255737,4.836334228515625,-1.7069414854049683,-0.14842969179153442,5.784635066986084
1741274305.3086607,2.67173433303833,-0.17316797375679016,5.879465103149414,-2.5480430126190186,-0.5937187671661377,6.970010757446289,2.1274921894073486,0.0,4.788918972015381,-1.7316796779632568,-0.17316797375679016,5.784635066986084
1741274305.310571,2.67173433303833,-0.14842969179153442,5.974295139312744,-2.5480430126190186,-0.5442422032356262,7.017426013946533,2.201707124710083,0.024738281965255737,4.788918972015381,-1.7316796779632568,-0.12369140982627869,5.83204984664917
1741274305.312759,2.67173433303833,-0.22264453768730164,6.02170991897583,-2.5480430126190186,-0.5689804553985596,6.970010757446289,2.201707124710083,0.024738281965255737,4.788918972015381,-1.7316796779632568,-0.14842969179153442,5.784635066986084
1741274305.314696,2.646996259689331,-0.17316797375679016,6.02170991897583,-2.5480430126190186,-0.5689804553985596,7.017426013946533,2.1274921894073486,0.024738281965255737,4.788918972015381,-1.7069414854049683,-0.14842969179153442,5.784635066986084
1741274305.316825,2.646996259689331,-0.14842969179153442,6.02170991897583,-2.5480430126190186,-0.5937187671661377,6.970010757446289,2.1522305011749268,0.0,4.836334228515625,-1.7069414854049683,-0.14842969179153442,5.784635066986084
1741274305.318489,2.646996259689331,-0.12369140982627869,5.974295139312744,-2.597519636154175,-0.5937187671661377,7.017426013946533,2.1522305011749268,0.024738281965255737,4.883749008178711,-1.6822031736373901,-0.14842969179153442,5.879465103149414
1741274305.3204606,2.67173433303833,-0.17316797375679016,5.974295139312744,-2.597519636154175,-0.5937187671661377,7.017426013946533,2.1274921894073486,0.049476563930511475,4.788918972015381,-1.6822031736373901,-0.14842969179153442,5.879465103149414
1741274305.3228312,2.7212109565734863,-0.17316797375679016,6.02170991897583,-2.5480430126190186,-0.5937187671661377,6.970010757446289,2.1522305011749268,0.0,4.836334228515625,-1.6822031736373901,-0.17316797375679016,5.879465103149414
1741274305.3245873,2.67173433303833,-0.14842969179153442,5.879465103149414,-2.5233047008514404,-0.5937187671661377,6.970010757446289,2.1274921894073486,0.0,4.883749008178711,-1.7316796779632568,-0.12369140982627869,5.784635066986084
1741274305.3263388,2.67173433303833,-0.14842969179153442,5.974295139312744,-2.5233047008514404,-0.5937187671661377,7.017426013946533,2.201707124710083,0.049476563930511475,4.883749008178711,-1.7069414854049683,-0.14842969179153442,5.784635066986084
1741274305.3287427,2.67173433303833,-0.17316797375679016,6.02170991897583,-2.4985663890838623,-0.5937187671661377,7.017426013946533,2.1274921894073486,0.0,4.883749008178711,-1.7069414854049683,-0.12369140982627869,5.784635066986084
1741274305.3305602,2.67173433303833,-0.14842969179153442,5.974295139312744,-2.5480430126190186,-0.5689804553985596,6.970010757446289,2.201707124710083,0.0,4.883749008178711,-1.6822031736373901,-0.14842969179153442,5.83204984664917
1741274305.3322232,2.67173433303833,-0.17316797375679016,5.879465103149414,-2.597519636154175,-0.5937187671661377,6.970010757446289,2.201707124710083,0.0,4.788918972015381,-1.6822031736373901,-0.07421484589576721,5.83204984664917
1741274305.3345613,2.7212109565734863,-0.12369140982627869,5.974295139312744,-2.5233047008514404,-0.5937187671661377,7.064840793609619,2.1522305011749268,0.0,4.788918972015381,-1.7069414854049683,-0.12369140982627869,5.83204984664917
1741274305.33626,2.7212109565734863,-0.17316797375679016,5.974295139312744,-2.4985663890838623,-0.5689804553985596,7.112256050109863,2.1274921894073486,0.0,4.836334228515625,-1.7316796779632568,-0.14842969179153442,5.784635066986084
1741274305.338644,2.67173433303833,-0.14842969179153442,5.974295139312744,-2.4985663890838623,-0.5689804553985596,6.970010757446289,2.226445436477661,0.0,4.836334228515625,-1.7316796779632568,-0.12369140982627869,5.83204984664917
1741274305.3403215,2.7212109565734863,-0.12369140982627869,5.974295139312744,-2.4985663890838623,-0.5689804553985596,6.970010757446289,2.1274921894073486,0.024738281965255737,4.836334228515625,-1.6327266693115234,-0.07421484589576721,5.784635066986084
1741274305.342199,2.7459492683410645,-0.14842969179153442,5.974295139312744,-2.4985663890838623,-0.5689804553985596,7.064840793609619,2.1522305011749268,0.0,4.883749008178711,-1.7069414854049683,-0.12369140982627869,5.879465103149414
1741274305.3442647,2.67173433303833,-0.17316797375679016,5.879465103149414,-2.449090003967285,-0.5689804553985596,6.970010757446289,2.201707124710083,0.024738281965255737,4.883749008178711,-1.781156301498413,-0.14842969179153442,5.879465103149414
1741274305.3463788,2.7212109565734863,-0.14842969179153442,5.974295139312744,-2.4985663890838623,-0.5689804553985596,7.017426013946533,2.201707124710083,0.024738281965255737,4.883749008178711,-1.6822031736373901,-0.07421484589576721,5.879465103149414
1741274305.349211,2.7212109565734863,-0.22264453768730164,5.974295139312744,-2.4985663890838623,-0.5689804553985596,7.064840793609619,2.1522305011749268,0.024738281965255737,4.883749008178711,-1.7316796779632568,-0.07421484589576721,5.83204984664917
1741274305.3505406,2.7212109565734863,-0.17316797375679016,5.784635066986084,-2.449090003967285,-0.5689804553985596,7.064840793609619,2.1274921894073486,0.0,4.883749008178711,-1.781156301498413,-0.049476563930511475,5.784635066986084
1741274305.353371,2.67173433303833,-0.12369140982627869,5.974295139312744,-2.4985663890838623,-0.5442422032356262,7.064840793609619,2.1522305011749268,0.024738281965255737,4.788918972015381,-1.7316796779632568,-0.12369140982627869,5.879465103149414
1741274305.3548193,2.7212109565734863,-0.14842969179153442,5.974295139312744,-2.4985663890838623,-0.5442422032356262,7.017426013946533,2.1274921894073486,0.024738281965255737,4.836334228515625,-1.7069414854049683,-0.12369140982627869,5.879465103149414
1741274305.3564484,2.67173433303833,-0.14842969179153442,5.879465103149414,-2.4985663890838623,-0.5689804553985596,7.064840793609619,2.1274921894073486,0.0,4.836334228515625,-1.7069414854049683,-0.07421484589576721,5.974295139312744
1741274305.3583152,2.67173433303833,-0.14842969179153442,5.974295139312744,-2.424351692199707,-0.5689804553985596,7.064840793609619,2.201707124710083,0.0,4.788918972015381,-1.7316796779632568,-0.049476563930511475,5.879465103149414
1741274305.3602762,2.67173433303833,-0.14842969179153442,5.879465103149414,-2.5233047008514404,-0.5442422032356262,7.017426013946533,2.1274921894073486,0.024738281965255737,4.883749008178711,-1.781156301498413,-0.049476563930511475,5.974295139312744
1741274305.3624022,2.7212109565734863,-0.14842969179153442,6.02170991897583,-2.449090003967285,-0.5689804553985596,7.017426013946533,2.0780158042907715,0.024738281965255737,4.883749008178711,-1.7316796779632568,-0.07421484589576721,5.879465103149414
1741274305.364367,2.7212109565734863,-0.17316797375679016,5.974295139312744,-2.4985663890838623,-0.5689804553985596,7.112256050109863,2.1274921894073486,0.0,4.836334228515625,-1.7069414854049683,-0.07421484589576721,5.879465103149414
1741274305.3661642,2.7212109565734863,-0.17316797375679016,5.879465103149414,-2.4985663890838623,-0.5689804553985596,6.970010757446289,2.1522305011749268,0.024738281965255737,4.788918972015381,-1.7316796779632568,-0.07421484589576721,5.879465103149414
1741274305.3690083,2.7706875801086426,-0.17316797375679016,5.974295139312744,-2.424351692199707,-0.5689804553985596,7.017426013946533,2.1522305011749268,0.0,4.788918972015381,-1.7316796779632568,-0.12369140982627869,5.83204984664917
1741274305.3704138,2.7706875801086426,-0.17316797375679016,5.83204984664917,-2.449090003967285,-0.5689804553985596,7.017426013946533,2.0780158042907715,0.0,4.836334228515625,-1.7316796779632568,-0.049476563930511475,5.879465103149414
1741274305.3728905,2.7212109565734863,-0.17316797375679016,5.83204984664917,-2.449090003967285,-0.5689804553985596,7.017426013946533,2.1274921894073486,0.0,4.788918972015381,-1.7316796779632568,-0.07421484589576721,5.879465103149414
1741274305.37453,2.7212109565734863,-0.22264453768730164,5.974295139312744,-2.449090003967285,-0.5689804553985596,7.017426013946533,2.201707124710083,0.0,4.788918972015381,-1.7069414854049683,-0.07421484589576721,5.83204984664917
1741274305.3763735,2.67173433303833,-0.17316797375679016,5.974295139312744,-2.4985663890838623,-0.5442422032356262,7.064840793609619,2.1274921894073486,0.0,4.788918972015381,-1.6822031736373901,-0.07421484589576721,5.879465103149414
1741274305.378642,2.7212109565734863,-0.17316797375679016,5.879465103149414,-2.4985663890838623,-0.5442422032356262,7.017426013946533,2.1522305011749268,0.049476563930511475,4.788918972015381,-1.7069414854049683,-0.024738281965255737,5.879465103149414
1741274305.3804226,2.7212109565734863,-0.12369140982627869,5.974295139312744,-2.4985663890838623,-0.5689804553985596,7.017426013946533,2.1522305011749268,0.024738281965255737,4.788918972015381,-1.7069414854049683,-0.07421484589576721,5.879465103149414
1741274305.38244,2.7706875801086426,-0.17316797375679016,5.879465103149414,-2.4985663890838623,-0.5442422032356262,7.064840793609619,2.1522305011749268,0.024738281965255737,4.883749008178711,-1.7316796779632568,-0.12369140982627869,5.879465103149414
1741274305.3844576,2.7459492683410645,-0.17316797375679016,5.974295139312744,-2.4985663890838623,-0.5442422032356262,7.017426013946533,2.1522305011749268,-0.024738281965255737,4.788918972015381,-1.781156301498413,-0.12369140982627869,5.784635066986084
1741274305.38621,2.7706875801086426,-0.22264453768730164,5.974295139312744,-2.449090003967285,-0.5442422032356262,7.064840793609619,2.1274921894073486,0.024738281965255737,4.788918972015381,-1.781156301498413,-0.12369140982627869,5.879465103149414
1741274305.3885581,2.67173433303833,-0.14842969179153442,5.974295139312744,-2.5233047008514404,-0.5689804553985596,6.970010757446289,2.1522305011749268,0.049476563930511475,4.788918972015381,-1.7316796779632568,-0.12369140982627869,5.784635066986084
1741274305.3902779,2.67173433303833,-0.14842969179153442,5.83204984664917,-2.449090003967285,-0.5689804553985596,7.112256050109863,2.1274921894073486,0.024738281965255737,4.836334228515625,-1.781156301498413,-0.12369140982627869,5.784635066986084
1741274305.3924832,2.7212109565734863,-0.14842969179153442,5.879465103149414,-2.4985663890838623,-0.5689804553985596,7.064840793609619,2.1522305011749268,0.024738281965255737,4.788918972015381,-1.7316796779632568,-0.07421484589576721,5.784635066986084
1741274305.3945682,2.7459492683410645,-0.14842969179153442,5.879465103149414,-2.5233047008514404,-0.5689804553985596,7.112256050109863,2.1274921894073486,0.024738281965255737,4.788918972015381,-1.6822031736373901,-0.12369140982627869,5.784635066986084
1741274305.3962853,2.646996259689331,-0.17316797375679016,5.879465103149414,-2.4985663890838623,-0.5937187671661377,6.970010757446289,2.201707124710083,0.024738281965255737,4.836334228515625,-1.6822031736373901,-0.14842969179153442,5.784635066986084
1741274305.399029,2.7706875801086426,-0.17316797375679016,5.879465103149414,-2.5233047008514404,-0.5442422032356262,6.970010757446289,2.201707124710083,0.024738281965255737,4.788918972015381,-1.6327266693115234,-0.14842969179153442,5.784635066986084
1741274305.4004953,2.7212109565734863,-0.22264453768730164,5.879465103149414,-2.449090003967285,-0.5937187671661377,7.017426013946533,2.1522305011749268,0.024738281965255737,4.883749008178711,-1.6079883575439453,-0.14842969179153442,5.83204984664917
1741274305.4026096,2.67173433303833,-0.17316797375679016,5.974295139312744,-2.5233047008514404,-0.5937187671661377,7.064840793609619,2.1274921894073486,0.0,4.788918972015381,-1.7316796779632568,-0.12369140982627869,5.784635066986084
1741274305.404669,2.7212109565734863,-0.14842969179153442,5.974295139312744,-2.4985663890838623,-0.5689804553985596,6.970010757446289,2.1522305011749268,0.0,4.883749008178711,-1.6822031736373901,-0.14842969179153442,5.784635066986084
1741274305.4062772,2.646996259689331,-0.14842969179153442,5.879465103149414,-2.5233047008514404,-0.5442422032356262,6.970010757446289,2.201707124710083,0.0,4.788918972015381,-1.6327266693115234,-0.14842969179153442,5.83204984664917
1741274305.4086616,2.646996259689331,-0.14842969179153442,5.974295139312744,-2.5233047008514404,-0.5689804553985596,7.017426013946533,2.1522305011749268,0.024738281965255737,4.788918972015381,-1.7316796779632568,-0.12369140982627869,5.784635066986084
1741274305.410348,2.7706875801086426,-0.14842969179153442,5.879465103149414,-2.5233047008514404,-0.5689804553985596,6.875180721282959,2.1522305011749268,0.024738281965255737,4.883749008178711,-1.7069414854049683,-0.12369140982627869,5.784635066986084
1741274305.4125583,2.7212109565734863,-0.17316797375679016,5.83204984664917,-2.4985663890838623,-0.5689804553985596,7.017426013946533,2.1522305011749268,0.0,4.883749008178711,-1.7069414854049683,-0.12369140982627869,5.83204984664917
1741274305.4145432,2.67173433303833,-0.17316797375679016,5.879465103149414,-2.5233047008514404,-0.5689804553985596,6.970010757446289,2.1522305011749268,0.024738281965255737,4.788918972015381,-1.6822031736373901,-0.14842969179153442,5.83204984664917
1741274305.4162471,2.7212109565734863,-0.14842969179153442,5.974295139312744,-2.4985663890838623,-0.5689804553985596,6.970010757446289,2.1522305011749268,0.024738281965255737,4.883749008178711,-1.7316796779632568,-0.07421484589576721,5.83204984664917
1741274305.418632,2.67173433303833,-0.17316797375679016,5.879465103149414,-2.5480430126190186,-0.5689804553985596,6.970010757446289,2.1522305011749268,0.024738281965255737,4.788918972015381,-1.7316796779632568,-0.12369140982627869,5.879465103149414
1741274305.4204223,2.67173433303833,-0.14842969179153442,5.974295139312744,-2.5480430126190186,-0.5689804553985596,7.017426013946533,2.1522305011749268,0.024738281965255737,4.883749008178711,-1.7316796779632568,-0.049476563930511475,5.784635066986084
1741274305.4225209,2.646996259689331,-0.14842969179153442,5.974295139312744,-2.5233047008514404,-0.5689804553985596,7.064840793609619,2.201707124710083,0.024738281965255737,4.883749008178711,-1.6822031736373901,-0.14842969179153442,5.784635066986084
1741274305.4245658,2.646996259689331,-0.12369140982627869,5.974295139312744,-2.5233047008514404,-0.5689804553985596,6.970010757446289,2.201707124710083,0.024738281965255737,4.788918972015381,-1.7316796779632568,-0.14842969179153442,5.879465103149414
1741274305.4261298,2.7459492683410645,-0.14842969179153442,5.974295139312744,-2.4985663890838623,-0.5689804553985596,7.064840793609619,2.1274921894073486,0.049476563930511475,4.883749008178711,-1.7316796779632568,-0.12369140982627869,5.879465103149414
1741274305.4285092,2.67173433303833,-0.12369140982627869,5.974295139312744,-2.5233047008514404,-0.5442422032356262,7.064840793609619,2.201707124710083,0.024738281965255737,4.883749008178711,-1.781156301498413,-0.12369140982627869,5.974295139312744
1741274305.4301822,2.7706875801086426,-0.14842969179153442,5.879465103149414,-2.4985663890838623,-0.5442422032356262,7.017426013946533,2.201707124710083,0.024738281965255737,4.836334228515625,-1.7316796779632568,-0.12369140982627869,5.784635066986084
1741274305.432112,2.67173433303833,-0.17316797375679016,5.974295139312744,-2.449090003967285,-0.5442422032356262,7.017426013946533,2.1522305011749268,0.024738281965255737,4.836334228515625,-1.781156301498413,-0.024738281965255737,5.784635066986084
1741274305.4342897,2.7459492683410645,-0.12369140982627869,5.974295139312744,-2.5233047008514404,-0.5195039510726929,7.017426013946533,2.1274921894073486,0.049476563930511475,4.836334228515625,-1.8306329250335693,-0.049476563930511475,5.974295139312744
1741274305.436151,2.7212109565734863,-0.14842969179153442,5.784635066986084,-2.449090003967285,-0.5442422032356262,7.064840793609619,2.1522305011749268,0.024738281965255737,4.883749008178711,-1.7316796779632568,-0.024738281965255737,5.83204984664917
1741274305.4388137,2.7212109565734863,-0.17316797375679016,5.879465103149414,-2.449090003967285,-0.5195039510726929,7.017426013946533,2.1274921894073486,0.0,4.883749008178711,-1.781156301498413,-0.07421484589576721,5.974295139312744
1741274305.4404607,2.67173433303833,-0.17316797375679016,5.879465103149414,-2.4985663890838623,-0.5442422032356262,7.017426013946533,2.1274921894073486,0.0,4.883749008178711,-1.7069414854049683,-0.049476563930511475,5.784635066986084
1741274305.4430375,2.67173433303833,-0.14842969179153442,5.974295139312744,-2.4985663890838623,-0.5442422032356262,7.017426013946533,2.1522305011749268,0.024738281965255737,4.883749008178711,-1.7316796779632568,-0.024738281965255737,5.784635066986084
1741274305.444693,2.7706875801086426,-0.14842969179153442,5.974295139312744,-2.4985663890838623,-0.5195039510726929,7.064840793609619,2.1274921894073486,0.024738281965255737,4.883749008178711,-1.7316796779632568,-0.049476563930511475,5.974295139312744
1741274305.4463627,2.7459492683410645,-0.14842969179153442,5.974295139312744,-2.449090003967285,-0.5442422032356262,6.970010757446289,2.1522305011749268,0.024738281965255737,4.836334228515625,-1.7316796779632568,-0.07421484589576721,5.974295139312744
1741274305.4486518,2.7212109565734863,-0.14842969179153442,5.879465103149414,-2.4985663890838623,-0.5442422032356262,7.064840793609619,2.201707124710083,0.024738281965255737,4.836334228515625,-1.7316796779632568,-0.07421484589576721,5.974295139312744
1741274305.4503841,2.7212109565734863,-0.14842969179153442,5.879465103149414,-2.449090003967285,-0.5442422032356262,7.112256050109863,2.201707124710083,0.024738281965255737,4.836334228515625,-1.7316796779632568,-0.049476563930511475,5.879465103149414
1741274305.4525375,2.7212109565734863,-0.14842969179153442,5.879465103149414,-2.4985663890838623,-0.5442422032356262,7.064840793609619,2.1522305011749268,0.049476563930511475,4.788918972015381,-1.6822031736373901,-0.049476563930511475,5.974295139312744
1741274305.4545228,2.7459492683410645,-0.14842969179153442,5.974295139312744,-2.449090003967285,-0.5442422032356262,7.112256050109863,2.201707124710083,0.024738281965255737,4.788918972015381,-1.7316796779632568,-0.049476563930511475,5.879465103149414
1741274305.4562883,2.7212109565734863,-0.14842969179153442,5.974295139312744,-2.4985663890838623,-0.5195039510726929,7.064840793609619,2.1274921894073486,0.024738281965255737,4.836334228515625,-1.781156301498413,-0.024738281965255737,5.879465103149414
1741274305.4588387,2.7212109565734863,-0.14842969179153442,5.784635066986084,-2.449090003967285,-0.5195039510726929,7.064840793609619,2.201707124710083,0.024738281965255737,4.788918972015381,-1.781156301498413,-0.024738281965255737,6.02170991897583
1741274305.46119,2.7459492683410645,-0.17316797375679016,5.879465103149414,-2.424351692199707,-0.5195039510726929,7.064840793609619,2.1522305011749268,0.0,4.788918972015381,-1.7316796779632568,-0.024738281965255737,6.02170991897583
1741274305.462867,2.7706875801086426,-0.12369140982627869,5.879465103149414,-2.449090003967285,-0.5442422032356262,7.017426013946533,2.1274921894073486,0.024738281965255737,4.788918972015381,-1.781156301498413,-0.049476563930511475,5.974295139312744
1741274305.4647927,2.7212109565734863,-0.14842969179153442,5.974295139312744,-2.4985663890838623,-0.5195039510726929,7.064840793609619,2.1274921894073486,0.024738281965255737,4.836334228515625,-1.781156301498413,-0.049476563930511475,5.974295139312744
1741274305.4669876,2.7212109565734863,-0.17316797375679016,5.83204984664917,-2.4985663890838623,-0.5195039510726929,7.064840793609619,2.1274921894073486,0.0,4.836334228515625,-1.781156301498413,-0.049476563930511475,5.879465103149414
1741274305.4685931,2.7459492683410645,-0.14842969179153442,5.879465103149414,-2.449090003967285,-0.5195039510726929,7.017426013946533,2.1522305011749268,0.024738281965255737,4.836334228515625,-1.7316796779632568,-0.07421484589576721,5.879465103149414
1741274305.4702766,2.7459492683410645,-0.12369140982627869,5.974295139312744,-2.4985663890838623,-0.5689804553985596,6.970010757446289,2.2511837482452393,0.049476563930511475,4.788918972015381,-1.7069414854049683,-0.07421484589576721,5.879465103149414
1741274305.4726815,2.7459492683410645,-0.14842969179153442,5.879465103149414,-2.4985663890838623,-0.5442422032356262,7.064840793609619,2.2511837482452393,0.049476563930511475,4.883749008178711,-1.6822031736373901,-0.049476563930511475,5.879465103149414
1741274305.4742825,2.7706875801086426,-0.14842969179153442,5.879465103149414,-2.4985663890838623,-0.5195039510726929,7.064840793609619,2.1522305011749268,0.0,4.788918972015381,-1.781156301498413,-0.07421484589576721,5.974295139312744
1741274305.4766366,2.7706875801086426,-0.12369140982627869,6.02170991897583,-2.424351692199707,-0.5442422032356262,7.112256050109863,2.201707124710083,0.049476563930511475,4.883749008178711,-1.781156301498413,-0.049476563930511475,6.02170991897583
1741274305.480145,2.7706875801086426,-0.14842969179153442,6.02170991897583,-2.5233047008514404,-0.5442422032356262,7.112256050109863,2.201707124710083,0.049476563930511475,4.883749008178711,-1.781156301498413,-0.024738281965255737,6.02170991897583
1741274305.481305,2.7706875801086426,-0.14842969179153442,6.116540431976318,-2.5233047008514404,-0.5442422032356262,7.301916122436523,2.201707124710083,0.024738281965255737,5.025994300842285,-1.8058946132659912,-0.07421484589576721,6.069125175476074
1741274305.4826026,2.7706875801086426,-0.12369140982627869,6.258785247802734,-2.597519636154175,-0.5937187671661377,7.301916122436523,2.3006601333618164,0.049476563930511475,5.073409557342529,-1.7316796779632568,-0.12369140982627869,6.211370468139648
1741274305.4847424,2.7706875801086426,-0.14842969179153442,6.116540431976318,-2.5480430126190186,-0.5689804553985596,7.301916122436523,2.226445436477661,0.049476563930511475,5.073409557342529,-1.8058946132659912,-0.12369140982627869,6.258785247802734
1741274305.4869578,2.844902515411377,-0.14842969179153442,6.116540431976318,-2.597519636154175,-0.5689804553985596,7.2545013427734375,2.3253984451293945,0.049476563930511475,5.073409557342529,-1.8306329250335693,-0.07421484589576721,6.3062005043029785
1741274305.4886024,2.9191172122955322,-0.22264453768730164,6.4484453201293945,-2.597519636154175,-0.5689804553985596,7.491576194763184,2.3006601333618164,0.024738281965255737,5.310484409332275,-1.8306329250335693,-0.12369140982627869,6.4484453201293945
1741274305.4901998,2.9438555240631104,-0.17316797375679016,6.4484453201293945,-2.622257947921753,-0.5689804553985596,7.586406707763672,2.2511837482452393,0.024738281965255737,5.4053144454956055,-1.880109429359436,-0.07421484589576721,6.4484453201293945
1741274305.4925354,2.9191172122955322,-0.14842969179153442,6.495860576629639,-2.622257947921753,-0.5442422032356262,-0.3319052755832672,2.3501367568969727,0.024738281965255737,-2.086261749267578,-1.8306329250335693,-0.12369140982627869,6.495860576629639
1741274305.4955735,4.106554985046387,-0.7668867111206055,10.194233894348145,-0.37107422947883606,1.4100821018218994,-0.2844902276992798,0.3215976655483246,1.7069414854049683,-2.2759218215942383,-3.8096954822540283,-0.5689804553985596,9.577837944030762
1741274305.496245,4.106554985046387,-0.7668867111206055,10.194233894348145,-0.37107422947883606,1.4100821018218994,-1.896601676940918,0.3215976655483246,1.7069414854049683,-2.6078271865844727,-3.8096954822540283,-0.5689804553985596,9.625253677368164
1741274305.4985588,4.403414249420166,-0.8905781507492065,10.194233894348145,-0.6431953310966492,0.7916250228881836,-1.5172812938690186,0.6431953310966492,1.9295859336853027,-2.2285068035125732,-4.576581954956055,-0.5689804553985596,9.577837944030762
1741274305.5001423,4.799226760864258,-0.8905781507492065,10.478723526000977,-0.3463359475135803,1.0637460947036743,-2.086261749267578,0.3463359475135803,1.4595586061477661,-2.892317533493042,-4.799226760864258,-0.6431953310966492,9.67266845703125
1741274305.502438,4.799226760864258,-0.8658398389816284,10.62096881866455,-0.2721211016178131,1.4595586061477661,-2.2285068035125732,0.2721211016178131,1.3111289739608765,-2.6078271865844727,-4.89818000793457,-0.5195039510726929,9.814913749694824
1741274305.5041683,4.947656631469727,-0.7916250228881836,10.810628890991211,0.07421484589576721,1.9295859336853027,-2.2759218215942383,-0.024738281965255737,1.1132227182388306,-2.7026572227478027,-5.244515895843506,-0.5442422032356262,10.05198860168457
1741274305.5062766,5.244515895843506,-0.7668867111206055,11.047704696655273,0.3215976655483246,1.9295859336853027,-2.086261749267578,-0.22264453768730164,1.9295859336853027,-2.4655821323394775,-5.442421913146973,-0.44528907537460327,9.86232852935791
1741274305.5087457,5.34346866607666,-0.7668867111206055,11.047704696655273,0.470027357339859,1.9295859336853027,-2.6078271865844727,-0.2721211016178131,1.9295859336853027,-2.6078271865844727,-5.467160224914551,-0.44528907537460327,10.05198860168457
1741274305.510561,5.219777584075928,-0.8658398389816284,11.379610061645508,0.940054714679718,2.1274921894073486,-1.991431713104248,-0.6679335832595825,2.3006601333618164,-2.4181671142578125,-5.368206977844238,-0.5442422032356262,10.383893966674805
1741274305.5130491,5.120824337005615,-0.8411015868186951,11.616684913635254,1.1132227182388306,1.9048477411270142,-2.2285068035125732,-0.8658398389816284,2.424351692199707,-2.797487497329712,-5.34346866607666,-0.5689804553985596,10.62096881866455
1741274305.5155349,5.021871089935303,-0.7668867111206055,11.569270133972168,1.4100821018218994,2.1027538776397705,-2.987147569656372,-1.1626992225646973,2.2511837482452393,-3.2716376781463623,-5.244515895843506,-0.5937187671661377,10.668384552001953
1741274305.516686,5.120824337005615,-0.7916250228881836,11.616684913635254,1.5832500457763672,1.8306329250335693,-3.2242226600646973,-1.2616523504257202,1.781156301498413,-3.6983730792999268,-5.19503927230835,-0.5937187671661377,10.478723526000977
1741274305.5190828,5.120824337005615,-0.7668867111206055,11.379610061645508,1.6822031736373901,1.4842969179153442,-3.129392623901367,-1.3111289739608765,1.1132227182388306,-2.987147569656372,-5.219777584075928,-0.5442422032356262,10.573554039001465
1741274305.5202956,5.219777584075928,-0.7668867111206055,11.379610061645508,1.7069414854049683,1.4842969179153442,-3.129392623901367,-1.3111289739608765,1.1132227182388306,-2.987147569656372,-5.219777584075928,-0.5442422032356262,10.573554039001465
1741274305.5220783,5.120824337005615,-0.7916250228881836,11.427024841308594,1.781156301498413,0.940054714679718,-2.7026572227478027,-1.3111289739608765,1.5090352296829224,-2.6552422046661377,-5.269254207611084,-0.5195039510726929,10.763214111328125
1741274305.5242822,5.021871089935303,-0.6679335832595825,11.47443962097168,1.7316796779632568,0.5937187671661377,-2.4181671142578125,-1.6079883575439453,1.1132227182388306,-2.133676767349243,-5.219777584075928,-0.5195039510726929,10.858044624328613
1741274305.5261776,5.096086025238037,-0.6431953310966492,11.66409969329834,1.781156301498413,0.8411015868186951,-1.7069414854049683,-1.6822031736373901,1.2121758460998535,-2.2285068035125732,-5.120824337005615,-0.42055079340934753,10.952874183654785
1741274305.528583,5.145562648773193,-0.6679335832595825,11.66409969329834,1.8058946132659912,0.7916250228881836,-2.4181671142578125,-1.6327266693115234,1.2616523504257202,-2.4181671142578125,-5.145562648773193,-0.3215976655483246,11.000288963317871
1741274305.5307243,5.34346866607666,-0.5937187671661377,11.66409969329834,1.781156301498413,0.940054714679718,-1.7069414854049683,-1.6327266693115234,1.2863906621932983,-1.8017715215682983,-5.31873083114624,-0.2721211016178131,11.047704696655273
1741274305.5330272,5.269254207611084,-0.470027357339859,11.806344985961914,1.558511734008789,1.0884844064712524,-2.086261749267578,-1.6079883575439453,1.4595586061477661,-1.896601676940918,-5.31873083114624,-0.2721211016178131,11.000288963317871
1741274305.5346868,5.269254207611084,-0.470027357339859,11.806344985961914,1.558511734008789,1.1874375343322754,-2.5129971504211426,-1.6079883575439453,1.2863906621932983,-2.2759218215942383,-5.31873083114624,-0.3215976655483246,11.047704696655273
1741274305.5364397,5.34346866607666,-0.44528907537460327,11.853759765625,1.4842969179153442,0.7668867111206055,-1.896601676940918,-1.5090352296829224,0.8905781507492065,-1.896601676940918,-5.31873083114624,-0.24738281965255737,11.09511947631836
1741274305.5387032,5.31873083114624,-0.37107422947883606,11.853759765625,1.4842969179153442,0.7421484589576721,-1.7069414854049683,-1.558511734008789,0.5689804553985596,-1.7069414854049683,-5.31873083114624,-0.17316797375679016,11.047704696655273
1741274305.5404043,5.244515895843506,-0.3215976655483246,11.758930206298828,1.4100821018218994,1.0390079021453857,-1.5172812938690186,-1.4100821018218994,0.8658398389816284,-1.5172812938690186,-5.244515895843506,-0.14842969179153442,10.858044624328613
1741274305.5429482,5.219777584075928,-0.3215976655483246,11.853759765625,1.3853437900543213,1.3111289739608765,-1.8017715215682983,-1.3111289739608765,0.940054714679718,-1.8491865396499634,-5.120824337005615,-0.12369140982627869,11.000288963317871
1741274305.544768,5.269254207611084,-0.24738281965255737,11.948590278625488,1.3111289739608765,0.5937187671661377,-1.043130874633789,-1.2616523504257202,1.0390079021453857,-1.1379609107971191,-5.19503927230835,-0.049476563930511475,11.000288963317871
1741274305.546201,5.145562648773193,-0.22264453768730164,11.853759765625,1.3606054782867432,0.9647929668426514,-1.043130874633789,-1.1626992225646973,0.9647929668426514,-1.043130874633789,-5.145562648773193,0.024738281965255737,10.952874183654785
1741274305.5485814,5.096086025238037,-0.24738281965255737,11.948590278625488,1.1626992225646973,0.940054714679718,-0.8060556650161743,-1.2863906621932983,0.9895312786102295,-0.7112256288528442,-5.046609401702881,0.07421484589576721,10.858044624328613
1741274305.5503254,5.145562648773193,-0.24738281965255737,11.948590278625488,1.2121758460998535,0.5937187671661377,-1.2327910661697388,-1.3853437900543213,0.8411015868186951,-0.9008857607841492,-5.120824337005615,0.049476563930511475,10.810628890991211
1741274305.5525088,5.19503927230835,-0.07421484589576721,11.806344985961914,1.2121758460998535,0.8658398389816284,-0.8060556650161743,-1.3853437900543213,0.5195039510726929,-0.8534707427024841,-5.145562648773193,0.3215976655483246,11.047704696655273
1741274305.554378,5.120824337005615,-0.07421484589576721,11.616684913635254,1.1874375343322754,0.7421484589576721,-1.3276211023330688,-1.5090352296829224,0.7916250228881836,-0.6163955330848694,-5.120824337005615,0.3463359475135803,11.000288963317871
1741274305.5563946,5.096086025238037,0.0,11.66409969329834,1.0637460947036743,0.44528907537460327,-0.995715856552124,-1.4595586061477661,0.5195039510726929,-0.5215654373168945,-5.120824337005615,0.42055079340934753,10.858044624328613
1741274305.558502,5.096086025238037,0.049476563930511475,11.47443962097168,1.0637460947036743,0.37107422947883606,-0.4741504192352295,-1.4100821018218994,0.37107422947883606,-0.3319052755832672,-5.219777584075928,0.44528907537460327,10.810628890991211
1741274305.5603607,4.922918319702148,0.07421484589576721,11.47443962097168,1.0637460947036743,0.44528907537460327,-0.5215654373168945,-1.3853437900543213,0.3463359475135803,-0.23707520961761475,-5.219777584075928,0.42055079340934753,10.62096881866455
1741274305.5628397,4.922918319702148,0.07421484589576721,11.379610061645508,1.0637460947036743,0.5442422032356262,-0.6163955330848694,-1.3853437900543213,0.42055079340934753,-0.4741504192352295,-5.219777584075928,0.44528907537460327,10.763214111328125
1741274305.5645576,4.947656631469727,0.07421484589576721,11.237364768981934,1.1132227182388306,0.5937187671661377,-0.5215654373168945,-1.3606054782867432,0.6679335832595825,-0.3319052755832672,-5.19503927230835,0.5689804553985596,10.668384552001953
1741274305.5663314,4.947656631469727,0.12369140982627869,11.379610061645508,1.1132227182388306,0.37107422947883606,-0.04741504043340683,-1.3853437900543213,0.24738281965255737,-0.6638105511665344,-5.219777584075928,0.6679335832595825,10.62096881866455
1741274305.568827,4.89818000793457,0.12369140982627869,11.237364768981934,1.0637460947036743,0.22264453768730164,-0.09483008086681366,-1.2616523504257202,0.3463359475135803,-0.1422451138496399,-5.096086025238037,0.8905781507492065,10.478723526000977
1741274305.5712306,4.725011825561523,0.049476563930511475,11.189949989318848,1.0390079021453857,0.14842969179153442,0.3319052755832672,-1.2121758460998535,0.07421484589576721,0.0,-5.046609401702881,0.940054714679718,10.43130874633789
1741274305.5729153,4.799226760864258,0.024738281965255737,11.237364768981934,0.9647929668426514,0.14842969179153442,0.0,-1.1132227182388306,0.07421484589576721,-0.2844902276992798,-5.096086025238037,0.9647929668426514,10.43130874633789
1741274305.5746446,4.700273513793945,0.024738281965255737,11.09511947631836,0.8658398389816284,-0.14842969179153442,0.6638105511665344,-1.1626992225646973,0.0,0.1422451138496399,-5.046609401702881,0.9895312786102295,10.24164867401123
1741274305.5762372,4.725011825561523,0.049476563930511475,11.047704696655273,0.8411015868186951,0.0,0.3319052755832672,-1.1132227182388306,0.24738281965255737,0.3319052755832672,-5.120824337005615,0.940054714679718,10.194233894348145
1741274305.5788374,4.700273513793945,0.14842969179153442,11.09511947631836,0.8411015868186951,0.024738281965255737,1.090545892715454,-1.0637460947036743,0.07421484589576721,0.1422451138496399,-5.145562648773193,1.0390079021453857,10.099403381347656
1741274305.5804212,4.700273513793945,0.24738281965255737,11.000288963317871,0.7916250228881836,-0.07421484589576721,0.7112256288528442,-0.9895312786102295,-0.024738281965255737,0.4741504192352295,-5.046609401702881,1.0390079021453857,10.194233894348145
1741274305.582442,4.675535202026367,0.5442422032356262,10.952874183654785,0.7668867111206055,-0.07421484589576721,0.8060556650161743,-0.8411015868186951,-0.12369140982627869,0.6163955330848694,-5.046609401702881,1.2616523504257202,10.289063453674316
1741274305.5844028,4.675535202026367,0.5689804553985596,10.858044624328613,0.7916250228881836,-0.17316797375679016,1.2802060842514038,-0.8411015868186951,-0.24738281965255737,1.090545892715454,-4.922918319702148,1.2616523504257202,10.289063453674316
1741274305.5862362,4.725011825561523,0.6431953310966492,10.763214111328125,0.7421484589576721,-0.3215976655483246,1.2327910661697388,-0.7421484589576721,-0.17316797375679016,1.043130874633789,-4.848703384399414,1.3111289739608765,10.289063453674316
1741274305.5884645,4.700273513793945,0.5937187671661377,10.763214111328125,0.6679335832595825,-0.17316797375679016,1.6595264673233032,-0.7916250228881836,-0.24738281965255737,1.7069414854049683,-4.848703384399414,1.3853437900543213,10.24164867401123
1741274305.5902333,4.675535202026367,0.5937187671661377,10.763214111328125,0.6431953310966492,-0.17316797375679016,1.5172812938690186,-0.6926718950271606,-0.24738281965255737,1.2802060842514038,-4.89818000793457,1.4100821018218994,10.289063453674316
1741274305.5925155,4.700273513793945,0.6679335832595825,10.763214111328125,0.5689804553985596,-0.6679335832595825,1.8491865396499634,-0.6926718950271606,-0.5689804553985596,1.2802060842514038,-4.89818000793457,1.5090352296829224,10.194233894348145
1741274305.5944514,4.725011825561523,0.7668867111206055,10.763214111328125,0.44528907537460327,-0.9895312786102295,1.991431713104248,-0.6679335832595825,-0.7421484589576721,1.5172812938690186,-4.823965072631836,1.4842969179153442,10.194233894348145
1741274305.5968382,4.725011825561523,0.6926718950271606,10.668384552001953,0.44528907537460327,-0.6926718950271606,1.8017715215682983,-0.5689804553985596,-0.6679335832595825,1.6595264673233032,-4.848703384399414,1.5090352296829224,10.194233894348145
1741274305.598821,4.675535202026367,0.7916250228881836,10.763214111328125,0.42055079340934753,-0.9647929668426514,2.038846731185913,-0.5195039510726929,-1.0637460947036743,1.991431713104248,-4.749750137329102,1.5832500457763672,10.194233894348145
1741274305.6005244,4.725011825561523,0.8658398389816284,10.763214111328125,0.3215976655483246,-0.6926718950271606,2.2285068035125732,-0.42055079340934753,-0.7916250228881836,2.133676767349243,-4.823965072631836,1.6079883575439453,10.194233894348145
1741274305.602836,4.749750137329102,0.8658398389816284,10.763214111328125,0.3215976655483246,-0.8905781507492065,1.7069414854049683,-0.42055079340934753,-0.940054714679718,1.5172812938690186,-4.823965072631836,1.6327266693115234,10.099403381347656
1741274305.6044452,4.700273513793945,0.9647929668426514,10.810628890991211,0.3463359475135803,-0.9647929668426514,1.991431713104248,-0.42055079340934753,-0.940054714679718,1.8017715215682983,-4.823965072631836,1.7069414854049683,10.194233894348145
1741274305.6062841,4.749750137329102,0.9647929668426514,10.810628890991211,0.3215976655483246,-0.9647929668426514,2.2285068035125732,-0.42055079340934753,-0.9647929668426514,2.2285068035125732,-4.799226760864258,1.781156301498413,10.24164867401123
1741274305.608804,4.675535202026367,0.940054714679718,10.810628890991211,0.3215976655483246,-1.0884844064712524,2.4181671142578125,-0.44528907537460327,-0.940054714679718,2.2759218215942383,-4.749750137329102,1.781156301498413,10.289063453674316
1741274305.6103227,4.725011825561523,1.0637460947036743,10.858044624328613,0.2721211016178131,-0.9647929668426514,2.6078271865844727,-0.37107422947883606,-0.940054714679718,2.4655821323394775,-4.725011825561523,1.781156301498413,10.289063453674316
1741274305.6127114,4.823965072631836,1.3853437900543213,10.858044624328613,0.2721211016178131,-0.9647929668426514,2.086261749267578,-0.42055079340934753,-0.7916250228881836,2.4181671142578125,-4.749750137329102,1.781156301498413,10.810628890991211
1741274305.6145656,4.823965072631836,1.3606054782867432,11.000288963317871,0.3215976655483246,-0.9647929668426514,2.4181671142578125,-0.44528907537460327,-0.8905781507492065,2.2759218215942383,-4.799226760864258,2.201707124710083,10.810628890991211
1741274305.6163363,4.848703384399414,1.3853437900543213,10.858044624328613,0.3215976655483246,-0.8905781507492065,2.038846731185913,-0.470027357339859,-0.9647929668426514,2.038846731185913,-4.823965072631836,2.201707124710083,10.952874183654785
1741274305.618562,4.848703384399414,1.3853437900543213,10.858044624328613,0.3463359475135803,-0.9647929668426514,2.133676767349243,-0.470027357339859,-1.0390079021453857,2.086261749267578,-4.799226760864258,2.201707124710083,11.000288963317871
1741274305.6203628,4.922918319702148,1.5090352296829224,10.952874183654785,0.42055079340934753,-1.0390079021453857,2.133676767349243,-0.5442422032356262,-1.0637460947036743,2.2759218215942383,-4.823965072631836,2.3006601333618164,11.237364768981934
1741274305.6226885,4.922918319702148,1.5832500457763672,10.952874183654785,0.44528907537460327,-1.0390079021453857,2.086261749267578,-0.5442422032356262,-1.0390079021453857,2.2285068035125732,-4.947656631469727,2.2511837482452393,11.09511947631836
1741274305.6245081,4.997132778167725,1.5832500457763672,11.000288963317871,0.5195039510726929,-0.940054714679718,1.991431713104248,-0.5442422032356262,-0.8658398389816284,2.133676767349243,-4.947656631469727,2.2511837482452393,11.09511947631836
1741274305.6262562,4.997132778167725,1.5090352296829224,11.047704696655273,0.5195039510726929,-0.9895312786102295,2.133676767349243,-0.5442422032356262,-0.8658398389816284,2.133676767349243,-4.947656631469727,2.2511837482452393,11.09511947631836
1741274305.6284773,5.046609401702881,1.5090352296829224,11.000288963317871,0.6431953310966492,-0.940054714679718,2.2285068035125732,-0.6431953310966492,-0.8411015868186951,2.2285068035125732,-5.021871089935303,2.201707124710083,11.28477954864502
1741274305.6303294,5.046609401702881,1.4595586061477661,11.047704696655273,0.5689804553985596,-0.6679335832595825,2.5129971504211426,-0.6431953310966492,-0.8905781507492065,2.3233370780944824,-5.096086025238037,2.1522305011749268,11.28477954864502
1741274305.6325462,5.021871089935303,1.4595586061477661,11.09511947631836,0.6431953310966492,-0.6679335832595825,2.4655821323394775,-0.6679335832595825,-0.8905781507492065,2.2759218215942383,-5.046609401702881,2.1522305011749268,11.28477954864502
1741274305.6343355,5.021871089935303,1.4100821018218994,11.237364768981934,0.7421484589576721,-0.8905781507492065,2.2759218215942383,-0.7668867111206055,-0.6431953310966492,2.2759218215942383,-5.021871089935303,2.1274921894073486,11.379610061645508
1741274305.6363554,5.046609401702881,1.3853437900543213,11.000288963317871,0.7668867111206055,-0.7421484589576721,2.5129971504211426,-0.6431953310966492,-0.5689804553985596,2.4655821323394775,-5.021871089935303,2.1274921894073486,11.47443962097168
1741274305.6388533,5.046609401702881,1.3853437900543213,11.09511947631836,0.7668867111206055,-0.5195039510726929,2.7026572227478027,-0.7421484589576721,-0.5689804553985596,2.6552422046661377,-5.046609401702881,2.1274921894073486,11.427024841308594
1741274305.6404362,5.046609401702881,1.3606054782867432,11.189949989318848,0.7421484589576721,-0.5195039510726929,2.6552422046661377,-0.6926718950271606,-0.470027357339859,2.6078271865844727,-5.046609401702881,2.1027538776397705,11.427024841308594
1741274305.6428468,5.34346866607666,2.0285391807556152,11.189949989318848,0.7916250228881836,-0.049476563930511475,2.4655821323394775,-0.6926718950271606,-0.3463359475135803,2.6552422046661377,-4.947656631469727,2.1027538776397705,11.569270133972168
1741274305.6444318,5.368206977844238,1.880109429359436,11.047704696655273,0.8658398389816284,-0.2721211016178131,2.2285068035125732,-0.8905781507492065,-0.42055079340934753,2.2285068035125732,-5.021871089935303,2.7212109565734863,12.422740936279297
1741274305.646317,5.31873083114624,1.979062557220459,11.047704696655273,0.7916250228881836,-0.12369140982627869,2.2285068035125732,-0.940054714679718,-0.2721211016178131,2.2285068035125732,-4.997132778167725,2.7459492683410645,12.422740936279297
1741274305.6489124,5.34346866607666,2.0780158042907715,11.189949989318848,0.8658398389816284,-0.22264453768730164,2.133676767349243,-0.9647929668426514,-0.22264453768730164,1.991431713104248,-4.997132778167725,2.844902515411377,12.802061080932617
1741274305.6503093,5.31873083114624,2.201707124710083,11.09511947631836,0.940054714679718,-0.14842969179153442,2.4655821323394775,-0.9895312786102295,-0.12369140982627869,2.4181671142578125,-5.021871089935303,2.869640827178955,12.802061080932617
1741274305.6526892,5.4176836013793945,2.226445436477661,11.047704696655273,1.0637460947036743,-0.3463359475135803,1.991431713104248,-1.0884844064712524,-0.24738281965255737,2.038846731185913,-5.021871089935303,2.9191172122955322,12.754646301269531
1741274305.6545548,5.4176836013793945,2.2511837482452393,11.189949989318848,1.0637460947036743,-0.44528907537460327,1.8491865396499634,-1.0884844064712524,-0.2721211016178131,2.086261749267578,-5.021871089935303,2.869640827178955,12.470155715942383
1741274305.6569045,5.442421913146973,2.1522305011749268,11.047704696655273,1.1132227182388306,-0.37107422947883606,1.8491865396499634,-1.1132227182388306,-0.3215976655483246,2.038846731185913,-5.046609401702881,2.7706875801086426,12.564985275268555
1741274305.6587002,5.442421913146973,2.1522305011749268,11.047704696655273,1.0884844064712524,-0.12369140982627869,1.896601676940918,-1.0637460947036743,-0.3215976655483246,2.4181671142578125,-4.997132778167725,2.844902515411377,12.612401008605957
1741274305.660349,5.442421913146973,2.1274921894073486,11.047704696655273,1.0637460947036743,-0.07421484589576721,2.038846731185913,-0.9895312786102295,-0.3463359475135803,1.8491865396499634,-5.046609401702881,2.7459492683410645,12.659815788269043
1741274305.662843,5.442421913146973,1.979062557220459,11.047704696655273,1.1132227182388306,-0.3215976655483246,1.8491865396499634,-1.1132227182388306,-0.049476563930511475,2.038846731185913,-5.021871089935303,2.7459492683410645,12.612401008605957
1741274305.6644692,5.4176836013793945,1.979062557220459,11.000288963317871,1.1132227182388306,-0.24738281965255737,2.038846731185913,-1.1132227182388306,-0.22264453768730164,2.086261749267578,-5.021871089935303,2.7212109565734863,12.612401008605957
1741274305.6663465,5.516636848449707,2.003800868988037,11.000288963317871,1.1132227182388306,0.049476563930511475,2.038846731185913,-1.1626992225646973,-0.22264453768730164,1.6121113300323486,-4.922918319702148,2.7212109565734863,12.612401008605957
1741274305.668422,5.516636848449707,1.979062557220459,11.047704696655273,1.1874375343322754,0.24738281965255737,1.7069414854049683,-1.2121758460998535,-0.42055079340934753,1.3276211023330688,-4.997132778167725,2.7212109565734863,12.612401008605957
1741274305.6701937,5.516636848449707,2.003800868988037,11.000288963317871,1.1874375343322754,0.2721211016178131,1.5172812938690186,-1.2616523504257202,-0.3463359475135803,1.6121113300323486,-4.997132778167725,2.7212109565734863,12.612401008605957
1741274305.672377,5.566113471984863,2.003800868988037,10.289063453674316,1.1626992225646973,0.07421484589576721,1.4224512577056885,-1.2121758460998535,0.12369140982627869,1.4698662757873535,-4.997132778167725,4.329199314117432,14.034852027893066
1741274305.6743317,5.096086025238037,1.3606054782867432,10.194233894348145,1.1874375343322754,0.12369140982627869,1.3276211023330688,-1.2121758460998535,0.12369140982627869,1.4224512577056885,-4.279722690582275,4.205507755279541,14.082266807556152
1741274305.6761293,5.096086025238037,1.4595586061477661,10.05198860168457,1.2616523504257202,0.470027357339859,1.8017715215682983,-1.2121758460998535,0.22264453768730164,1.4224512577056885,-4.230246067047119,4.329199314117432,14.224512100219727
1741274305.67864,5.096086025238037,1.4595586061477661,10.099403381347656,1.2616523504257202,0.2721211016178131,1.6121113300323486,-1.3111289739608765,0.12369140982627869,1.2802060842514038,-4.081816673278809,4.576581954956055,14.3667573928833
1741274305.6802619,4.922918319702148,1.1874375343322754,9.86232852935791,1.1874375343322754,0.22264453768730164,1.2327910661697388,-1.3111289739608765,0.3215976655483246,1.090545892715454,-3.9086484909057617,4.848703384399414,14.414172172546387
1741274305.6826212,4.89818000793457,1.0884844064712524,10.004573822021484,1.1874375343322754,0.07421484589576721,1.6121113300323486,-1.3853437900543213,0.3215976655483246,1.090545892715454,-4.0570783615112305,4.848703384399414,14.414172172546387
1741274305.68431,4.823965072631836,1.0390079021453857,10.05198860168457,1.1626992225646973,0.07421484589576721,1.6121113300323486,-1.3606054782867432,0.22264453768730164,1.7069414854049683,-4.0570783615112305,4.823965072631836,14.224512100219727
1741274305.686215,4.823965072631836,0.9895312786102295,10.099403381347656,1.0884844064712524,0.17316797375679016,1.2802060842514038,-1.3111289739608765,0.12369140982627869,1.2327910661697388,-4.0570783615112305,4.700273513793945,14.17709732055664
1741274305.6886108,4.799226760864258,0.9647929668426514,9.86232852935791,1.1626992225646973,0.3215976655483246,0.9008857607841492,-1.2863906621932983,0.24738281965255737,1.1379609107971191,-3.9086484909057617,4.527105808258057,14.17709732055664
1741274305.6903787,4.89818000793457,0.9647929668426514,9.957158088684082,1.0884844064712524,0.22264453768730164,0.8534707427024841,-1.2616523504257202,0.42055079340934753,1.4698662757873535,-3.8591718673706055,4.4776291847229,14.271926879882812
1741274305.6928494,4.823965072631836,0.940054714679718,9.86232852935791,1.1626992225646973,0.0,0.8534707427024841,-1.1626992225646973,0.37107422947883606,1.6121113300323486,-3.8591718673706055,4.428152561187744,14.271926879882812
1741274305.694669,4.89818000793457,0.940054714679718,9.957158088684082,1.0884844064712524,0.049476563930511475,1.6121113300323486,-1.2121758460998535,0.44528907537460327,0.6638105511665344,-3.9086484909057617,4.403414249420166,14.3667573928833
1741274305.6963935,4.848703384399414,0.8905781507492065,9.957158088684082,1.1626992225646973,0.2721211016178131,1.2802060842514038,-1.2863906621932983,0.5689804553985596,1.3276211023330688,-3.8096954822540283,4.428152561187744,14.224512100219727
1741274305.6990297,4.922918319702148,0.8411015868186951,10.004573822021484,1.0884844064712524,0.22264453768730164,0.995715856552124,-1.2863906621932983,0.5195039510726929,1.5172812938690186,-3.8591718673706055,4.428152561187744,14.3667573928833
1741274305.7003384,4.848703384399414,0.7668867111206055,9.957158088684082,1.1132227182388306,0.049476563930511475,1.043130874633789,-1.2863906621932983,0.5937187671661377,1.5172812938690186,-3.8839101791381836,4.378675937652588,14.3667573928833
1741274305.7028658,4.997132778167725,1.3606054782867432,9.056272506713867,1.1132227182388306,0.049476563930511475,0.9008857607841492,-1.2863906621932983,1.1874375343322754,1.2802060842514038,-2.646996259689331,4.378675937652588,14.271926879882812
1741274305.7045228,4.576581954956055,1.1132227182388306,9.056272506713867,1.2121758460998535,0.5937187671661377,0.7112256288528442,-1.3606054782867432,0.6926718950271606,1.2802060842514038,-2.9685938358306885,7.3967461585998535,17.259075164794922
1741274305.7064776,4.725011825561523,1.1626992225646973,8.866612434387207,1.1874375343322754,0.8905781507492065,1.043130874633789,-1.3111289739608765,0.8905781507492065,0.8534707427024841,-2.9191172122955322,7.693605899810791,17.353904724121094
1741274305.7082686,4.527105808258057,1.2863906621932983,8.819197654724121,1.1874375343322754,0.5442422032356262,0.4741504192352295,-1.3111289739608765,0.9647929668426514,1.090545892715454,-2.646996259689331,7.718343734741211,17.733224868774414
1741274305.7105567,4.428152561187744,1.2863906621932983,8.676952362060547,1.2121758460998535,0.6926718950271606,0.2844902276992798,-1.3853437900543213,1.3853437900543213,0.7112256288528442,-2.597519636154175,7.940988540649414,17.970300674438477
1741274305.7124348,4.279722690582275,1.1626992225646973,8.771782875061035,1.2121758460998535,0.8411015868186951,0.2844902276992798,-1.3853437900543213,1.2121758460998535,0.995715856552124,-2.5233047008514404,8.485230445861816,18.349620819091797
1741274305.714582,4.378675937652588,1.0884844064712524,8.676952362060547,1.1626992225646973,0.8411015868186951,0.6638105511665344,-1.4100821018218994,0.7668867111206055,0.8534707427024841,-2.597519636154175,8.683136940002441,18.44445037841797
1741274305.7171052,4.329199314117432,1.0884844064712524,8.819197654724121,1.0637460947036743,0.2721211016178131,0.7112256288528442,-1.3853437900543213,0.5689804553985596,0.9008857607841492,-2.5233047008514404,8.658398628234863,18.397035598754883
1741274305.7187238,4.403414249420166,0.9647929668426514,8.771782875061035,1.1132227182388306,0.5442422032356262,0.3319052755832672,-1.2616523504257202,0.3463359475135803,0.5215654373168945,-2.7212109565734863,8.163633346557617,18.15995979309082
1741274305.7204795,4.279722690582275,0.8905781507492065,8.819197654724121,1.2121758460998535,0.5195039510726929,0.23707520961761475,-1.1132227182388306,0.3463359475135803,0.6163955330848694,-2.646996259689331,8.064680099487305,18.06513023376465
1741274305.7227957,4.3044610023498535,0.8411015868186951,8.866612434387207,1.3606054782867432,0.14842969179153442,1.1379609107971191,-1.0884844064712524,0.5937187671661377,0.4741504192352295,-2.5480430126190186,8.039941787719727,18.15995979309082
1741274305.7247553,4.205507755279541,0.5689804553985596,8.629537582397461,0.9895312786102295,-0.14842969179153442,5.974295139312744,-0.940054714679718,0.6431953310966492,0.2844902276992798,-2.3253984451293945,8.064680099487305,18.397035598754883
1741274305.7266004,4.205507755279541,0.5689804553985596,8.819197654724121,0.8411015868186951,0.22264453768730164,5.974295139312744,-0.7916250228881836,0.470027357339859,0.1422451138496399,-2.3501367568969727,7.86677360534668,18.397035598754883
1741274305.7285914,4.601320266723633,0.44528907537460327,8.771782875061035,0.7916250228881836,1.6079883575439453,5.4053144454956055,-0.6431953310966492,0.3215976655483246,1.1379609107971191,-2.0780158042907715,7.940988540649414,18.207374572753906
1741274305.7305787,4.749750137329102,1.0390079021453857,9.056272506713867,0.8658398389816284,1.880109429359436,5.5001444816589355,-0.37107422947883606,-0.14842969179153442,3.982863426208496,-2.201707124710083,7.718343734741211,18.06513023376465
1741274305.7326543,1.4842969179153442,1.0390079021453857,0.9008857607841492,0.14842969179153442,1.0884844064712524,7.776066780090332,0.12369140982627869,-0.5689804553985596,7.444161415100098,-0.22264453768730164,3.3644063472747803,9.767498016357422
1741274305.7343533,1.9048477411270142,1.4595586061477661,-0.9008857607841492,1.7316796779632568,-0.7668867111206055,7.2545013427734375,0.17316797375679016,-1.2616523504257202,8.676952362060547,-0.470027357339859,4.403414249420166,1.8491865396499634
1741274305.7362301,1.2121758460998535,2.1522305011749268,-1.3276211023330688,1.2121758460998535,-0.9895312786102295,7.491576194763184,0.3215976655483246,-2.226445436477661,12.090835571289062,-0.6431953310966492,3.8839101791381836,0.8534707427024841
1741274305.7386394,0.7668867111206055,2.646996259689331,-2.2759218215942383,0.3215976655483246,-2.1274921894073486,8.107972145080566,0.9647929668426514,-4.3044610023498535,13.655531883239746,-0.37107422947883606,3.3891446590423584,0.4741504192352295
1741274305.7402112,0.42055079340934753,2.226445436477661,-2.086261749267578,0.2721211016178131,-2.7459492683410645,8.297632217407227,1.1132227182388306,-4.89818000793457,13.608116149902344,-0.22264453768730164,2.3253984451293945,0.23707520961761475
1741274305.7424896,0.14842969179153442,2.67173433303833,-2.2285068035125732,0.22264453768730164,0.14842969179153442,8.961442947387695,0.6926718950271606,4.848703384399414,12.280495643615723,0.22264453768730164,2.622257947921753,-0.4741504192352295
1741274305.7445676,-0.2721211016178131,2.7706875801086426,-2.4181671142578125,-3.1912384033203125,0.17316797375679016,8.819197654724121,1.4595586061477661,3.1912384033203125,17.211660385131836,1.3606054782867432,1.781156301498413,-0.6638105511665344
1741274305.7463465,-0.5442422032356262,2.869640827178955,-2.2285068035125732,-1.8058946132659912,0.3463359475135803,8.582121849060059,0.6431953310966492,3.4633593559265137,17.02199935913086,1.781156301498413,2.449090003967285,-0.8060556650161743
1741274305.7485478,-0.6679335832595825,2.7212109565734863,-2.5129971504211426,-2.3501367568969727,0.5195039510726929,7.870896816253662,0.3463359475135803,5.8382344245910645,16.215944290161133,1.4595586061477661,2.9685938358306885,-1.4698662757873535
1741274305.7502303,-0.6431953310966492,2.597519636154175,-2.133676767349243,-5.046609401702881,0.940054714679718,8.013141632080078,0.0,7.02567195892334,16.784923553466797,1.7316796779632568,2.646996259689331,-1.4698662757873535
1741274305.7526896,-0.5937187671661377,1.6079883575439453,-2.892317533493042,-4.922918319702148,1.9048477411270142,7.681236743927002,0.0,7.693605899810791,16.784923553466797,2.1027538776397705,2.0780158042907715,-2.7026572227478027
1741274305.7544448,-0.7421484589576721,1.4100821018218994,-2.6078271865844727,-4.4776291847229,1.6822031736373901,7.681236743927002,0.5442422032356262,8.039941787719727,15.552133560180664,2.4985663890838623,1.0884844064712524,-2.987147569656372
1741274305.7565465,-1.0637460947036743,1.1132227182388306,-2.892317533493042,-3.339668035507202,1.558511734008789,7.633821487426758,1.5090352296829224,7.940988540649414,15.457303047180176,2.399613380432129,0.3463359475135803,-2.797487497329712
1741274305.758449,-1.4842969179153442,1.0637460947036743,-3.6035430431365967,-3.042808771133423,1.3606054782867432,7.776066780090332,2.597519636154175,7.545176029205322,15.22022819519043,1.8306329250335693,0.5195039510726929,-2.4181671142578125
1741274305.7605455,-1.9295859336853027,0.3463359475135803,-3.4612979888916016,-3.78495717048645,1.0390079021453857,7.823481559753418,2.820164203643799,7.124625205993652,15.172813415527344,1.8058946132659912,0.3463359475135803,-2.5129971504211426
1741274305.7630336,-1.8306329250335693,0.14842969179153442,-3.034562587738037,-3.5870509147644043,1.0390079021453857,7.681236743927002,2.67173433303833,7.421484470367432,15.172813415527344,1.4842969179153442,0.44528907537460327,-2.3233370780944824
1741274305.7645342,-1.6822031736373901,0.470027357339859,-2.987147569656372,-3.958125114440918,2.5233047008514404,8.676952362060547,3.4386212825775146,6.407215118408203,14.651247024536133,1.3606054782867432,0.5195039510726929,-2.2759218215942383
1741274305.766786,-1.4100821018218994,0.07421484589576721,-2.892317533493042,-3.78495717048645,2.3501367568969727,8.676952362060547,3.0180704593658447,6.2835235595703125,15.03056812286377,1.3853437900543213,0.3463359475135803,-2.7026572227478027
1741274305.7690983,-1.3606054782867432,0.12369140982627869,-2.4655821323394775,-4.700273513793945,2.7212109565734863,9.245932579040527,3.290191411972046,6.060879230499268,15.03056812286377,1.1132227182388306,0.44528907537460327,-3.034562587738037
1741274305.7703092,-1.1874375343322754,0.14842969179153442,-2.7026572227478027,-4.848703384399414,2.9685938358306885,9.245932579040527,3.710742235183716,6.060879230499268,15.03056812286377,1.1874375343322754,0.44528907537460327,-2.2759218215942383
1741274305.772446,-1.1132227182388306,0.0,-2.6078271865844727,-5.096086025238037,3.042808771133423,9.103687286376953,3.958125114440918,5.714543342590332,15.172813415527344,1.2863906621932983,0.3215976655483246,-2.133676767349243
1741274305.7742856,-1.0390079021453857,0.049476563930511475,-2.3233370780944824,-4.700273513793945,3.1912384033203125,9.388177871704102,4.081816673278809,5.665066719055176,15.457303047180176,0.940054714679718,0.3215976655483246,-2.4181671142578125
1741274305.7762945,-1.0390079021453857,0.22264453768730164,-2.086261749267578,-4.576581954956055,3.1912384033203125,9.67266845703125,4.0570783615112305,5.73928165435791,15.646963119506836,0.7668867111206055,0.12369140982627869,-1.896601676940918
1741274305.7785163,-1.1132227182388306,0.049476563930511475,-2.2285068035125732,-4.5023674964904785,3.1912384033203125,9.86232852935791,4.205507755279541,5.8382344245910645,15.836623191833496,0.6926718950271606,0.049476563930511475,-1.896601676940918
1741274305.7802167,-1.0390079021453857,-0.024738281965255737,-1.4698662757873535,-4.527105808258057,3.339668035507202,9.957158088684082,4.180769443511963,5.788757801055908,15.97886848449707,0.5195039510726929,0.14842969179153442,-1.8017715215682983
1741274305.7823942,-0.9895312786102295,0.22264453768730164,-1.6121113300323486,-4.601320266723633,3.3644063472747803,10.099403381347656,4.007601737976074,5.76401948928833,15.836623191833496,0.44528907537460327,0.22264453768730164,-1.6595264673233032
1741274305.7842803,-0.940054714679718,0.14842969179153442,-1.4698662757873535,-4.749750137329102,3.290191411972046,10.289063453674316,4.0570783615112305,5.73928165435791,15.78920841217041,0.44528907537460327,0.12369140982627869,-0.8534707427024841
1741274305.7861872,-0.7916250228881836,0.14842969179153442,-1.2327910661697388,-5.120824337005615,3.1912384033203125,10.43130874633789,3.958125114440918,5.714543342590332,15.59954833984375,0.3463359475135803,0.0,-0.995715856552124
1741274305.7887077,-0.8658398389816284,0.14842969179153442,-1.1379609107971191,-5.145562648773193,3.1665000915527344,10.478723526000977,4.007601737976074,5.714543342590332,15.836623191833496,0.37107422947883606,-0.049476563930511475,-1.1379609107971191
1741274305.7903717,-0.7421484589576721,0.12369140982627869,-1.1379609107971191,-5.046609401702881,3.1417617797851562,10.573554039001465,4.180769443511963,5.8382344245910645,15.741793632507324,0.3215976655483246,0.024738281965255737,-1.090545892715454
1741274305.792818,-0.7916250228881836,0.024738281965255737,-1.1379609107971191,-4.3044610023498535,3.265453338623047,10.194233894348145,4.205507755279541,7.495699405670166,16.832340240478516,0.24738281965255737,-0.07421484589576721,-1.2802060842514038
1741274305.7945435,-0.8411015868186951,0.0,-1.5172812938690186,-4.403414249420166,2.869640827178955,10.24164867401123,3.9086484909057617,7.273055076599121,16.974584579467773,0.37107422947883606,-0.07421484589576721,-0.7112256288528442
1741274305.7967772,-0.7916250228881836,-0.024738281965255737,-0.8060556650161743,-4.329199314117432,2.9685938358306885,10.289063453674316,3.8839101791381836,7.347269535064697,17.02199935913086,0.42055079340934753,-0.07421484589576721,-0.995715856552124
1741274305.7984939,-0.7916250228881836,0.0,-1.090545892715454,-4.3044610023498535,2.9438555240631104,10.289063453674316,3.710742235183716,7.347269535064697,17.353904724121094,0.37107422947883606,0.024738281965255737,-0.9008857607841492
1741274305.8001971,-0.8411015868186951,-0.24738281965255737,-0.8534707427024841,-4.329199314117432,2.844902515411377,10.289063453674316,3.537574291229248,7.520437717437744,17.353904724121094,0.470027357339859,-0.3463359475135803,-1.043130874633789
1741274305.8025148,-0.8411015868186951,-0.2721211016178131,-0.8534707427024841,-4.329199314117432,2.820164203643799,10.383893966674805,3.537574291229248,7.5946526527404785,17.259075164794922,0.470027357339859,-0.024738281965255737,-0.995715856552124
1741274305.8042207,-0.7916250228881836,-0.3463359475135803,-0.7112256288528442,-4.329199314117432,2.7706875801086426,10.383893966674805,3.3891446590423584,7.520437717437744,17.069414138793945,0.5442422032356262,-0.12369140982627869,-0.3319052755832672
1741274305.806127,-0.8905781507492065,-0.44528907537460327,-0.995715856552124,-4.205507755279541,2.820164203643799,10.478723526000977,3.339668035507202,7.545176029205322,17.02199935913086,0.5195039510726929,-0.44528907537460327,0.04741504043340683
1741274305.8088787,-0.8658398389816284,-0.470027357339859,-0.5215654373168945,-4.205507755279541,2.622257947921753,10.62096881866455,3.3891446590423584,7.495699405670166,17.02199935913086,0.5442422032356262,-1.0390079021453857,0.3319052755832672
1741274305.810483,-0.8658398389816284,-0.3215976655483246,-0.6638105511665344,-4.230246067047119,2.7212109565734863,10.62096881866455,3.4386212825775146,7.44622278213501,17.02199935913086,0.5689804553985596,-0.6926718950271606,0.3319052755832672
1741274305.8128219,-0.8411015868186951,-0.6679335832595825,-0.4741504192352295,-4.205507755279541,2.820164203643799,10.668384552001953,3.3891446590423584,7.297793388366699,16.832340240478516,0.5195039510726929,-1.0390079021453857,0.7112256288528442
1741274305.8146744,-0.7916250228881836,-0.5442422032356262,-0.1422451138496399,-4.180769443511963,2.9191172122955322,10.668384552001953,3.3891446590423584,7.322531700134277,16.927169799804688,0.5442422032356262,-1.0884844064712524,0.9008857607841492
1741274305.8168824,-0.8411015868186951,-0.470027357339859,-0.23707520961761475,-4.205507755279541,2.9438555240631104,10.668384552001953,3.3644063472747803,7.347269535064697,16.73750877380371,0.5937187671661377,-0.8905781507492065,1.043130874633789
1741274305.8184223,-0.8658398389816284,-0.42055079340934753,-0.23707520961761475,-4.205507755279541,3.0180704593658447,10.858044624328613,3.339668035507202,7.322531700134277,16.73750877380371,0.5937187671661377,-0.8411015868186951,0.8534707427024841
1741274305.8204803,-0.7916250228881836,-0.42055079340934753,0.0,-4.279722690582275,3.042808771133423,10.810628890991211,3.2407150268554688,7.223578453063965,16.595264434814453,0.5195039510726929,-0.8658398389816284,1.043130874633789
1741274305.8228993,-0.6926718950271606,-0.5689804553985596,0.09483008086681366,-4.156031608581543,3.042808771133423,10.858044624328613,3.290191411972046,7.223578453063965,16.547849655151367,0.5689804553985596,-0.5937187671661377,0.6638105511665344
1741274305.8245785,-0.6926718950271606,-0.6679335832595825,0.2844902276992798,-4.106554985046387,2.7459492683410645,10.858044624328613,3.3891446590423584,7.099886894226074,16.168529510498047,0.5937187671661377,-0.8658398389816284,1.090545892715454
1741274305.8268402,-0.6679335832595825,-0.5937187671661377,0.4741504192352295,-4.106554985046387,2.7459492683410645,10.858044624328613,3.4386212825775146,6.976195335388184,16.073698043823242,0.5689804553985596,-0.8658398389816284,0.995715856552124
1741274305.8286607,-0.6679335832595825,-0.7916250228881836,0.6163955330848694,-4.106554985046387,2.844902515411377,11.000288963317871,3.3644063472747803,6.901980876922607,15.646963119506836,0.5937187671661377,-0.8905781507492065,1.4224512577056885
1741274305.8305893,-0.5937187671661377,-0.5937187671661377,1.043130874633789,-4.106554985046387,2.7706875801086426,10.952874183654785,3.3891446590423584,6.901980876922607,15.552133560180664,0.5689804553985596,-0.7421484589576721,1.3276211023330688
1741274305.8328116,-0.5937187671661377,-0.7421484589576721,0.8534707427024841,-4.205507755279541,2.9685938358306885,10.858044624328613,3.488097667694092,6.679336071014404,15.40988826751709,0.6431953310966492,-1.1132227182388306,1.5172812938690186
1741274305.834531,-0.5937187671661377,-1.1874375343322754,1.1379609107971191,-4.205507755279541,2.9685938358306885,10.858044624328613,3.4633593559265137,6.654597759246826,15.40988826751709,0.5937187671661377,-1.0390079021453857,1.4698662757873535
1741274305.8365667,-0.6431953310966492,-1.0390079021453857,1.2802060842514038,-4.279722690582275,2.9685938358306885,10.858044624328613,3.562312602996826,6.580382823944092,15.077982902526855,0.5937187671661377,-1.1626992225646973,1.7069414854049683
1741274305.8386827,-0.5937187671661377,-1.2616523504257202,1.7069414854049683,-4.3044610023498535,3.042808771133423,10.952874183654785,3.488097667694092,6.506168365478516,15.077982902526855,0.6926718950271606,-1.2616523504257202,1.5172812938690186
1741274305.8402433,-0.5937187671661377,-1.0637460947036743,1.3276211023330688,-4.329199314117432,3.067546844482422,10.952874183654785,3.5870509147644043,6.4814300537109375,15.03056812286377,0.6926718950271606,-1.0390079021453857,2.086261749267578
1741274305.842543,-0.5689804553985596,-1.1132227182388306,1.5172812938690186,-4.403414249420166,3.117023468017578,11.000288963317871,3.6365275382995605,6.407215118408203,14.935737609863281,0.6679335832595825,-1.1626992225646973,2.4655821323394775
1741274305.844334,-0.5689804553985596,-1.1132227182388306,1.8491865396499634,-4.3044610023498535,3.1665000915527344,10.952874183654785,3.6365275382995605,6.357738494873047,14.935737609863281,0.6679335832595825,-1.2121758460998535,2.133676767349243
1741274305.8462665,-0.5442422032356262,-0.9895312786102295,1.6121113300323486,-4.378675937652588,3.1417617797851562,10.952874183654785,3.710742235183716,6.234046936035156,14.84090805053711,0.7668867111206055,-1.0884844064712524,1.896601676940918
1741274305.8482676,-0.5195039510726929,-1.1132227182388306,1.7069414854049683,-4.428152561187744,3.1665000915527344,11.000288963317871,3.6612658500671387,6.234046936035156,14.651247024536133,0.7668867111206055,-1.3111289739608765,2.086261749267578
1741274305.8503008,-0.5442422032356262,-1.0390079021453857,1.4224512577056885,-4.403414249420166,3.2407150268554688,10.952874183654785,3.6612658500671387,5.986664295196533,14.603832244873047,0.7668867111206055,-1.0390079021453857,2.4655821323394775
1741274305.852843,-0.5195039510726929,-0.8905781507492065,1.7069414854049683,-4.428152561187744,3.2407150268554688,11.000288963317871,3.710742235183716,5.986664295196533,14.556417465209961,0.6431953310966492,-1.3606054782867432,1.8491865396499634
1741274305.8544822,-0.37107422947883606,-1.0390079021453857,1.6121113300323486,-4.230246067047119,2.820164203643799,10.858044624328613,3.710742235183716,5.862972736358643,14.414172172546387,0.7668867111206055,-0.940054714679718,2.133676767349243
1741274305.8568482,-0.5195039510726929,-1.0637460947036743,1.6595264673233032,-4.205507755279541,2.7212109565734863,10.858044624328613,3.78495717048645,5.788757801055908,14.271926879882812,0.7668867111206055,-1.0884844064712524,2.2759218215942383
1741274305.8588533,-0.5689804553985596,-0.8658398389816284,1.8017715215682983,-4.230246067047119,2.597519636154175,10.858044624328613,3.78495717048645,5.665066719055176,14.271926879882812,0.6679335832595825,-1.2121758460998535,2.4181671142578125
1741274305.8603513,-0.5195039510726929,-1.2121758460998535,1.6121113300323486,-4.205507755279541,2.424351692199707,10.858044624328613,3.710742235183716,5.714543342590332,14.271926879882812,0.5937187671661377,-0.9647929668426514,2.133676767349243
1741274305.862875,-0.470027357339859,-1.1132227182388306,1.896601676940918,-4.156031608581543,2.3253984451293945,10.858044624328613,3.760218858718872,5.665066719055176,14.271926879882812,0.6679335832595825,-0.940054714679718,2.2759218215942383
1741274305.8646472,-0.5689804553985596,-0.9647929668426514,2.086261749267578,-4.106554985046387,2.1522305011749268,10.763214111328125,3.6860039234161377,5.665066719055176,14.556417465209961,0.6431953310966492,-1.0637460947036743,2.6078271865844727
1741274305.8669116,-0.5689804553985596,-0.5195039510726929,2.038846731185913,-4.106554985046387,2.0285391807556152,10.668384552001953,3.6860039234161377,5.6155900955200195,14.461586952209473,0.6926718950271606,-0.6926718950271606,2.7026572227478027
1741274305.8687854,-0.6431953310966492,-0.5195039510726929,2.797487497329712,-4.230246067047119,1.781156301498413,10.810628890991211,3.710742235183716,5.442421913146973,14.603832244873047,0.7916250228881836,-0.5442422032356262,2.7026572227478027
1741274305.870435,-0.5937187671661377,-0.7916250228881836,2.4181671142578125,-4.279722690582275,1.880109429359436,10.810628890991211,3.6612658500671387,5.516636848449707,14.603832244873047,0.7668867111206055,-0.42055079340934753,2.7026572227478027
1741274305.872922,-0.5937187671661377,-0.6431953310966492,2.6078271865844727,-4.279722690582275,1.8306329250335693,10.763214111328125,3.6612658500671387,5.541375160217285,14.651247024536133,0.7668867111206055,-0.2721211016178131,2.987147569656372
1741274305.8744798,-0.6431953310966492,-0.37107422947883606,2.797487497329712,-4.279722690582275,1.8058946132659912,10.810628890991211,3.710742235183716,5.34346866607666,14.651247024536133,0.7916250228881836,-0.3215976655483246,2.5129971504211426
